Gems/AtomLyIntegration/CommonFeatures/Tools/ColorGrading/TestData/Nuke/HDR/Test_Grade/Nuke_Post_grade_LUT.3dl
0 33 66 99 132 165 198 231 264 297 330 363 396 429 462 495 528 561 594 627 660 693 726 759 792 825 858 891 924 957 990 1023 
0 0 0
0 0 0
0 23 0
0 116 0
0 216 0
0 323 0
0 436 0
0 552 0
0 673 0
0 796 0
0 921 0
0 1048 0
0 1176 0
0 1305 0
0 1435 0
0 1565 0
0 1696 0
0 1827 0
0 1959 0
0 2090 0
0 2222 0
0 2354 0
0 2486 0
0 2618 0
0 2750 0
0 2882 0
0 3014 0
0 3146 0
0 3278 0
0 3410 0
0 3542 0
0 3674 0
131 0 26
20 0 0
0 40 0
0 130 0
0 228 0
0 332 0
0 443 0
0 558 0
0 677 0
0 799 0
0 923 0
0 1050 0
0 1177 0
0 1306 0
0 1436 0
0 1566 0
0 1697 0
0 1828 0
0 1959 0
0 2091 0
0 2222 0
0 2354 0
0 2486 0
0 2618 0
0 2750 0
0 2882 0
0 3014 0
0 3146 0
0 3278 0
0 3410 0
0 3542 0
0 3674 0
343 0 181
277 0 108
169 62 0
0 148 0
0 242 0
0 344 0
0 452 0
0 565 0
0 682 0
0 803 0
0 927 0
0 1052 0
0 1179 0
0 1308 0
0 1437 0
0 1567 0
0 1697 0
0 1828 0
0 1959 0
0 2091 0
0 2222 0
0 2354 0
0 2486 0
0 2618 0
0 2750 0
0 2882 0
0 3014 0
0 3146 0
0 3278 0
0 3410 0
0 3542 0
0 3674 0
528 0 329
484 17 278
419 89 199
314 171 66
120 261 0
0 359 0
0 464 0
0 574 0
0 690 0
0 809 0
0 931 0
0 1055 0
0 1182 0
0 1309 0
0 1438 0
0 1568 0
0 1698 0
0 1829 0
0 1960 0
0 2091 0
0 2223 0
0 2354 0
0 2486 0
0 2618 0
0 2750 0
0 2882 0
0 3014 0
0 3146 0
0 3278 0
0 3410 0
0 3542 0
0 3674 0
695 0 473
666 57 436
623 124 382
559 200 297
456 285 153
267 378 0
0 479 0
0 586 0
0 699 0
0 816 0
0 936 0
0 1060 0
0 1185 0
0 1312 0
0 1440 0
0 1569 0
0 1699 0
0 1830 0
0 1960 0
0 2092 0
0 2223 0
0 2355 0
0 2486 0
0 2618 0
0 2750 0
0 2882 0
0 3014 0
0 3146 0
0 3278 0
0 3410 0
0 3542 0
0 3674 0
852 55 613
831 106 587
802 166 549
760 236 492
696 315 403
595 403 247
409 499 0
0 602 0
0 711 0
0 826 0
0 944 0
0 1065 0
0 1189 0
0 1315 0
0 1442 0
0 1571 0
0 1700 0
0 1831 0
0 1961 0
0 2092 0
0 2223 0
0 2355 0
0 2487 0
0 2618 0
0 2750 0
0 2882 0
0 3014 0
0 3146 0
0 3278 0
0 3410 0
0 3542 0
0 3674 0
1002 119 752
987 164 732
966 217 705
937 280 665
895 352 606
832 434 513
732 524 349
549 622 0
54 727 0
0 838 0
0 953 0
0 1073 0
0 1195 0
0 1319 0
0 1446 0
0 1574 0
0 1702 0
0 1832 0
0 1962 0
0 2093 0
0 2224 0
0 2355 0
0 2487 0
0 2618 0
0 2750 0
0 2882 0
0 3014 0
0 3146 0
0 3278 0
0 3410 0
0 3542 0
0 3674 0
1147 193 888
1136 231 874
1121 278 854
1101 333 826
1072 398 786
1030 472 725
968 556 629
868 648 457
686 748 24
203 854 0
0 966 0
0 1082 0
0 1202 0
0 1325 0
0 1450 0
0 1577 0
0 1705 0
0 1834 0
0 1964 0
0 2094 0
0 2225 0
0 2356 0
0 2487 0
0 2619 0
0 2751 0
0 2882 0
0 3014 0
0 3146 0
0 3278 0
0 3410 0
0 3542 0
0 3674 0
1288 276 1024
1280 308 1013
1269 348 999
1255 395 979
1234 453 950
1206 519 909
1164 595 847
1102 680 748
1003 774 571
823 875 106
347 982 0
0 1095 0
0 1212 0
0 1333 0
0 1456 0
0 1581 0
0 1708 0
0 1836 0
0 1965 0
0 2095 0
0 2226 0
0 2357 0
0 2488 0
0 2619 0
0 2751 0
0 2883 0
0 3014 0
0 3146 0
0 3278 0
0 3410 0
0 3542 0
0 3674 0
1427 368 1159
1421 394 1151
1413 427 1140
1403 468 1125
1388 517 1105
1368 575 1076
1339 643 1034
1298 720 971
1236 807 871
1137 901 688
958 1003 196
487 1111 0
0 1225 0
0 1342 0
0 1463 0
0 1587 0
0 1712 0
0 1840 0
0 1968 0
0 2097 0
0 2227 0
0 2358 0
0 2489 0
0 2620 0
0 2751 0
0 2883 0
0 3015 0
0 3146 0
0 3278 0
0 3410 0
0 3542 0
0 3674 0
1564 467 1293
1560 488 1287
1554 515 1279
1546 549 1268
1536 590 1253
1521 640 1232
1501 700 1203
1472 769 1161
1431 847 1097
1369 934 995
1270 1030 809
1092 1133 294
626 1241 0
0 1355 0
0 1473 0
0 1594 0
0 1718 0
0 1844 0
0 1971 0
0 2100 0
0 2229 0
0 2359 0
0 2490 0
0 2621 0
0 2752 0
0 2883 0
0 3015 0
0 3147 0
0 3278 0
0 3410 0
0 3542 0
0 3674 0
1700 573 1426
1697 590 1422
1693 612 1416
1687 639 1408
1679 673 1397
1668 715 1382
1654 766 1361
1634 826 1332
1605 896 1289
1564 975 1225
1502 1063 1122
1404 1159 932
1226 1263 399
763 1372 0
0 1486 0
0 1604 0
0 1726 0
0 1850 0
0 1976 0
0 2103 0
0 2232 0
0 2361 0
0 2491 0
0 2622 0
0 2753 0
0 2884 0
0 3015 0
0 3147 0
0 3279 0
0 3411 0
0 3542 0
0 3674 0
1835 685 1559
1832 698 1556
1829 715 1552
1825 737 1546
1819 765 1538
1812 799 1527
1801 842 1512
1786 894 1491
1766 954 1461
1738 1025 1418
1696 1104 1353
1635 1193 1249
1537 1289 1058
1359 1393 510
898 1503 0
0 1617 0
0 1736 0
0 1857 0
0 1981 0
0 2107 0
0 2235 0
0 2363 0
0 2493 0
0 2623 0
0 2754 0
0 2885 0
0 3016 0
0 3147 0
0 3279 0
0 3411 0
0 3543 0
0 3675 0
1969 801 1692
1967 811 1690
1965 824 1687
1962 842 1682
1958 864 1676
1952 892 1668
1944 927 1657
1933 970 1642
1919 1022 1621
1899 1083 1591
1870 1154 1548
1829 1234 1483
1767 1323 1378
1669 1420 1185
1492 1524 625
1033 1634 0
0 1748 0
0 1867 0
0 1989 0
0 2113 0
0 2239 0
0 2367 0
0 2495 0
0 2625 0
0 2755 0
0 2886 0
0 3017 0
0 3148 0
0 3280 0
0 3411 0
0 3543 0
0 3675 0
2103 920 1825
2101 928 1823
2100 939 1821
2097 952 1817
2094 970 1813
2090 992 1807
2084 1020 1799
2076 1056 1788
2066 1099 1773
2051 1151 1752
2031 1213 1722
2003 1284 1678
1961 1365 1613
1900 1454 1508
1802 1551 1314
1625 1655 745
1167 1765 0
0 1880 0
0 1999 0
0 2121 0
0 2245 0
0 2371 0
0 2499 0
0 2627 0
0 2757 0
0 2887 0
0 3018 0
0 3149 0
0 3280 0
0 3412 0
0 3543 0
0 3675 0
2236 1043 1957
2235 1049 1956
2234 1057 1954
2232 1067 1952
2229 1081 1949
2226 1099 1944
2222 1121 1938
2216 1150 1930
2209 1185 1919
2198 1229 1904
2184 1281 1883
2163 1343 1853
2135 1415 1809
2094 1495 1744
2032 1585 1638
1934 1682 1443
1758 1787 867
1301 1897 0
0 2012 0
0 2131 0
0 2252 0
0 2377 0
0 2503 0
0 2631 0
0 2759 0
0 2889 0
0 3019 0
0 3150 0
0 3281 0
0 3412 0
0 3544 0
0 3675 0
2369 1168 2090
2368 1172 2089
2367 1178 2087
2366 1187 2086
2364 1197 2083
2362 1211 2080
2359 1229 2076
2354 1251 2070
2349 1280 2061
2341 1316 2050
2330 1359 2035
2316 1412 2014
2296 1474 1984
2267 1546 1940
2226 1626 1875
2165 1716 1769
2067 1814 1573
1890 1918 991
1434 2028 0
0 2143 0
0 2262 0
0 2384 0
0 2509 0
0 2635 0
0 2763 0
0 2891 0
0 3021 0
0 3151 0
0 3282 0
0 3413 0
0 3544 0
0 3676 0
2501 1294 2222
2501 1298 2221
2500 1303 2220
2499 1309 2219
2498 1317 2217
2496 1327 2215
2494 1341 2212
2491 1359 2207
2487 1382 2201
2481 1410 2193
2473 1446 2182
2463 1490 2167
2448 1543 2145
2428 1605 2115
2399 1677 2072
2358 1758 2006
2297 1848 1900
2199 1945 1703
2023 2050 1118
1567 2160 0
0 2275 0
0 2394 0
0 2516 0
0 2641 0
0 2767 0
0 2895 0
0 3023 0
0 3153 0
0 3283 0
0 3414 0
0 3545 0
0 3676 0
2634 1422 2354
2634 1425 2354
2633 1429 2353
2632 1433 2352
2631 1439 2351
2630 1447 2349
2628 1458 2347
2626 1472 2343
2623 1490 2339
2619 1513 2333
2613 1541 2325
2605 1577 2314
2595 1621 2298
2580 1674 2277
2560 1736 2247
2532 1808 2203
2491 1889 2138
2429 1979 2031
2331 2077 1834
2155 2182 1246
1699 2292 0
0 2407 0
0 2526 0
0 2648 0
0 2773 0
0 2899 0
0 3027 0
0 3156 0
0 3285 0
0 3415 0
0 3546 0
0 3677 0
2767 1551 2487
2766 1553 2486
2766 1556 2486
2765 1559 2485
2765 1564 2484
2764 1570 2483
2762 1578 2481
2761 1589 2478
2758 1603 2475
2755 1621 2471
2751 1644 2465
2745 1673 2457
2737 1709 2445
2727 1753 2430
2712 1806 2409
2692 1868 2379
2664 1940 2335
2623 2021 2269
2561 2111 2163
2463 2209 1965
2287 2314 1374
1832 2424 0
0 2539 0
0 2658 0
0 2780 0
0 2905 0
0 3031 0
0 3159 0
0 3288 0
0 3417 0
0 3547 0
0 3678 0
2899 1681 2619
2899 1683 2619
2898 1685 2618
2898 1687 2618
2897 1691 2617
2897 1695 2616
2896 1702 2614
2894 1710 2613
2893 1720 2610
2890 1734 2607
2887 1752 2603
2883 1775 2597
2877 1804 2588
2870 1840 2577
2859 1884 2562
2845 1937 2541
2824 2000 2511
2796 2072 2467
2755 2153 2401
2693 2243 2295
2596 2341 2097
2420 2446 1504
1964 2556 0
0 2671 0
0 2790 0
0 2912 0
0 3037 0
0 3163 0
0 3291 0
0 3420 0
0 3549 0
0 3680 0
3031 1811 2751
3031 1813 2751
3031 1814 2751
3030 1816 2750
3030 1819 2750
3030 1822 2749
3029 1827 2748
3028 1833 2746
3027 1841 2745
3025 1852 2742
3023 1866 2739
3019 1884 2734
3015 1907 2728
3009 1936 2720
3002 1972 2709
2991 2016 2694
2977 2069 2673
2956 2131 2642
2928 2203 2599
2887 2285 2533
2826 2375 2426
2728 2473 2228
2552 2577 1634
2097 2688 0
0 2803 0
0 2922 0
0 3044 0
0 3169 0
0 3295 0
0 3423 0
0 3552 0
0 3681 0
3163 1942 2883
3163 1943 2883
3163 1944 2883
3163 1946 2882
3163 1948 2882
3162 1950 2882
3162 1954 2881
3161 1959 2880
3160 1965 2878
3159 1973 2877
3157 1984 2874
3155 1997 2871
3152 2015 2866
3147 2038 2860
3142 2067 2852
3134 2104 2841
3123 2148 2826
3109 2201 2805
3089 2263 2774
3060 2335 2731
3019 2417 2665
2958 2507 2558
2860 2605 2360
2684 2709 1765
2229 2820 0
0 2935 0
0 3054 0
0 3177 0
0 3301 0
0 3427 0
0 3555 0
0 3684 0
3296 2073 3015
3296 2074 3015
3295 2075 3015
3295 2076 3015
3295 2077 3014
3295 2079 3014
3294 2082 3014
3294 2086 3013
3293 2090 3012
3292 2096 3010
3291 2105 3009
3289 2115 3006
3287 2129 3003
3284 2147 2998
3279 2170 2992
3274 2199 2984
3266 2235 2973
3255 2280 2958
3241 2333 2937
3221 2395 2906
3192 2467 2863
3151 2549 2797
3090 2639 2690
2992 2737 2492
2816 2842 1896
2361 2952 0
0 3067 0
0 3186 0
0 3309 0
0 3433 0
0 3559 0
0 3687 0
3428 2205 3147
3428 2205 3147
3428 2206 3147
3428 2207 3147
3427 2208 3147
3427 2209 3147
3427 2211 3146
3426 2214 3146
3426 2217 3145
3425 2222 3144
3424 2228 3142
3423 2237 3141
3421 2247 3138
3419 2261 3135
3416 2279 3130
3412 2302 3124
3406 2331 3116
3398 2367 3105
3388 2411 3090
3373 2465 3069
3353 2527 3038
3324 2599 2995
3283 2681 2929
3222 2771 2822
3124 2869 2624
2948 2974 2027
2493 3084 0
0 3199 0
0 3319 0
0 3441 0
0 3565 0
0 3692 0
3560 2336 3280
3560 2337 3280
3560 2337 3279
3560 2338 3279
3560 2338 3279
3559 2340 3279
3559 2341 3279
3559 2343 3278
3559 2346 3278
3558 2349 3277
3557 2354 3276
3556 2360 3274
3555 2368 3273
3553 2379 3270
3551 2393 3267
3548 2411 3262
3544 2434 3256
3538 2463 3248
3530 2499 3237
3520 2543 3222
3505 2597 3201
3485 2659 3170
3457 2731 3127
3415 2813 3061
3354 2903 2954
3256 3001 2756
3080 3106 2159
2626 3216 0
0 3331 0
0 3451 0
0 3573 0
0 3697 0
3692 2468 3412
3692 2468 3412
3692 2468 3412
3692 2469 3411
3692 2470 3411
3692 2470 3411
3692 2472 3411
3691 2473 3411
3691 2475 3410
3691 2478 3410
3690 2481 3409
3689 2486 3408
3688 2492 3407
3687 2500 3405
3685 2511 3402
3683 2525 3399
3680 2543 3395
3676 2566 3389
3670 2595 3380
3662 2631 3369
3652 2675 3354
3637 2729 3333
3617 2791 3302
3589 2863 3259
3548 2945 3193
3486 3035 3086
3388 3133 2888
3212 3238 2291
2758 3348 0
0 3464 0
0 3583 0
0 3705 0
3824 2600 3544
3824 2600 3544
3824 2600 3544
3824 2600 3544
3824 2601 3544
3824 2602 3543
3824 2602 3543
3824 2604 3543
3823 2605 3543
3823 2607 3542
3823 2610 3542
3822 2613 3541
3821 2618 3540
3821 2624 3539
3819 2632 3537
3818 2643 3534
3815 2657 3531
3812 2675 3527
3808 2698 3521
3802 2727 3512
3794 2763 3501
3784 2807 3486
3769 2861 3465
3749 2923 3435
3721 2995 3391
3680 3077 3325
3618 3167 3218
3520 3265 3020
3345 3370 2422
2890 3480 0
0 3596 0
0 3715 0
3956 2732 3676
3956 2732 3676
3956 2732 3676
3956 2732 3676
