Gems/Atom/Feature/Common/Tools/ColorGrading/Resources/TestData/Nuke/HDR/Test_Grade/test-grade_inv-Log2-48nits_32_LUT.3dl
0 33 66 99 132 165 198 231 264 297 330 363 396 429 462 495 528 561 594 627 660 693 726 759 792 825 858 891 924 957 990 1023 
0 0 0
0 0 0
0 15 0
0 104 0
0 201 0
0 305 0
0 415 0
0 530 0
0 649 0
0 771 0
0 895 0
0 1022 0
0 1149 0
0 1278 0
0 1408 0
0 1538 0
0 1668 0
0 1799 0
0 1931 0
0 2062 0
0 2194 0
0 2326 0
0 2457 0
0 2589 0
0 2721 0
0 2853 0
0 2985 0
0 3117 0
0 3249 0
0 3381 0
0 3514 0
0 3646 0
130 0 20
28 0 0
0 33 0
0 119 0
0 213 0
0 315 0
0 423 0
0 536 0
0 654 0
0 775 0
0 898 0
0 1024 0
0 1151 0
0 1279 0
0 1408 0
0 1538 0
0 1669 0
0 1800 0
0 1931 0
0 2062 0
0 2194 0
0 2326 0
0 2458 0
0 2589 0
0 2721 0
0 2853 0
0 2985 0
0 3117 0
0 3249 0
0 3381 0
0 3514 0
0 3646 0
342 0 170
280 0 102
183 56 0
7 139 0
0 229 0
0 328 0
0 433 0
0 544 0
0 660 0
0 779 0
0 902 0
0 1026 0
0 1153 0
0 1281 0
0 1410 0
0 1539 0
0 1670 0
0 1800 0
0 1931 0
0 2063 0
0 2194 0
0 2326 0
0 2458 0
0 2589 0
0 2721 0
0 2853 0
0 2985 0
0 3117 0
0 3249 0
0 3381 0
0 3514 0
0 3646 0
526 0 315
486 18 266
426 86 192
331 163 68
163 250 0
0 344 0
0 446 0
0 555 0
0 668 0
0 785 0
0 906 0
0 1030 0
0 1156 0
0 1283 0
0 1411 0
0 1540 0
0 1670 0
0 1801 0
0 1932 0
0 2063 0
0 2194 0
0 2326 0
0 2458 0
0 2590 0
0 2722 0
0 2853 0
0 2985 0
0 3117 0
0 3249 0
0 3382 0
0 3514 0
0 3646 0
693 8 457
666 60 422
626 123 370
568 195 290
475 276 155
312 366 0
0 463 0
0 568 0
0 678 0
0 794 0
0 913 0
0 1035 0
0 1159 0
0 1285 0
0 1413 0
0 1542 0
0 1672 0
0 1802 0
0 1932 0
0 2064 0
0 2195 0
0 2326 0
0 2458 0
0 2590 0
0 2722 0
0 2854 0
0 2985 0
0 3117 0
0 3249 0
0 3382 0
0 3514 0
0 3646 0
850 65 596
831 112 570
804 168 534
765 233 479
707 308 395
616 393 250
457 485 0
82 585 0
0 692 0
0 804 0
0 921 0
0 1041 0
0 1164 0
0 1289 0
0 1416 0
0 1544 0
0 1673 0
0 1803 0
0 1933 0
0 2064 0
0 2195 0
0 2327 0
0 2458 0
0 2590 0
0 2722 0
0 2854 0
0 2986 0
0 3118 0
0 3250 0
0 3382 0
0 3514 0
0 3646 0
999 131 733
986 172 714
967 222 688
940 280 650
901 348 594
844 426 505
755 513 352
598 608 3
235 710 0
0 818 0
0 932 0
0 1049 0
0 1170 0
0 1294 0
0 1420 0
0 1547 0
0 1675 0
0 1805 0
0 1935 0
0 2065 0
0 2196 0
0 2327 0
0 2459 0
0 2590 0
0 2722 0
0 2854 0
0 2986 0
0 3118 0
0 3250 0
0 3382 0
0 3514 0
0 3646 0
1144 207 869
1134 242 855
1121 285 836
1102 336 809
1075 397 770
1037 468 712
980 547 621
892 636 461
737 732 82
382 836 0
0 946 0
0 1060 0
0 1179 0
0 1300 0
0 1424 0
0 1550 0
0 1678 0
0 1807 0
0 1936 0
0 2066 0
0 2197 0
0 2328 0
0 2459 0
0 2591 0
0 2722 0
0 2854 0
0 2986 0
0 3118 0
0 3250 0
0 3382 0
0 3514 0
0 3646 0
1286 293 1004
1278 322 994
1268 358 980
1255 402 960
1236 455 932
1210 518 893
1172 590 833
1115 671 740
1027 761 574
874 859 170
525 964 0
0 1074 0
0 1190 0
0 1309 0
0 1431 0
0 1555 0
0 1682 0
0 1809 0
0 1938 0
0 2068 0
0 2198 0
0 2329 0
0 2460 0
0 2591 0
0 2723 0
0 2854 0
0 2986 0
0 3118 0
0 3250 0
0 3382 0
0 3514 0
0 3646 0
1424 386 1138
1419 410 1131
1412 440 1120
1402 477 1106
1389 523 1086
1370 577 1058
1343 641 1018
1306 714 958
1250 797 862
1162 888 692
1010 987 267
665 1093 0
0 1204 0
0 1320 0
0 1439 0
0 1562 0
0 1687 0
0 1813 0
0 1941 0
0 2070 0
0 2200 0
0 2330 0
0 2461 0
0 2592 0
0 2723 0
0 2855 0
0 2986 0
0 3118 0
0 3250 0
0 3382 0
0 3514 0
0 3646 0
1562 487 1272
1558 506 1266
1552 531 1258
1545 561 1248
1535 599 1234
1522 646 1213
1503 701 1185
1477 766 1144
1439 840 1084
1383 924 987
1296 1016 813
1145 1116 370
802 1222 0
0 1334 0
0 1450 0
0 1570 0
0 1693 0
0 1818 0
0 1945 0
0 2073 0
0 2202 0
0 2331 0
0 2462 0
0 2593 0
0 2724 0
0 2855 0
0 2987 0
0 3118 0
0 3250 0
0 3382 0
0 3514 0
0 3646 0
1697 595 1405
1695 610 1401
1691 629 1395
1685 654 1387
1678 685 1377
1668 724 1362
1655 771 1342
1636 827 1314
1610 893 1273
1572 968 1211
1517 1053 1113
1430 1145 937
1279 1246 479
939 1352 0
0 1465 0
0 1581 0
0 1701 0
0 1824 0
0 1950 0
0 2076 0
0 2204 0
0 2334 0
0 2463 0
0 2594 0
0 2725 0
0 2856 0
0 2987 0
0 3119 0
0 3250 0
0 3382 0
0 3514 0
0 3646 0
1832 707 1538
1830 719 1535
1827 735 1531
1823 755 1525
1818 780 1517
1811 811 1507
1801 851 1492
1788 898 1472
1769 955 1443
1743 1021 1402
1705 1097 1340
1650 1182 1241
1563 1275 1062
1412 1376 594
1074 1483 0
0 1596 0
0 1712 0
0 1833 0
0 1956 0
0 2081 0
0 2208 0
0 2336 0
0 2466 0
0 2595 0
0 2726 0
0 2857 0
0 2988 0
0 3119 0
0 3251 0
0 3383 0
0 3514 0
0 3646 0
1966 824 1671
1965 834 1668
1963 846 1665
1960 861 1661
1956 881 1655
1951 907 1647
1943 939 1637
1934 978 1622
1920 1026 1602
1902 1084 1573
1875 1150 1531
1838 1227 1469
1782 1312 1370
1696 1406 1190
1545 1507 712
1209 1614 0
0 1727 0
0 1844 0
0 1964 0
0 2088 0
0 2213 0
0 2340 0
0 2468 0
0 2597 0
0 2727 0
0 2858 0
0 2989 0
0 3120 0
0 3251 0
0 3383 0
0 3515 0
0 3646 0
2100 945 1803
2099 952 1802
2097 961 1799
2095 973 1796
2092 989 1792
2088 1009 1786
2083 1035 1778
2076 1067 1768
2066 1107 1753
2053 1156 1732
2034 1213 1703
2008 1280 1662
1970 1357 1599
1915 1442 1499
1828 1536 1318
1678 1638 834
1342 1745 0
0 1858 0
0 1976 0
0 2096 0
0 2220 0
0 2345 0
0 2472 0
0 2600 0
0 2730 0
0 2859 0
0 2990 0
0 3121 0
0 3252 0
0 3383 0
0 3515 0
0 3647 0
2233 1068 1936
2232 1074 1935
2231 1081 1933
2230 1090 1930
2227 1102 1927
2225 1118 1923
2221 1139 1917
2215 1164 1909
2208 1197 1899
2198 1237 1884
2185 1286 1863
2166 1343 1834
2140 1411 1793
2103 1488 1730
2047 1573 1629
1961 1668 1447
1811 1769 958
1476 1877 0
0 1990 0
0 2107 0
0 2228 0
0 2351 0
0 2477 0
0 2604 0
0 2732 0
0 2862 0
0 2991 0
0 3122 0
0 3253 0
0 3384 0
0 3515 0
0 3647 0
2366 1194 2068
2366 1198 2067
2365 1203 2066
2364 1210 2064
2362 1220 2062
2360 1232 2059
2357 1248 2054
2353 1268 2049
2348 1294 2041
2340 1327 2030
2331 1367 2015
2317 1416 1995
2299 1474 1966
2273 1542 1924
2235 1619 1861
2180 1705 1760
2093 1799 1577
1944 1901 1084
1609 2009 0
0 2122 0
0 2239 0
0 2360 0
0 2483 0
0 2609 0
0 2736 0
0 2864 0
0 2994 0
0 3124 0
0 3254 0
0 3385 0
0 3516 0
0 3648 0
2499 1321 2200
2499 1324 2200
2498 1328 2199
2497 1333 2197
2496 1340 2196
2494 1350 2193
2492 1362 2190
2489 1378 2186
2485 1399 2180
2480 1425 2172
2473 1458 2161
2463 1498 2147
2450 1547 2126
2431 1605 2097
2405 1673 2055
2367 1750 1992
2312 1836 1891
2226 1931 1708
2076 2032 1211
1742 2140 0
0 2254 0
0 2371 0
0 2492 0
0 2615 0
0 2741 0
0 2868 0
0 2996 0
0 3126 0
0 3256 0
0 3386 0
0 3517 0
0 3648 0
2632 1449 2333
2631 1451 2332
2631 1454 2331
2630 1458 2330
2629 1464 2329
2628 1471 2327
2626 1481 2325
2624 1493 2322
2621 1509 2318
2617 1530 2312
2612 1556 2304
2605 1589 2293
2595 1629 2278
2582 1678 2258
2563 1736 2229
2537 1804 2187
2500 1881 2123
2444 1968 2023
2358 2062 1839
2208 2164 1340
1874 2272 0
0 2385 0
0 2503 0
0 2624 0
0 2747 0
0 2873 0
0 3000 0
0 3128 0
0 3258 0
0 3388 0
0 3518 0
0 3649 0
2764 1578 2465
2764 1580 2465
2763 1582 2464
2763 1585 2463
2762 1589 2462
2761 1595 2461
2760 1602 2459
2759 1612 2457
2756 1624 2454
2753 1640 2449
2750 1661 2444
2744 1687 2436
2737 1720 2425
2727 1760 2410
2714 1809 2389
2695 1868 2360
2669 1936 2318
2632 2013 2255
2577 2099 2154
2490 2194 1970
2341 2296 1469
2007 2404 0
0 2517 0
0 2635 0
0 2756 0
0 2879 0
0 3005 0
0 3132 0
0 3260 0
0 3390 0
0 3520 0
0 3650 0
2896 1708 2597
2896 1709 2597
2896 1711 2596
2896 1713 2596
2895 1716 2595
2894 1721 2594
2893 1726 2593
2892 1733 2591
2891 1743 2589
2889 1755 2586
2886 1771 2581
2882 1792 2575
2876 1818 2568
2869 1851 2557
2859 1892 2542
2846 1941 2521
2828 1999 2492
2801 2067 2450
2764 2145 2387
2709 2231 2286
2622 2326 2101
2473 2428 1599
2139 2536 0
0 2649 0
0 2767 0
0 2888 0
0 3011 0
0 3137 0
0 3264 0
0 3393 0
0 3522 0
0 3652 0
3029 1838 2729
3029 1839 2729
3028 1841 2729
3028 1842 2728
3028 1845 2728
3027 1848 2727
3027 1852 2726
3026 1858 2725
3024 1865 2723
3023 1874 2721
3021 1887 2717
3018 1903 2713
3014 1924 2707
3009 1950 2699
3001 1983 2689
2992 2024 2674
2978 2073 2653
2960 2131 2624
2934 2199 2582
2896 2277 2519
2841 2363 2418
2755 2458 2233
2605 2560 1730
2272 2668 0
0 2781 0
0 2899 0
0 3020 0
0 3143 0
0 3269 0
0 3396 0
0 3525 0
0 3654 0
3161 1969 2861
3161 1970 2861
3161 1971 2861
3160 1972 2861
3160 1974 2860
3160 1976 2860
3159 1980 2859
3159 1984 2858
3158 1989 2857
3157 1996 2855
3155 2006 2853
3153 2018 2849
3150 2035 2845
3146 2055 2839
3141 2082 2831
3134 2115 2821
3124 2155 2806
3110 2205 2785
3092 2263 2756
3066 2331 2714
3028 2409 2651
2973 2495 2549
2887 2590 2365
2737 2692 1861
2404 2800 0
0 2913 0
0 3031 0
0 3152 0
0 3276 0
0 3401 0
0 3528 0
0 3657 0
3293 2100 2994
3293 2101 2993
3293 2102 2993
3293 2103 2993
3293 2104 2993
3292 2106 2992
3292 2108 2992
3291 2111 2991
3291 2115 2990
3290 2121 2989
3289 2128 2987
3287 2138 2985
3285 2150 2981
3282 2166 2977
3278 2187 2971
3273 2213 2963
3266 2246 2953
3256 2287 2938
3242 2336 2917
3224 2395 2888
3198 2463 2846
3161 2541 2783
3105 2627 2681
3019 2722 2497
2870 2824 1992
2536 2932 0
0 3046 0
0 3163 0
0 3284 0
0 3408 0
0 3533 0
0 3660 0
3425 2232 3126
3425 2232 3126
3425 2233 3125
3425 2233 3125
3425 2234 3125
3425 2236 3125
3424 2238 3124
3424 2240 3124
3424 2243 3123
3423 2247 3122
3422 2253 3121
3421 2260 3119
3419 2270 3117
3417 2282 3113
3414 2298 3109
3410 2319 3103
3405 2345 3095
3398 2378 3085
3388 2419 3070
3375 2468 3049
3356 2527 3020
3330 2595 2978
3293 2673 2915
3237 2759 2813
3151 2854 2629
3002 2956 2124
2668 3064 0
0 3178 0
0 3295 0
0 3416 0
0 3540 0
0 3665 0
3557 2363 3258
3557 2364 3258
3557 2364 3258
3557 2365 3258
3557 2365 3257
3557 2366 3257
3557 2368 3257
3557 2370 3256
3556 2372 3256
3556 2375 3255
3555 2379 3254
3554 2385 3253
3553 2392 3251
3551 2402 3249
3549 2414 3245
3546 2430 3241
3542 2451 3235
3537 2477 3227
3530 2510 3217
3520 2551 3202
3507 2600 3181
3488 2659 3152
3462 2727 3110
3425 2805 3047
3369 2891 2945
3283 2986 2760
3134 3088 2255
2800 3196 0
0 3310 0
0 3427 0
0 3548 0
0 3672 0
3690 2495 3390
3690 2495 3390
3690 2496 3390
3689 2496 3390
3689 2497 3390
3689 2497 3389
3689 2498 3389
3689 2500 3389
3689 2501 3388
3688 2504 3388
3688 2507 3387
3687 2511 3386
3686 2517 3385
3685 2524 3383
3683 2534 3381
3681 2546 3378
3678 2562 3373
3674 2583 3367
3669 2609 3360
3662 2642 3349
3652 2683 3334
3639 2732 3313
3620 2791 3284
3594 2859 3242
3557 2937 3179
3502 3023 3077
3415 3118 2892
3266 3220 2387
2933 3328 0
0 3442 0
0 3559 0
0 3680 0
3822 2627 3522
3822 2627 3522
3822 2627 3522
3822 2628 3522
3822 2628 3522
3822 2629 3522
3821 2629 3521
3821 2630 3521
3821 2632 3521
3821 2633 3521
3820 2636 3520
3820 2639 3519
3819 2643 3518
3818 2649 3517
3817 2656 3515
3816 2666 3513
3813 2678 3510
3810 2694 3505
3807 2715 3499
3801 2741 3492
3794 2774 3481
3784 2815 3466
3771 2864 3445
3752 2923 3416
3726 2991 3374
3689 3069 3311
3634 3155 3209
3547 3250 3024
3398 3352 2519
3065 3460 0
0 3574 0
0 3691 0
3954 2759 3654
3954 2759 3654
3954 2759 3654
3954 2759 3654
