Gems/AtomLyIntegration/CommonFeatures/Tools/ColorGrading/TestData/Photoshop/HDR_in_LDR_Log2-48nits/Color_Grade_LUT_32.3dl
0 33 66 99 132 165 198 231 264 297 330 363 396 429 462 495 528 561 594 627 660 693 726 759 792 825 858 891 924 957 990 1023 
1181 996 922
1185 1004 939
1191 1014 960
1198 1028 987
1207 1045 1021
1219 1068 1062
1235 1113 1129
1251 1145 1189
1270 1171 1250
1279 1207 1310
1313 1263 1406
1356 1329 1512
1408 1406 1628
1441 1460 1720
1471 1513 1817
1510 1577 1926
1558 1653 2049
1618 1742 2185
1690 1845 2335
1774 1961 2499
1872 2090 2647
1984 2233 2747
2033 2294 2775
2033 2294 2775
2033 2294 2775
2033 2294 2775
2033 2294 2775
2033 2294 2775
2033 2294 2775
2033 2294 2775
2033 2294 2775
2033 2294 2775
1191 1011 937
1186 1012 939
1191 1022 960
1198 1036 987
1208 1053 1021
1220 1075 1062
1236 1113 1123
1253 1152 1190
1271 1177 1250
1281 1213 1311
1315 1268 1407
1358 1334 1513
1410 1411 1629
1445 1466 1721
1475 1519 1817
1514 1582 1926
1562 1658 2049
1621 1746 2185
1692 1848 2335
1776 1963 2499
1874 2092 2647
1986 2235 2747
2035 2295 2775
2035 2295 2775
2035 2295 2775
2035 2295 2775
2035 2295 2775
2035 2295 2775
2035 2295 2775
2035 2295 2775
2035 2295 2775
2035 2295 2775
1204 1032 956
1199 1032 958
1192 1032 960
1199 1045 987
1208 1063 1021
1220 1084 1062
1236 1113 1115
1255 1162 1190
1273 1187 1251
1284 1222 1312
1318 1276 1408
1360 1341 1514
1416 1420 1629
1450 1475 1721
1480 1527 1818
1519 1589 1927
1566 1664 2049
1625 1751 2186
1696 1852 2336
1779 1967 2499
1877 2095 2647
1988 2237 2747
2037 2298 2775
2037 2298 2775
2037 2298 2775
2037 2298 2775
2037 2298 2775
2037 2298 2775
2037 2298 2775
2037 2298 2775
2037 2298 2775
2037 2298 2775
1221 1057 981
1216 1057 983
1209 1058 985
1200 1059 987
1209 1075 1021
1221 1097 1063
1237 1124 1114
1257 1174 1191
1276 1199 1251
1288 1233 1314
1322 1286 1409
1364 1350 1515
1424 1432 1630
1457 1487 1722
1487 1537 1818
1525 1598 1927
1572 1672 2050
1630 1758 2186
1700 1858 2336
1783 1972 2499
1880 2099 2647
1991 2241 2747
2039 2301 2775
2039 2301 2775
2039 2301 2775
2039 2301 2775
2039 2301 2775
2039 2301 2775
2039 2301 2775
2039 2301 2775
2039 2301 2775
2039 2301 2775
1243 1090 1013
1238 1090 1014
1231 1091 1016
1223 1091 1018
1210 1092 1022
1223 1112 1063
1238 1139 1114
1259 1175 1178
1280 1215 1252
1293 1248 1316
1327 1300 1412
1369 1361 1517
1434 1448 1631
1467 1502 1723
1496 1551 1819
1533 1611 1928
1580 1683 2051
1637 1768 2187
1706 1866 2336
1789 1978 2500
1885 2105 2647
1995 2245 2747
2043 2305 2775
2043 2305 2775
2043 2305 2775
2043 2305 2775
2043 2305 2775
2043 2305 2775
2043 2305 2775
2043 2305 2775
2043 2305 2775
2043 2305 2775
1270 1130 1052
1266 1130 1053
1260 1131 1055
1251 1131 1057
1240 1132 1060
1225 1133 1064
1240 1158 1115
1260 1190 1175
1284 1236 1254
1300 1267 1319
1333 1317 1414
1377 1379 1519
1447 1469 1633
1479 1521 1725
1508 1569 1820
1544 1626 1929
1590 1697 2051
1646 1780 2187
1715 1877 2337
1796 1987 2500
1891 2112 2647
2000 2251 2747
2047 2310 2775
2047 2310 2775
2047 2310 2775
2047 2310 2775
2047 2310 2775
2047 2310 2775
2047 2310 2775
2047 2310 2775
2047 2310 2775
2047 2310 2775
1305 1179 1100
1301 1179 1101
1295 1180 1102
1288 1180 1104
1277 1181 1107
1262 1182 1111
1242 1183 1115
1263 1213 1176
1288 1251 1247
1310 1291 1323
1342 1339 1417
1396 1410 1522
1464 1495 1636
1495 1546 1727
1523 1591 1822
1558 1647 1930
1603 1715 2052
1658 1796 2188
1725 1890 2338
1805 1998 2501
1899 2121 2648
2007 2258 2747
2054 2317 2775
2054 2317 2775
2054 2317 2775
2054 2317 2775
2054 2317 2775
2054 2317 2775
2054 2317 2775
2054 2317 2775
2054 2317 2775
2054 2317 2775
1348 1238 1157
1344 1238 1158
1339 1238 1159
1332 1239 1161
1322 1239 1164
1309 1240 1167
1291 1241 1171
1266 1243 1177
1291 1279 1248
1322 1322 1329
1364 1377 1422
1413 1442 1524
1473 1518 1637
1495 1561 1727
1523 1605 1822
1558 1660 1930
1603 1727 2052
1658 1806 2188
1725 1899 2338
1805 2006 2501
1899 2127 2648
2007 2263 2747
2054 2322 2775
2054 2322 2775
2054 2322 2775
2054 2322 2775
2054 2322 2775
2054 2322 2775
2054 2322 2775
2054 2322 2775
2054 2322 2775
2054 2322 2775
1401 1308 1225
1397 1308 1225
1392 1308 1227
1386 1308 1229
1377 1309 1230
1366 1310 1233
1349 1311 1237
1327 1312 1242
1313 1327 1255
1334 1360 1332
1367 1406 1422
1416 1468 1525
1475 1540 1637
1495 1582 1727
1523 1624 1822
1558 1677 1930
1603 1742 2052
1658 1819 2188
1725 1910 2338
1805 2015 2501
1899 2135 2648
2007 2270 2747
2054 2328 2775
2054 2328 2775
2054 2328 2775
2054 2328 2775
2054 2328 2775
2054 2328 2775
2054 2328 2775
2054 2328 2775
2054 2328 2775
2054 2328 2775
1464 1388 1303
1461 1388 1304
1457 1388 1305
1451 1389 1306
1443 1389 1308
1433 1390 1310
1418 1390 1314
1407 1399 1320
1391 1407 1331
1358 1408 1346
1374 1436 1414
1420 1500 1526
1479 1569 1638
1498 1608 1727
1523 1648 1822
1558 1699 1930
1603 1761 2052
1658 1836 2188
1725 1925 2338
1805 2028 2501
1899 2146 2648
2007 2279 2747
2054 2336 2775
2054 2336 2775
2054 2336 2775
2054 2336 2775
2054 2336 2775
2054 2336 2775
2054 2336 2775
2054 2336 2775
2054 2336 2775
2054 2336 2775
1538 1479 1392
1535 1479 1393
1532 1479 1393
1527 1480 1395
1520 1480 1396
1511 1481 1398
1498 1481 1401
1498 1496 1408
1480 1498 1418
1452 1499 1430
1390 1491 1418
1425 1527 1513
1484 1604 1639
1503 1641 1728
1523 1679 1822
1558 1727 1930
1603 1787 2052
1658 1859 2188
1725 1945 2338
1805 2045 2501
1899 2160 2648
2007 2290 2747
2054 2346 2775
2054 2346 2775
2054 2346 2775
2054 2346 2775
2054 2346 2775
2054 2346 2775
2054 2346 2775
2054 2346 2775
2054 2346 2775
2054 2346 2775
1624 1581 1492
1621 1581 1492
1618 1582 1493
1614 1582 1494
1608 1582 1495
1601 1582 1497
1600 1591 1502
1597 1600 1507
1580 1601 1515
1557 1601 1526
1505 1597 1516
1445 1585 1514
1489 1640 1631
1509 1683 1728
1523 1718 1822
1558 1763 1930
1603 1819 2052
1658 1888 2188
1725 1970 2338
1805 2066 2501
1899 2178 2648
2007 2305 2747
2054 2361 2775
2054 2361 2775
2054 2361 2775
2054 2361 2775
2054 2361 2775
2054 2361 2775
2054 2361 2775
2054 2361 2775
2054 2361 2775
2054 2361 2775
1721 1694 1601
1719 1694 1602
1716 1694 1603
1713 1694 1603
1712 1698 1605
1713 1704 1608
1713 1712 1612
1704 1713 1617
1690 1713 1623
1671 1714 1632
1631 1712 1628
1580 1703 1622
1510 1691 1619
1516 1730 1725
1530 1767 1823
1558 1808 1930
1603 1860 2052
1658 1924 2188
1725 2002 2338
1805 2094 2501
1899 2202 2648
2007 2325 2747
2053 2379 2775
2053 2379 2775
2053 2379 2775
2053 2379 2775
2053 2379 2775
2053 2379 2775
2053 2379 2775
2053 2379 2775
2053 2379 2775
2053 2379 2775
1777 1767 1650
1778 1767 1651
1778 1767 1653
1778 1768 1654
1779 1769 1657
1780 1770 1660
1781 1772 1664
1783 1774 1670
1784 1776 1678
1777 1785 1685
1755 1786 1696
1725 1786 1710
1655 1776 1692
1532 1775 1699
1533 1823 1820
1558 1863 1930
1603 1911 2052
1658 1970 2188
1725 2043 2337
1804 2130 2501
1898 2233 2648
2006 2351 2747
2053 2403 2775
2053 2403 2775
2053 2403 2775
2053 2403 2775
2053 2403 2775
2053 2403 2775
2053 2403 2775
2053 2403 2775
2053 2403 2775
2053 2403 2775
1835 1843 1695
1836 1843 1696
1836 1843 1698
1836 1844 1699
1837 1844 1702
1837 1845 1705
1838 1846 1708
1839 1847 1714
1840 1849 1721
1841 1851 1730
1844 1855 1742
1847 1859 1758
1814 1860 1775
1711 1864 1773
1546 1865 1781
1558 1929 1930
1602 1973 2052
1657 2027 2188
1724 2094 2337
1804 2175 2501
1898 2271 2648
2006 2384 2747
2053 2434 2775
2053 2434 2775
2053 2434 2775
2053 2434 2775
2053 2434 2775
2053 2434 2775
2053 2434 2775
2053 2434 2775
2053 2434 2775
2053 2434 2775
1894 1920 1751
1894 1920 1752
1894 1921 1753
1894 1921 1754
1894 1922 1756
1895 1922 1759
1896 1923 1763
1897 1924 1768
1897 1926 1774
1899 1928 1783
1901 1931 1794
1904 1934 1808
1907 1940 1827
1889 1956 1854
1757 1961 1847
1571 1969 1878
1602 2047 2052
1657 2096 2188
1724 2156 2337
1804 2230 2501
1898 2320 2647
2006 2426 2747
2053 2473 2775
2053 2473 2775
2053 2473 2775
2053 2473 2775
2053 2473 2775
2053 2473 2775
2053 2473 2775
2053 2473 2775
2053 2473 2775
2053 2473 2775
1963 2011 1818
1964 2011 1819
1964 2011 1820
1964 2012 1821
1965 2012 1823
1965 2013 1825
1966 2014 1828
1966 2015 1833
1967 2016 1839
1969 2018 1846
1970 2020 1856
1973 2023 1869
1976 2028 1887
1964 2041 1911
1903 2056 1905
1813 2070 1930
1615 2087 1991
1657 2178 2188
1724 2232 2337
1804 2299 2501
1898 2381 2647
2006 2479 2747
2053 2523 2775
2053 2523 2775
2053 2523 2775
2053 2523 2775
2053 2523 2775
2053 2523 2775
2053 2523 2775
2053 2523 2775
2053 2523 2775
2053 2523 2775
2047 2115 1897
2047 2115 1898
2047 2116 1899
2047 2116 1900
2048 2116 1901
2048 2117 1903
2048 2117 1906
2049 2118 1910
2050 2120 1915
2051 2121 1922
2053 2123 1931
2055 2126 1943
2058 2130 1958
2059 2136 1978
2054 2148 2004
1987 2168 2000
1854 2196 2023
1669 2218 2119
1723 2322 2337
1803 2381 2500
1897 2455 2647
2006 2543 2747
2053 2578 2775
2053 2578 2775
2053 2578 2775
2053 2578 2775
2053 2578 2775
2053 2578 2775
2053 2578 2775
2053 2578 2775
2053 2578 2775
2053 2578 2775
2144 2234 1989
2144 2234 1990
2144 2234 1991
2144 2234 1992
2145 2235 1993
2145 2235 1995
2145 2235 1998
2146 2236 2001
2147 2237 2005
2148 2239 2011
2149 2240 2019
2151 2243 2029
2153 2246 2042
2157 2250 2060
2161 2256 2084
2156 2271 2115
2068 2297 2100
1919 2334 2145
1735 2363 2260
1803 2479 2500
1897 2542 2647
2005 2609 2747
2052 2636 2775
2052 2636 2775
2052 2636 2775
2052 2636 2775
2052 2636 2775
2052 2636 2775
2052 2636 2775
2052 2636 2775
2052 2636 2775
2052 2636 2775
2255 2366 2095
2255 2366 2096
2255 2366 2096
2256 2367 2097
2256 2367 2099
2256 2367 2100
2256 2368 2102
2257 2368 2105
2258 2369 2109
2258 2370 2114
2260 2372 2120
2261 2374 2129
2263 2376 2141
2266 2380 2156
2270 2385 2177
2275 2391 2203
2278 2403 2237
2163 2441 2218
1995 2489 2278
1812 2520 2414
1896 2627 2647
2005 2673 2747
2052 2692 2775
2052 2692 2775
2052 2692 2775
2052 2692 2775
2052 2692 2775
2052 2692 2775
2052 2692 2775
2052 2692 2775
2052 2692 2775
2052 2692 2775
2381 2513 2215
2382 2513 2215
2382 2513 2216
2382 2514 2217
2382 2514 2218
2382 2514 2219
2383 2514 2221
2383 2515 2223
2384 2515 2226
2384 2516 2231
2385 2517 2236
2386 2519 2244
2388 2521 2253
2391 2524 2267
2394 2528 2284
2398 2533 2307
2404 2539 2336
2397 2552 2366
2276 2589 2354
2089 2632 2429
1903 2655 2577
2004 2732 2747
2051 2744 2775
2051 2744 2775
2051 2744 2775
2051 2744 2775
2051 2744 2775
2051 2744 2775
2051 2744 2775
2051 2744 2775
2051 2744 2775
2051 2744 2775
2522 2645 2349
2522 2645 2349
2522 2645 2349
2522 2645 2350
2522 2645 2351
2523 2645 2352
2523 2645 2353
2523 2646 2355
2524 2646 2358
2524 2646 2362
2525 2647 2366
2526 2648 2372
2527 2649 2381
2529 2650 2392
2532 2652 2406
2535 2655 2426
2540 2659 2451
2546 2664 2484
2521 2674 2499
2399 2703 2502
2192 2734 2585
2006 2749 2700
2050 2775 2761
2050 2775 2761
2050 2775 2761
2050 2775 2761
2050 2775 2761
2050 2775 2761
2050 2775 2761
2050 2775 2761
2050 2775 2761
2050 2775 2761
2576 2686 2406
2576 2686 2406
2576 2686 2406
2576 2686 2407
2576 2686 2408
2577 2687 2409
2577 2687 2410
2577 2687 2412
2578 2687 2414
2578 2687 2418
2579 2688 2422
2580 2689 2428
2581 2690 2435
2582 2691 2446
2584 2693 2459
2587 2695 2477
2591 2698 2501
2595 2701 2531
2602 2706 2567
2497 2728 2545
2349 2752 2600
2051 2776 2701
2051 2776 2736
2051 2776 2736
2051 2776 2736
2051 2776 2736
2051 2776 2736
2051 2776 2736
2051 2776 2736
2051 2776 2736
2051 2776 2736
2051 2776 2736
2576 2686 2406
2576 2686 2406
2576 2686 2406
2576 2686 2407
2576 2686 2408
2577 2687 2409
2577 2687 2410
2577 2687 2412
2578 2687 2414
2578 2687 2418
2579 2688 2422
2580 2689 2428
2581 2690 2435
2582 2691 2446
2584 2693 2459
2587 2695 2477
2591 2698 2501
2595 2701 2531
2602 2706 2567
2497 2728 2545
2349 2752 2600
2051 2776 2701
2051 2776 2736
2051 2776 2736
2051 2776 2736
2051 2776 2736
2051 2776 2736
2051 2776 2736
2051 2776 2736
2051 2776 2736
2051 2776 2736
2051 2776 2736
2576 2686 2406
2576 2686 2406
2576 2686 2406
2576 2686 2407
2576 2686 2408
2577 2687 2409
2577 2687 2410
2577 2687 2412
2578 2687 2414
2578 2687 2418
2579 2688 2422
2580 2689 2428
2581 2690 2435
2582 2691 2446
2584 2693 2459
2587 2695 2477
2591 2698 2501
2595 2701 2531
2602 2706 2567
2497 2728 2545
2349 2752 2600
2051 2776 2701
2051 2776 2736
2051 2776 2736
2051 2776 2736
2051 2776 2736
2051 2776 2736
2051 2776 2736
2051 2776 2736
2051 2776 2736
2051 2776 2736
2051 2776 2736
2576 2686 2406
2576 2686 2406
2576 2686 2406
2576 2686 2407
2576 2686 2408
2577 2687 2409
2577 2687 2410
2577 2687 2412
2578 2687 2414
2578 2687 2418
2579 2688 2422
2580 2689 2428
2581 2690 2435
2582 2691 2446
2584 2693 2459
2587 2695 2477
2591 2698 2501
2595 2701 2531
2602 2706 2567
2497 2728 2545
2349 2752 2600
2051 2776 2701
2051 2776 2736
2051 2776 2736
2051 2776 2736
2051 2776 2736
2051 2776 2736
2051 2776 2736
2051 2776 2736
2051 2776 2736
2051 2776 2736
2051 2776 2736
2576 2686 2406
2576 2686 2406
2576 2686 2406
2576 2686 2407
2576 2686 2408
2577 2687 2409
2577 2687 2410
2577 2687 2412
2578 2687 2414
2578 2687 2418
2579 2688 2422
2580 2689 2428
2581 2690 2435
2582 2691 2446
2584 2693 2459
2587 2695 2477
2591 2698 2501
2595 2701 2531
2602 2706 2567
2497 2728 2545
2349 2752 2600
2051 2776 2701
2051 2776 2736
2051 2776 2736
2051 2776 2736
2051 2776 2736
2051 2776 2736
2051 2776 2736
2051 2776 2736
2051 2776 2736
2051 2776 2736
2051 2776 2736
2576 2686 2406
2576 2686 2406
2576 2686 2406
2576 2686 2407
2576 2686 2408
2577 2687 2409
2577 2687 2410
2577 2687 2412
2578 2687 2414
2578 2687 2418
2579 2688 2422
2580 2689 2428
2581 2690 2435
2582 2691 2446
2584 2693 2459
2587 2695 2477
2591 2698 2501
2595 2701 2531
2602 2706 2567
2497 2728 2545
2349 2752 2600
2051 2776 2701
2051 2776 2736
2051 2776 2736
2051 2776 2736
2051 2776 2736
2051 2776 2736
2051 2776 2736
2051 2776 2736
2051 2776 2736
2051 2776 2736
2051 2776 2736
2576 2686 2406
2576 2686 2406
2576 2686 2406
2576 2686 2407
