Gems/AtomLyIntegration/CommonFeatures/Tools/ColorGrading/TestData/Photoshop/HDR_in_LDR_Log2-48nits/Hue-Sat_LUT_32.3dl
0 33 66 99 132 165 198 231 264 297 330 363 396 429 462 495 528 561 594 627 660 693 726 759 792 825 858 891 924 957 990 1023 
8 8 8
10 11 7
12 16 6
16 22 4
20 31 3
27 42 0
35 57 18446744073709551614
46 77 18446744073709551609
61 104 18446744073709551603
81 140 18446744073709551595
108 189 18446744073709551584
143 253 18446744073709551570
191 340 18446744073709551551
255 455 18446744073709551525
340 610 18446744073709551491
454 816 18446744073709551445
606 1092 18446744073709551384
810 1462 18446744073709551302
1083 1957 18446744073709551192
1448 2617 18446744073709551046
1936 3503 18446744073709550849
2589 4682 18446744073709550587
3461 6262 18446744073709550237
4626 8381 18446744073709549767
6186 11205 18446744073709549141
8269 14980 18446744073709548301
11061 20043 18446744073709547182
14796 26809 18446744073709545678
19787 35863 18446744073709543670
26457 47924 18446744073709540987
35383 64080 18446744073709537404
47348 85739 18446744073709532597
11 7 10
11 8 7
16 15 6
20 22 4
25 31 3
31 42 0
39 57 18446744073709551614
50 77 18446744073709551609
65 104 18446744073709551603
85 140 18446744073709551595
112 189 18446744073709551584
148 253 18446744073709551570
195 340 18446744073709551551
259 455 18446744073709551525
344 610 18446744073709551491
458 816 18446744073709551445
611 1092 18446744073709551384
815 1462 18446744073709551302
1087 1957 18446744073709551192
1452 2617 18446744073709551046
1941 3503 18446744073709550849
2593 4682 18446744073709550587
3465 6262 18446744073709550237
4634 8381 18446744073709549767
6190 11205 18446744073709549141
8277 14980 18446744073709548301
11069 20043 18446744073709547182
14804 26809 18446744073709545678
19787 35863 18446744073709543670
26473 47924 18446744073709540987
35383 64080 18446744073709537404
47348 85739 18446744073709532597
16 6 12
16 6 8
16 10 6
22 19 4
30 31 3
37 42 0
45 57 18446744073709551614
56 77 18446744073709551609
71 104 18446744073709551603
91 140 18446744073709551595
118 189 18446744073709551584
153 253 18446744073709551570
201 340 18446744073709551551
265 455 18446744073709551525
350 610 18446744073709551491
464 816 18446744073709551445
616 1092 18446744073709551384
820 1462 18446744073709551302
1093 1957 18446744073709551192
1458 2617 18446744073709551046
1946 3503 18446744073709550849
2599 4682 18446744073709550587
3471 6262 18446744073709550237
4638 8381 18446744073709549767
6194 11205 18446744073709549141
8285 14980 18446744073709548301
11077 20043 18446744073709547182
14804 26809 18446744073709545678
19803 35863 18446744073709543670
26473 47924 18446744073709540987
35383 64080 18446744073709537404
47348 85739 18446744073709532597
22 4 16
22 4 11
22 4 6
22 11 4
31 23 3
42 40 0
53 57 18446744073709551614
64 77 18446744073709551609
79 104 18446744073709551603
99 140 18446744073709551595
125 189 18446744073709551584
161 253 18446744073709551570
209 340 18446744073709551551
272 455 18446744073709551525
358 610 18446744073709551491
472 816 18446744073709551445
624 1092 18446744073709551384
828 1462 18446744073709551302
1101 1957 18446744073709551192
1465 2617 18446744073709551046
1954 3503 18446744073709550849
2607 4682 18446744073709550587
3477 6262 18446744073709550237
4646 8381 18446744073709549767
6202 11205 18446744073709549141
8293 14980 18446744073709548301
11085 20043 18446744073709547182
14812 26809 18446744073709545678
19803 35863 18446744073709543670
26473 47924 18446744073709540987
35383 64080 18446744073709537404
47348 85739 18446744073709532597
31 3 20
31 3 16
31 3 10
31 3 3
31 13 3
42 29 0
57 51 18446744073709551614
74 77 18446744073709551609
89 104 18446744073709551603
109 140 18446744073709551595
136 189 18446744073709551584
171 253 18446744073709551570
219 340 18446744073709551551
283 455 18446744073709551525
368 610 18446744073709551491
482 816 18446744073709551445
634 1092 18446744073709551384
838 1462 18446744073709551302
1111 1957 18446744073709551192
1476 2617 18446744073709551046
1965 3503 18446744073709550849
2617 4682 18446744073709550587
3489 6262 18446744073709550237
4658 8381 18446744073709549767
6214 11205 18446744073709549141
8301 14980 18446744073709548301
11093 20043 18446744073709547182
14828 26809 18446744073709545678
19819 35863 18446744073709543670
26489 47924 18446744073709540987
35415 64080 18446744073709537404
47380 85739 18446744073709532597
42 0 27
42 0 22
42 0 16
42 0 9
42 2 0
42 15 0
57 37 18446744073709551614
77 66 18446744073709551609
103 104 18446744073709551603
123 140 18446744073709551595
149 189 18446744073709551584
185 253 18446744073709551570
233 340 18446744073709551551
297 455 18446744073709551525
382 610 18446744073709551491
496 816 18446744073709551445
648 1092 18446744073709551384
852 1462 18446744073709551302
1125 1957 18446744073709551192
1490 2617 18446744073709551046
1978 3503 18446744073709550849
2631 4682 18446744073709550587
3501 6262 18446744073709550237
4670 8381 18446744073709549767
6226 11205 18446744073709549141
8317 14980 18446744073709548301
11109 20043 18446744073709547182
14836 26809 18446744073709545678
19835 35863 18446744073709543670
26505 47924 18446744073709540987
35415 64080 18446744073709537404
47380 85739 18446744073709532597
57 18446744073709551614 35
57 18446744073709551614 31
57 18446744073709551614 25
57 18446744073709551614 17
57 18446744073709551614 7
57 0 18446744073709551614
57 19 18446744073709551614
77 48 18446744073709551609
104 87 18446744073709551603
140 139 18446744073709551595
168 189 18446744073709551584
204 253 18446744073709551570
251 340 18446744073709551551
315 455 18446744073709551525
400 610 18446744073709551491
514 816 18446744073709551445
667 1092 18446744073709551384
871 1462 18446744073709551302
1143 1957 18446744073709551192
1508 2617 18446744073709551046
1997 3503 18446744073709550849
2649 4682 18446744073709550587
3521 6262 18446744073709550237
4690 8381 18446744073709549767
6246 11205 18446744073709549141
8333 14980 18446744073709548301
11125 20043 18446744073709547182
14860 26809 18446744073709545678
19851 35863 18446744073709543670
26521 47924 18446744073709540987
35447 64080 18446744073709537404
47412 85739 18446744073709532597
77 18446744073709551609 46
77 18446744073709551609 42
77 18446744073709551609 36
77 18446744073709551609 28
77 18446744073709551609 18
77 18446744073709551609 4
77 0 18446744073709551609
77 23 18446744073709551609
104 62 18446744073709551603
140 115 18446744073709551595
189 185 18446744073709551584
228 253 18446744073709551570
276 340 18446744073709551551
340 455 18446744073709551525
425 610 18446744073709551491
539 816 18446744073709551445
691 1092 18446744073709551384
895 1462 18446744073709551302
1168 1957 18446744073709551192
1533 2617 18446744073709551046
2021 3503 18446744073709550849
2675 4682 18446744073709550587
3545 6262 18446744073709550237
4714 8381 18446744073709549767
6270 11205 18446744073709549141
8357 14980 18446744073709548301
11149 20043 18446744073709547182
14884 26809 18446744073709545678
19883 35863 18446744073709543670
26553 47924 18446744073709540987
35479 64080 18446744073709537404
47412 85739 18446744073709532597
104 18446744073709551603 61
104 18446744073709551603 57
104 18446744073709551603 51
104 18446744073709551603 43
104 18446744073709551603 33
104 18446744073709551603 19
104 18446744073709551603 1
104 18446744073709551614 18446744073709551603
104 29 18446744073709551603
140 82 18446744073709551595
189 152 18446744073709551584
253 245 18446744073709551570
309 340 18446744073709551551
373 455 18446744073709551525
458 610 18446744073709551491
572 816 18446744073709551445
724 1092 18446744073709551384
928 1462 18446744073709551302
1201 1957 18446744073709551192
1566 2617 18446744073709551046
2055 3503 18446744073709550849
2707 4682 18446744073709550587
3579 6262 18446744073709550237
4746 8381 18446744073709549767
6302 11205 18446744073709549141
8389 14980 18446744073709548301
11181 20043 18446744073709547182
14916 26809 18446744073709545678
19915 35863 18446744073709543670
26585 47924 18446744073709540987
35511 64080 18446744073709537404
47444 85739 18446744073709532597
140 18446744073709551595 81
140 18446744073709551595 77
140 18446744073709551595 71
140 18446744073709551595 63
140 18446744073709551595 53
140 18446744073709551595 39
140 18446744073709551595 21
140 18446744073709551595 18446744073709551613
140 18446744073709551611 18446744073709551595
140 38 18446744073709551595
189 108 18446744073709551584
253 201 18446744073709551570
340 326 18446744073709551551
417 455 18446744073709551525
502 610 18446744073709551491
616 816 18446744073709551445
769 1092 18446744073709551384
972 1462 18446744073709551302
1245 1957 18446744073709551192
1610 2617 18446744073709551046
2099 3503 18446744073709550849
2751 4682 18446744073709550587
3623 6262 18446744073709550237
4790 8381 18446744073709549767
6346 11205 18446744073709549141
8437 14980 18446744073709548301
11229 20043 18446744073709547182
14956 26809 18446744073709545678
19947 35863 18446744073709543670
26617 47924 18446744073709540987
35543 64080 18446744073709537404
47508 85739 18446744073709532597
189 18446744073709551584 108
189 18446744073709551584 103
189 18446744073709551584 97
189 18446744073709551584 90
189 18446744073709551584 79
189 18446744073709551584 66
189 18446744073709551584 47
189 18446744073709551584 22
189 18446744073709551584 18446744073709551607
189 18446744073709551607 18446744073709551584
189 49 18446744073709551584
253 142 18446744073709551570
340 267 18446744073709551551
455 435 18446744073709551525
561 610 18446744073709551491
675 816 18446744073709551445
827 1092 18446744073709551384
1031 1462 18446744073709551302
1304 1957 18446744073709551192
1669 2617 18446744073709551046
2157 3503 18446744073709550849
2811 4682 18446744073709550587
3681 6262 18446744073709550237
4850 8381 18446744073709549767
6406 11205 18446744073709549141
8493 14980 18446744073709548301
11285 20043 18446744073709547182
15020 26809 18446744073709545678
20011 35863 18446744073709543670
26681 47924 18446744073709540987
35607 64080 18446744073709537404
47572 85739 18446744073709532597
253 18446744073709551570 143
253 18446744073709551570 139
253 18446744073709551570 133
253 18446744073709551570 125
253 18446744073709551570 115
253 18446744073709551570 101
253 18446744073709551570 83
253 18446744073709551570 58
253 18446744073709551570 25
253 18446744073709551570 18446744073709551598
253 18446744073709551601 18446744073709551570
253 63 18446744073709551570
340 188 18446744073709551551
455 356 18446744073709551525
610 579 18446744073709551491
754 816 18446744073709551445
907 1092 18446744073709551384
1110 1462 18446744073709551302
1383 1957 18446744073709551192
1748 2617 18446744073709551046
2237 3503 18446744073709550849
2889 4682 18446744073709550587
3761 6262 18446744073709550237
4930 8381 18446744073709549767
6486 11205 18446744073709549141
8573 14980 18446744073709548301
11365 20043 18446744073709547182
15100 26809 18446744073709545678
20091 35863 18446744073709543670
26761 47924 18446744073709540987
35671 64080 18446744073709537404
47636 85739 18446744073709532597
340 18446744073709551551 191
340 18446744073709551551 187
340 18446744073709551551 181
340 18446744073709551551 173
340 18446744073709551551 163
340 18446744073709551551 149
340 18446744073709551551 130
340 18446744073709551551 106
340 18446744073709551551 73
340 18446744073709551551 29
340 18446744073709551551 18446744073709551587
340 18446744073709551594 18446744073709551551
340 83 18446744073709551551
455 250 18446744073709551525
610 474 18446744073709551491
816 773 18446744073709551445
1012 1092 18446744073709551384
1216 1462 18446744073709551302
1489 1957 18446744073709551192
1853 2617 18446744073709551046
2343 3503 18446744073709550849
2995 4682 18446744073709550587
3865 6262 18446744073709550237
5034 8381 18446744073709549767
6590 11205 18446744073709549141
8677 14980 18446744073709548301
11469 20043 18446744073709547182
15204 26809 18446744073709545678
20203 35863 18446744073709543670
26873 47924 18446744073709540987
35799 64080 18446744073709537404
47732 85739 18446744073709532597
455 18446744073709551525 255
455 18446744073709551525 250
455 18446744073709551525 245
455 18446744073709551525 237
455 18446744073709551525 227
455 18446744073709551525 213
455 18446744073709551525 194
455 18446744073709551525 170
455 18446744073709551525 137
455 18446744073709551525 93
455 18446744073709551525 34
455 18446744073709551525 18446744073709551571
455 18446744073709551585 18446744073709551525
455 109 18446744073709551525
610 333 18446744073709551491
816 632 18446744073709551445
1092 1031 18446744073709551384
1357 1462 18446744073709551302
1630 1957 18446744073709551192
1995 2617 18446744073709551046
2483 3503 18446744073709550849
3137 4682 18446744073709550587
4007 6262 18446744073709550237
5174 8381 18446744073709549767
6734 11205 18446744073709549141
8821 14980 18446744073709548301
11613 20043 18446744073709547182
15348 26809 18446744073709545678
20331 35863 18446744073709543670
27001 47924 18446744073709540987
35927 64080 18446744073709537404
47892 85739 18446744073709532597
610 18446744073709551491 340
610 18446744073709551491 336
610 18446744073709551491 330
610 18446744073709551491 322
610 18446744073709551491 312
610 18446744073709551491 298
610 18446744073709551491 280
610 18446744073709551491 255
610 18446744073709551491 222
610 18446744073709551491 178
610 18446744073709551491 119
610 18446744073709551491 40
610 18446744073709551491 18446744073709551551
610 18446744073709551572 18446744073709551491
610 144 18446744073709551491
816 443 18446744073709551445
1092 843 18446744073709551384
1462 1378 18446744073709551302
1819 1957 18446744073709551192
2183 2617 18446744073709551046
2673 3503 18446744073709550849
3325 4682 18446744073709550587
4194 6262 18446744073709550237
5362 8381 18446744073709549767
6922 11205 18446744073709549141
9005 14980 18446744073709548301
11797 20043 18446744073709547182
15532 26809 18446744073709545678
20522 35863 18446744073709543670
27193 47924 18446744073709540987
36119 64080 18446744073709537404
48084 85739 18446744073709532597
816 18446744073709551445 454
816 18446744073709551445 450
816 18446744073709551445 444
816 18446744073709551445 436
816 18446744073709551445 426
816 18446744073709551445 412
816 18446744073709551445 394
816 18446744073709551445 369
816 18446744073709551445 336
816 18446744073709551445 292
816 18446744073709551445 233
816 18446744073709551445 154
816 18446744073709551445 48
816 18446744073709551445 18446744073709551524
816 18446744073709551555 18446744073709551445
816 191 18446744073709551445
1092 590 18446744073709551384
1462 1125 18446744073709551302
1957 1842 18446744073709551192
2435 2617 18446744073709551046
2925 3503 18446744073709550849
3577 4682 18446744073709550587
4446 6262 18446744073709550237
5618 8381 18446744073709549767
7174 11205 18446744073709549141
9261 14980 18446744073709548301
12053 20043 18446744073709547182
15788 26809 18446744073709545678
20778 35863 18446744073709543670
27449 47924 18446744073709540987
36375 64080 18446744073709537404
48340 85739 18446744073709532597
1092 18446744073709551384 606
1092 18446744073709551384 602
1092 18446744073709551384 596
1092 18446744073709551384 589
1092 18446744073709551384 578
1092 18446744073709551384 564
1092 18446744073709551384 546
1092 18446744073709551384 521
1092 18446744073709551384 488
1092 18446744073709551384 444
1092 18446744073709551384 385
1092 18446744073709551384 306
1092 18446744073709551384 201
1092 18446744073709551384 60
1092 18446744073709551384 18446744073709551488
1092 18446744073709551532 18446744073709551384
1092 253 18446744073709551384
1462 788 18446744073709551302
1957 1504 18446744073709551192
2617 2461 18446744073709551046
3263 3503 18446744073709550849
3915 4682 18446744073709550587
4786 6262 18446744073709550237
5954 8381 18446744073709549767
7510 11205 18446744073709549141
9597 14980 18446744073709548301
12388 20043 18446744073709547182
16124 26809 18446744073709545678
21114 35863 18446744073709543670
27785 47924 18446744073709540987
36695 64080 18446744073709537404
48660 85739 18446744073709532597
1462 18446744073709551302 810
1462 18446744073709551302 806
1462 18446744073709551302 800
1462 18446744073709551302 792
1462 18446744073709551302 782
1462 18446744073709551302 768
1462 18446744073709551302 750
1462 18446744073709551302 725
1462 18446744073709551302 692
1462 18446744073709551302 648
1462 18446744073709551302 589
1462 18446744073709551302 510
1462 18446744073709551302 405
1462 18446744073709551302 263
1462 18446744073709551302 75
1462 18446744073709551302 18446744073709551439
1462 18446744073709551502 18446744073709551302
1462 337 18446744073709551302
1957 1053 18446744073709551192
2617 2009 18446744073709551046
3503 3291 18446744073709550849
4366 4682 18446744073709550587
5238 6262 18446744073709550237
6406 8381 18446744073709549767
7962 11205 18446744073709549141
10053 14980 18446744073709548301
12844 20043 18446744073709547182
16571 26809 18446744073709545678
21562 35863 18446744073709543670
28233 47924 18446744073709540987
37142 64080 18446744073709537404
49108 85739 18446744073709532597
1957 18446744073709551192 1083
1957 18446744073709551192 1079
1957 18446744073709551192 1073
1957 18446744073709551192 1065
1957 18446744073709551192 1055
1957 18446744073709551192 1041
1957 18446744073709551192 1023
1957 18446744073709551192 998
1957 18446744073709551192 965
1957 18446744073709551192 921
1957 18446744073709551192 862
1957 18446744073709551192 783
1957 18446744073709551192 678
1957 18446744073709551192 536
1957 18446744073709551192 348
1957 18446744073709551192 95
1957 18446744073709551192 18446744073709551375
1957 18446744073709551461 18446744073709551192
1957 448 18446744073709551192
2617 1405 18446744073709551046
3503 2687 18446744073709550849
4682 4398 18446744073709550587
5842 6262 18446744073709550237
7010 8381 18446744073709549767
8565 11205 18446744073709549141
10653 14980 18446744073709548301
13444 20043 18446744073709547182
17179 26809 18446744073709545678
22170 35863 18446744073709543670
28840 47924 18446744073709540987
37750 64080 18446744073709537404
49715 85739 18446744073709532597
2617 18446744073709551046 1448
2617 18446744073709551046 1443
2617 18446744073709551046 1438
2617 18446744073709551046 1430
2617 18446744073709551046 1420
2617 18446744073709551046 1406
2617 18446744073709551046 1387
2617 18446744073709551046 1363
2617 18446744073709551046 1330
2617 18446744073709551046 1285
2617 18446744073709551046 1226
2617 18446744073709551046 1147
2617 18446744073709551046 1042
2617 18446744073709551046 901
2617 18446744073709551046 712
2617 18446744073709551046 460
2617 18446744073709551046 122
2617 18446744073709551046 18446744073709551288
2617 18446744073709551408 18446744073709551046
2617 598 18446744073709551046
3503 1880 18446744073709550849
4682 3591 18446744073709550587
6262 5878 18446744073709550237
7818 8381 18446744073709549767
9373 11205 18446744073709549141
11461 14980 18446744073709548301
14252 20043 18446744073709547182
17979 26809 18446744073709545678
22986 35863 18446744073709543670
29656 47924 18446744073709540987
38582 64080 18446744073709537404
50515 85739 18446744073709532597
3503 18446744073709550849 1936
3503 18446744073709550849 1932
3503 18446744073709550849 1926
3503 18446744073709550849 1919
3503 18446744073709550849 1908
3503 18446744073709550849 1894
3503 18446744073709550849 1876
3503 18446744073709550849 1851
3503 18446744073709550849 1818
3503 18446744073709550849 1774
3503 18446744073709550849 1715
3503 18446744073709550849 1636
3503 18446744073709550849 1531
3503 18446744073709550849 1389
3503 18446744073709550849 1201
3503 18446744073709550849 948
3503 18446744073709550849 611
3503 18446744073709550849 159
3503 18446744073709550849 18446744073709551172
3503 18446744073709551333 18446744073709550849
3503 798 18446744073709550849
4682 2509 18446744073709550587
6262 4794 18446744073709550237
8381 7862 18446744073709549767
10453 11205 18446744073709549141
12540 14980 18446744073709548301
15332 20043 18446744073709547182
19067 26809 18446744073709545678
24058 35863 18446744073709543670
30728 47924 18446744073709540987
39638 64080 18446744073709537404
51603 85739 18446744073709532597
4682 18446744073709550587 2589
4682 18446744073709550587 2585
4682 18446744073709550587 2579
4682 18446744073709550587 2571
4682 18446744073709550587 2561
4682 18446744073709550587 2547
4682 18446744073709550587 2529
4682 18446744073709550587 2503
4682 18446744073709550587 2471
4682 18446744073709550587 2427
4682 18446744073709550587 2367
4682 18446744073709550587 2289
4682 18446744073709550587 2183
4682 18446744073709550587 2042
4682 18446744073709550587 1853
4682 18446744073709550587 1601
4682 18446744073709550587 1263
4682 18446744073709550587 812
4682 18446744073709550587 207
4682 18446744073709550587 18446744073709551018
4682 18446744073709551238 18446744073709550587
4682 1065 18446744073709550587
6262 3351 18446744073709550237
8381 6418 18446744073709549767
11205 10501 18446744073709549141
13988 14980 18446744073709548301
16779 20043 18446744073709547182
20506 26809 18446744073709545678
25497 35863 18446744073709543670
32184 47924 18446744073709540987
41109 64080 18446744073709537404
53043 85739 18446744073709532597
6262 18446744073709550237 3461
6262 18446744073709550237 3455
6262 18446744073709550237 3449
6262 18446744073709550237 3443
6262 18446744073709550237 3431
6262 18446744073709550237 3419
6262 18446744073709550237 3399
6262 18446744073709550237 3375
6262 18446744073709550237 3341
6262 18446744073709550237 3297
6262 18446744073709550237 3239
6262 18446744073709550237 3159
6262 18446744073709550237 3055
6262 18446744073709550237 2913
6262 18446744073709550237 2725
6262 18446744073709550237 2471
6262 18446744073709550237 2135
6262 18446744073709550237 1683
6262 18446744073709550237 1078
6262 18446744073709550237 271
6262 18446744073709550237 18446744073709550807
6262 18446744073709551111 18446744073709550237
6262 1422 18446744073709550237
8381 4490 18446744073709549767
11205 8573 18446744073709549141
14980 14052 18446744073709548301
18699 20043 18446744073709547182
22442 26809 18446744073709545678
27433 35863 18446744073709543670
34103 47924 18446744073709540987
43029 64080 18446744073709537404
54994 85739 18446744073709532597
8381 18446744073709549767 4626
8381 18446744073709549767 4622
8381 18446744073709549767 4618
8381 18446744073709549767 4610
8381 18446744073709549767 4598
8381 18446744073709549767 4586
8381 18446744073709549767 4566
8381 18446744073709549767 4542
8381 18446744073709549767 4510
8381 18446744073709549767 4466
8381 18446744073709549767 4406
8381 18446744073709549767 4326
8381 18446744073709549767 4222
8381 18446744073709549767 4081
8381 18446744073709549767 3893
8381 18446744073709549767 3641
8381 18446744073709549767 3303
8381 18446744073709549767 2851
8381 18446744073709549767 2247
8381 18446744073709549767 1440
8381 18446744073709549767 358
8381 18446744073709549767 18446744073709550531
8381 18446744073709550931 18446744073709549767
8381 1901 18446744073709549767
11205 5986 18446744073709549141
14980 11461 18446744073709548301
20043 18795 18446744073709547182
25033 26809 18446744073709545678
30024 35863 18446744073709543670
36695 47924 18446744073709540987
45620 64080 18446744073709537404
57553 85739 18446744073709532597
11205 18446744073709549141 6186
11205 18446744073709549141 6182
11205 18446744073709549141 6174
11205 18446744073709549141 6166
11205 18446744073709549141 6158
11205 18446744073709549141 6142
11205 18446744073709549141 6126
11205 18446744073709549141 6102
11205 18446744073709549141 6066
11205 18446744073709549141 6022
11205 18446744073709549141 5966
11205 18446744073709549141 5886
11205 18446744073709549141 5778
11205 18446744073709549141 5638
11205 18446744073709549141 5450
11205 18446744073709549141 5198
11205 18446744073709549141 4858
11205 18446744073709549141 4410
11205 18446744073709549141 3805
11205 18446744073709549141 2997
11205 18446744073709549141 1916
