Gems/AtomLyIntegration/CommonFeatures/Tools/ColorGrading/TestData/Photoshop/HDR_in_LDR_Log2-48nits/TensionGreen_LUT_32.3dl
0 33 66 99 132 165 198 231 264 297 330 363 396 429 462 495 528 561 594 627 660 693 726 759 792 825 858 891 924 957 990 1023 
2 55 1211
2 55 1214
2 55 1219
2 55 1225
2 55 1232
2 55 1243
2 55 1256
2 55 1273
2 55 1295
2 55 1323
2 55 1358
2 55 1401
2 101 1453
2 766 1545
2 1087 1646
2 1212 1723
2 1291 1801
18446744073709551171 1405 1895
1033 1599 2004
1565 1754 2086
1790 1945 2225
2022 2089 2344
2095 2146 2396
2095 2146 2396
2095 2146 2396
2095 2146 2396
2095 2146 2396
2095 2146 2396
2095 2146 2396
2095 2146 2396
2095 2146 2396
2095 2146 2396
2 168 1214
2 174 1216
2 174 1221
2 174 1227
2 174 1234
2 174 1245
2 174 1258
2 174 1275
2 174 1297
2 174 1325
2 174 1359
2 174 1402
2 186 1454
2 787 1546
2 1097 1646
2 1219 1724
2 1297 1801
18446744073709551171 1408 1895
1033 1601 2004
1566 1756 2086
1790 1945 2225
2022 2089 2344
2095 2147 2396
2095 2147 2396
2095 2147 2396
2095 2147 2396
2095 2147 2396
2095 2147 2396
2095 2147 2396
2095 2147 2396
2095 2147 2396
2095 2147 2396
2 285 1219
2 290 1221
2 297 1223
2 297 1229
2 297 1237
2 297 1247
2 297 1260
2 297 1277
2 297 1299
2 297 1327
2 297 1361
2 297 1404
2 306 1456
2 813 1548
2 1111 1647
2 1229 1724
2 1304 1802
18446744073709551171 1413 1895
1035 1603 2004
1566 1757 2087
1791 1945 2225
2022 2089 2344
2095 2147 2396
2095 2147 2396
2095 2147 2396
2095 2147 2396
2095 2147 2396
2095 2147 2396
2095 2147 2396
2095 2147 2396
2095 2147 2396
2095 2147 2396
2 405 1225
2 409 1227
2 414 1229
2 421 1233
2 421 1240
2 421 1250
2 421 1264
2 421 1280
2 421 1302
2 421 1329
2 421 1364
2 421 1406
2 429 1458
2 847 1549
2 1128 1648
2 1241 1725
2 1314 1802
18446744073709551171 1419 1895
1037 1606 2003
1567 1760 2087
1792 1946 2225
2021 2089 2344
2096 2148 2396
2096 2148 2396
2096 2148 2396
2096 2148 2396
2096 2148 2396
2096 2148 2396
2096 2148 2396
2096 2148 2396
2096 2148 2396
2096 2148 2396
2 529 1232
2 532 1234
2 536 1237
2 541 1240
2 548 1245
2 548 1255
2 548 1267
2 548 1284
2 548 1306
2 548 1333
2 548 1367
2 548 1409
2 553 1461
2 888 1552
2 1151 1650
2 1257 1726
2 1326 1803
18446744073709551171 1427 1895
1039 1610 2003
1567 1763 2088
1793 1946 2224
2021 2089 2344
2096 2149 2396
2096 2149 2396
2096 2149 2396
2096 2149 2396
2096 2149 2396
2096 2149 2396
2096 2149 2396
2096 2149 2396
2096 2149 2396
2096 2149 2396
2 654 1243
2 656 1245
2 659 1247
2 663 1250
2 668 1255
2 675 1261
2 675 1273
2 675 1290
2 675 1311
2 675 1338
2 675 1371
2 675 1413
2 680 1464
2 937 1555
2 1179 1653
2 1278 1727
2 1343 1805
18446744073709551171 1437 1895
1042 1615 2002
1569 1766 2089
1795 1947 2224
2020 2090 2345
2096 2150 2396
2096 2150 2396
2096 2150 2396
2096 2150 2396
2096 2150 2396
2096 2150 2396
2096 2150 2396
2096 2150 2396
2096 2150 2396
2096 2150 2396
2 781 1256
2 782 1258
2 785 1260
2 788 1264
2 792 1267
2 797 1273
2 804 1281
2 804 1297
2 804 1318
2 804 1344
2 804 1378
2 804 1419
2 807 1469
2 996 1559
2 1215 1656
2 1305 1729
2 1364 1806
18446744073709551171 1451 1895
1046 1623 2001
1569 1771 2090
1797 1948 2224
2019 2090 2345
2096 2151 2396
2096 2151 2396
2096 2151 2396
2096 2151 2396
2096 2151 2396
2096 2151 2396
2096 2151 2396
2096 2151 2396
2096 2151 2396
2096 2151 2396
2 909 1273
2 910 1275
2 912 1277
2 914 1280
2 917 1284
2 921 1290
2 927 1297
2 934 1306
2 934 1327
2 934 1353
2 934 1386
2 934 1426
2 936 1475
2 1065 1564
2 1258 1660
2 1338 1732
2 1390 1808
18446744073709551171 1469 1895
1052 1632 2000
1571 1778 2092
1801 1950 2223
2018 2091 2345
2097 2153 2396
2097 2153 2396
2097 2153 2396
2097 2153 2396
2097 2153 2396
2097 2153 2396
2097 2153 2396
2097 2153 2396
2097 2153 2396
2097 2153 2396
2 1038 1295
2 1039 1297
2 1040 1299
2 1042 1302
2 1044 1306
2 1048 1311
2 1051 1318
2 1057 1327
2 1064 1339
2 1064 1364
2 1064 1396
2 1064 1435
2 1066 1484
2 1142 1571
2 1311 1666
2 1379 1735
2 1423 1811
18446744073709551171 1491 1895
1059 1644 1998
1574 1787 2094
1805 1952 2223
2019 2093 2345
2098 2156 2396
2098 2156 2396
2098 2156 2396
2098 2156 2396
2098 2156 2396
2098 2156 2396
2098 2156 2396
2098 2156 2396
2098 2156 2396
2098 2156 2396
2 1168 1323
2 1169 1325
2 1170 1327
2 1171 1329
2 1173 1333
2 1175 1338
2 1178 1344
2 1182 1353
2 1188 1364
2 1195 1378
2 1195 1409
2 1195 1448
2 1196 1495
2 1239 1580
2 1372 1673
2 1428 1740
2 1468 1815
18446744073709551171 1520 1895
1068 1659 1995
1577 1798 2097
1810 1955 2222
2020 2096 2344
2099 2159 2396
2099 2159 2396
2099 2159 2396
2099 2159 2396
2099 2159 2396
2099 2159 2396
2099 2159 2396
2099 2159 2396
2099 2159 2396
2099 2159 2396
2 1298 1358
2 1299 1359
2 1300 1361
2 1300 1364
2 1302 1367
2 1304 1371
2 1306 1378
2 1309 1386
2 1313 1396
2 1319 1409
2 1326 1427
2 1326 1463
2 1327 1509
2 1359 1592
2 1444 1683
2 1490 1747
2 1522 1820
18446744073709551171 1563 1898
1081 1679 1992
1581 1813 2101
1818 1958 2221
2021 2099 2343
2100 2164 2396
2100 2164 2396
2100 2164 2396
2100 2164 2396
2100 2164 2396
2100 2164 2396
2100 2164 2396
2100 2164 2396
2100 2164 2396
2100 2164 2396
2 1430 1401
2 1430 1402
2 1430 1404
2 1431 1406
2 1432 1409
2 1433 1413
2 1435 1419
2 1438 1426
2 1441 1435
2 1445 1448
2 1450 1463
2 1457 1484
2 1458 1528
2 1483 1608
2 1524 1696
2 1563 1758
2 1585 1826
18446744073709551171 1616 1904
1097 1705 1988
1586 1833 2106
1819 1965 2220
2024 2105 2342
2102 2170 2396
2102 2170 2396
2102 2170 2396
2102 2170 2396
2102 2170 2396
2102 2170 2396
2102 2170 2396
2102 2170 2396
2102 2170 2396
2102 2170 2396
18446744073709550672 1555 1448
18446744073709550672 1555 1450
18446744073709550672 1556 1451
18446744073709550672 1556 1453
18446744073709550672 1557 1456
18446744073709550672 1558 1460
18446744073709550672 1559 1464
18446744073709550672 1561 1471
18446744073709550672 1563 1480
18446744073709550672 1567 1491
18446744073709550672 1571 1505
18446744073709550672 1576 1524
18446744073709551171 1583 1551
18446744073709551171 1602 1627
18446744073709551171 1626 1712
18446744073709551217 1644 1773
18446744073709551192 1657 1835
18446744073709551279 1678 1911
1115 1741 1985
1592 1859 2112
1817 1976 2221
2026 2112 2342
2103 2178 2397
2103 2178 2397
2103 2178 2397
2103 2178 2397
2103 2178 2397
2103 2178 2397
2103 2178 2397
2103 2178 2397
2103 2178 2397
2103 2178 2397
18446744073709550672 1673 1497
18446744073709550672 1673 1498
18446744073709550672 1673 1500
18446744073709550672 1673 1503
18446744073709550672 1673 1506
18446744073709550672 1673 1511
18446744073709550672 1673 1516
18446744073709550672 1673 1524
18446744073709550672 1673 1534
18446744073709550672 1673 1546
18446744073709550672 1677 1559
18446744073709550672 1681 1576
18446744073709551171 1687 1600
18446744073709551171 1695 1636
18446744073709551171 1714 1719
266 1722 1792
486 1727 1847
622 1764 1933
1235 1804 2001
1582 1899 2118
1828 2004 2228
2023 2127 2345
2100 2188 2402
2100 2188 2402
2100 2188 2402
2100 2188 2402
2100 2188 2402
2100 2188 2402
2100 2188 2402
2100 2188 2402
2100 2188 2402
2100 2188 2402
18446744073709550672 1793 1555
18446744073709550672 1793 1557
18446744073709550672 1793 1558
18446744073709550672 1793 1560
18446744073709550672 1793 1563
18446744073709550672 1793 1567
18446744073709550672 1793 1572
18446744073709550672 1793 1579
18446744073709550672 1793 1588
18446744073709550672 1793 1600
18446744073709550672 1793 1615
18446744073709550672 1793 1635
18446744073709551171 1796 1658
18446744073709551171 1802 1690
18446744073709551171 1810 1729
355 1814 1803
709 1813 1868
930 1839 1947
1357 1878 2021
1569 1948 2126
1836 2036 2236
2013 2146 2349
2096 2202 2408
2096 2202 2408
2096 2202 2408
2096 2202 2408
2096 2202 2408
2096 2202 2408
2096 2202 2408
2096 2202 2408
2096 2202 2408
2096 2202 2408
112 1916 1544
141 1916 1547
177 1916 1552
221 1916 1557
274 1916 1565
337 1916 1574
409 1916 1587
490 1916 1603
580 1916 1624
678 1916 1651
722 1916 1672
722 1916 1690
745 1916 1715
745 1911 1737
745 1915 1770
1031 1918 1806
1100 1921 1888
1271 1929 1959
1430 1967 2047
1643 2011 2133
1837 2082 2241
2032 2181 2360
2104 2228 2410
2104 2228 2410
2104 2228 2410
2104 2228 2410
2104 2228 2410
2104 2228 2410
2104 2228 2410
2104 2228 2410
2104 2228 2410
2104 2228 2410
825 2044 1504
828 2044 1508
832 2044 1512
838 2044 1518
845 2043 1526
855 2043 1537
868 2043 1551
884 2042 1569
905 2041 1591
955 2041 1620
1014 2041 1655
1084 2041 1699
1162 2041 1752
1200 2041 1797
1200 2036 1821
1271 2034 1860
1430 2038 1893
1459 2047 1988
1550 2067 2072
1698 2095 2147
1881 2153 2253
2057 2230 2372
2124 2268 2416
2124 2268 2416
2124 2268 2416
2124 2268 2416
2124 2268 2416
2124 2268 2416
2124 2268 2416
2124 2268 2416
2124 2268 2416
2124 2268 2416
1287 2176 1495
1287 2176 1498
1286 2176 1503
1285 2176 1508
1283 2175 1516
1282 2175 1525
1279 2175 1538
1276 2174 1554
1272 2174 1576
1266 2173 1602
1278 2172 1639
1300 2170 1684
1330 2169 1740
1461 2169 1804
1508 2169 1866
1584 2169 1915
1582 2171 1964
1681 2179 2003
1727 2186 2084
1767 2205 2182
1927 2244 2281
2096 2295 2388
2160 2325 2435
2160 2325 2435
2160 2325 2435
2160 2325 2435
2160 2325 2435
2160 2325 2435
2160 2325 2435
2160 2325 2435
2160 2325 2435
2160 2325 2435
1568 2313 1454
1568 2313 1458
1567 2313 1464
1566 2313 1471
1564 2314 1481
1562 2314 1494
1560 2314 1510
1556 2314 1531
1551 2315 1558
1545 2315 1592
1536 2316 1633
1524 2317 1684
1515 2318 1742
1615 2316 1829
1722 2314 1924
1818 2310 1977
1875 2310 2025
1883 2315 2078
1932 2319 2126
1969 2335 2223
2022 2351 2308
2138 2390 2419
2191 2404 2460
2191 2404 2460
2191 2404 2460
2191 2404 2460
2191 2404 2460
2191 2404 2460
2191 2404 2460
2191 2404 2460
2191 2404 2460
2191 2404 2460
1948 2455 1803
1948 2455 1804
1949 2455 1805
1949 2455 1807
1950 2455 1809
1951 2455 1812
1952 2455 1816
1953 2455 1821
1955 2455 1827
1958 2455 1836
1961 2455 1847
1966 2455 1862
1971 2455 1885
1979 2455 1932
1989 2455 1989
2023 2453 2059
2069 2450 2124
2085 2449 2166
2093 2455 2216
2136 2459 2274
2154 2472 2372
2209 2489 2466
2245 2505 2505
2245 2505 2505
2245 2505 2505
2245 2505 2505
2245 2505 2505
2245 2505 2505
2245 2505 2505
2245 2505 2505
2245 2505 2505
2245 2505 2505
2231 2598 2109
2231 2598 2109
2231 2598 2110
2231 2598 2110
2231 2598 2111
2231 2598 2112
2231 2598 2113
2231 2598 2114
2231 2598 2116
2231 2598 2119
2231 2598 2123
2235 2599 2129
2240 2599 2137
2235 2598 2149
2225 2597 2162
2233 2596 2194
2268 2595 2259
2314 2593 2329
2319 2593 2367
2332 2595 2405
2365 2598 2459
2395 2612 2552
2415 2617 2586
2415 2617 2586
2415 2617 2586
2415 2617 2586
2415 2617 2586
2415 2617 2586
2415 2617 2586
2415 2617 2586
2415 2617 2586
2415 2617 2586
2479 2735 2350
2480 2735 2350
2480 2735 2350
2480 2735 2351
2480 2735 2352
2480 2735 2352
2481 2734 2353
2481 2734 2355
2481 2734 2357
2480 2734 2359
2479 2734 2362
2477 2733 2366
2475 2733 2371
2473 2733 2374
2471 2734 2386
2471 2734 2395
2466 2733 2409
2485 2733 2458
2514 2730 2521
2538 2727 2560
2539 2732 2597
2561 2735 2645
2569 2739 2671
2569 2739 2671
2569 2739 2671
2569 2739 2671
2569 2739 2671
2569 2739 2671
2569 2739 2671
2569 2739 2671
2569 2739 2671
2569 2739 2671
2544 2787 2436
2544 2787 2436
2544 2787 2436
2544 2787 2436
2544 2787 2436
2545 2787 2437
2545 2787 2437
2545 2787 2437
2546 2787 2438
2547 2787 2439
2548 2787 2440
2549 2787 2442
2551 2787 2444
2553 2786 2448
2556 2786 2451
2552 2786 2462
2548 2787 2483
2557 2786 2520
2579 2784 2575
2603 2778 2617
2608 2781 2650
2620 2786 2693
2631 2787 2709
2631 2787 2709
2631 2787 2709
2631 2787 2709
2631 2787 2709
2631 2787 2709
2631 2787 2709
2631 2787 2709
2631 2787 2709
2631 2787 2709
2544 2787 2436
2544 2787 2436
2544 2787 2436
2544 2787 2436
2544 2787 2436
2545 2787 2437
2545 2787 2437
2545 2787 2437
2546 2787 2438
2547 2787 2439
2548 2787 2440
2549 2787 2442
2551 2787 2444
2553 2786 2448
2556 2786 2451
2552 2786 2462
2548 2787 2483
2557 2786 2520
2579 2784 2575
2603 2778 2617
2608 2781 2650
2620 2786 2693
2631 2787 2709
2631 2787 2709
2631 2787 2709
2631 2787 2709
2631 2787 2709
2631 2787 2709
2631 2787 2709
2631 2787 2709
2631 2787 2709
2631 2787 2709
2544 2787 2436
2544 2787 2436
2544 2787 2436
2544 2787 2436
2544 2787 2436
2545 2787 2437
2545 2787 2437
2545 2787 2437
2546 2787 2438
2547 2787 2439
2548 2787 2440
2549 2787 2442
2551 2787 2444
2553 2786 2448
2556 2786 2451
2552 2786 2462
2548 2787 2483
2557 2786 2520
2579 2784 2575
2603 2778 2617
2608 2781 2650
2620 2786 2693
2631 2787 2709
2631 2787 2709
2631 2787 2709
2631 2787 2709
2631 2787 2709
2631 2787 2709
2631 2787 2709
2631 2787 2709
2631 2787 2709
2631 2787 2709
2544 2787 2436
2544 2787 2436
2544 2787 2436
2544 2787 2436
2544 2787 2436
2545 2787 2437
2545 2787 2437
2545 2787 2437
2546 2787 2438
2547 2787 2439
2548 2787 2440
2549 2787 2442
2551 2787 2444
2553 2786 2448
2556 2786 2451
2552 2786 2462
2548 2787 2483
2557 2786 2520
2579 2784 2575
2603 2778 2617
2608 2781 2650
2620 2786 2693
2631 2787 2709
2631 2787 2709
2631 2787 2709
2631 2787 2709
2631 2787 2709
2631 2787 2709
2631 2787 2709
2631 2787 2709
2631 2787 2709
2631 2787 2709
2544 2787 2436
2544 2787 2436
2544 2787 2436
2544 2787 2436
2544 2787 2436
2545 2787 2437
2545 2787 2437
2545 2787 2437
2546 2787 2438
2547 2787 2439
2548 2787 2440
2549 2787 2442
2551 2787 2444
2553 2786 2448
2556 2786 2451
2552 2786 2462
2548 2787 2483
2557 2786 2520
2579 2784 2575
2603 2778 2617
2608 2781 2650
2620 2786 2693
2631 2787 2709
2631 2787 2709
2631 2787 2709
2631 2787 2709
2631 2787 2709
2631 2787 2709
2631 2787 2709
2631 2787 2709
2631 2787 2709
2631 2787 2709
2544 2787 2436
2544 2787 2436
2544 2787 2436
2544 2787 2436
2544 2787 2436
2545 2787 2437
2545 2787 2437
2545 2787 2437
2546 2787 2438
2547 2787 2439
2548 2787 2440
2549 2787 2442
2551 2787 2444
2553 2786 2448
2556 2786 2451
2552 2786 2462
2548 2787 2483
2557 2786 2520
2579 2784 2575
2603 2778 2617
2608 2781 2650
2620 2786 2693
2631 2787 2709
2631 2787 2709
2631 2787 2709
2631 2787 2709
2631 2787 2709
2631 2787 2709
2631 2787 2709
2631 2787 2709
2631 2787 2709
2631 2787 2709
2544 2787 2436
2544 2787 2436
2544 2787 2436
2544 2787 2436
