Gems/AtomLyIntegration/CommonFeatures/Tools/ColorGrading/TestData/Photoshop/HDR_in_LDR_Log2-48nits/Test_hue-sat_moonlight_grade.3dl
0 33 66 99 132 165 198 231 264 297 330 363 396 429 462 495 528 561 594 627 660 693 726 759 792 825 858 891 924 957 990 1023 
7 7 7
8 8 14
8 8 20
8 8 26
8 8 31
8 8 38
8 8 45
8 8 52
7 8 59
7 8 67
6 7 75
5 7 85
5 7 94
4 6 103
3 6 114
2 5 124
2 5 133
2 4 145
2 4 157
1 3 169
1 2 180
1 2 194
0 1 208
0 1 222
0 1 235
0 1 250
0 0 266
0 0 282
0 0 297
0 0 311
0 0 329
0 0 348
8 14 7
8 14 14
8 14 20
8 14 26
8 14 32
8 14 38
8 14 45
7 13 52
7 13 59
6 13 67
6 13 75
5 13 84
5 12 94
4 12 102
3 12 113
2 11 124
1 11 134
1 10 145
1 10 157
1 9 169
1 8 180
1 8 194
0 7 208
0 6 222
0 5 235
0 4 250
0 3 266
0 3 282
0 3 297
0 2 311
0 2 329
0 1 349
8 20 7
8 20 14
8 20 20
8 20 26
8 20 32
8 20 38
8 20 45
8 19 52
7 19 59
6 19 67
6 19 75
5 18 84
5 18 93
4 18 102
3 17 113
2 17 124
1 17 134
0 16 145
1 16 157
1 15 169
1 15 180
0 14 194
0 13 208
0 12 222
0 12 235
0 11 250
0 10 266
0 9 282
0 8 297
0 7 311
0 6 329
0 5 349
8 26 7
8 25 14
8 26 20
8 25 26
8 25 32
8 25 38
8 26 45
7 25 52
7 25 59
6 25 68
6 25 75
6 25 84
5 24 94
5 24 102
3 24 113
2 23 124
2 23 134
1 22 145
0 22 157
0 21 169
0 21 180
1 20 194
0 20 208
0 19 222
0 18 235
0 18 250
0 17 266
0 16 282
0 15 297
0 14 311
0 13 329
0 11 349
8 32 7
8 32 14
8 32 20
8 32 26
8 32 32
8 32 38
7 31 45
7 31 52
7 31 59
6 31 68
6 31 75
5 31 84
5 31 94
5 31 102
4 30 113
3 30 124
2 30 134
1 29 145
0 28 157
0 28 169
0 27 180
0 27 194
0 26 208
0 25 221
0 25 235
0 24 250
0 23 266
0 22 282
0 21 297
0 21 311
0 20 329
0 19 349
8 38 7
8 38 14
8 38 20
8 38 26
8 38 32
8 38 38
7 38 45
7 38 52
7 38 59
6 38 68
6 38 75
5 38 85
4 38 94
4 37 102
4 37 113
3 36 124
3 36 134
2 35 146
1 35 157
0 34 169
0 34 180
0 33 194
0 33 208
0 33 221
0 32 234
0 32 250
0 31 266
0 30 282
0 29 297
0 28 312
0 27 329
0 26 349
8 45 7
8 45 14
8 45 20
8 45 26
8 45 32
8 45 38
8 45 45
7 45 52
7 45 59
6 45 68
5 45 75
5 45 85
4 45 94
4 45 102
3 44 113
3 44 124
2 43 134
2 43 146
1 42 157
0 42 169
0 41 180
0 41 195
0 40 208
0 39 221
0 39 234
0 38 250
0 37 266
0 36 282
0 36 297
0 35 312
0 34 329
0 33 349
8 51 7
8 51 14
8 52 20
8 52 26
8 52 32
7 52 38
7 52 45
7 52 52
7 52 59
6 52 68
5 52 75
5 52 85
4 52 94
4 52 102
3 51 113
3 51 124
3 51 134
2 50 146
1 49 157
0 49 169
0 48 181
0 48 195
0 48 208
0 47 221
0 47 234
0 46 250
0 45 266
0 45 282
0 44 297
0 43 312
0 42 330
0 41 349
8 59 7
8 59 14
7 59 20
7 59 26
7 59 32
7 59 38
7 59 45
7 59 52
6 59 59
6 59 68
5 59 75
4 59 85
4 59 94
3 59 102
2 59 113
2 59 124
2 58 134
2 58 146
2 58 157
1 58 169
0 57 181
0 56 195
0 56 208
0 55 221
0 55 234
0 54 250
0 53 266
0 53 282
0 52 297
0 51 312
0 50 331
0 49 349
7 66 7
8 66 14
7 66 20
7 66 26
7 67 32
7 67 38
6 67 45
6 67 52
6 67 60
5 67 68
4 67 76
4 67 85
4 67 94
3 67 102
2 67 113
1 67 124
1 67 134
1 66 146
1 66 158
2 66 169
1 65 181
0 65 195
0 64 208
0 63 221
0 63 234
0 62 250
0 61 266
0 61 282
0 60 297
0 59 312
0 59 331
0 58 349
7 74 7
7 74 14
7 74 20
6 75 26
7 75 32
7 75 39
6 75 45
6 75 52
5 75 60
4 75 68
4 75 76
4 75 85
4 75 94
4 75 103
2 75 113
1 74 124
0 74 134
0 74 146
0 74 158
1 74 169
1 74 181
1 73 195
0 73 208
0 72 221
0 72 234
0 72 250
0 71 266
0 70 282
0 70 297
0 69 312
0 68 331
0 67 349
6 82 7
6 82 14
6 82 20
6 82 26
6 83 32
6 83 39
6 83 45
5 83 52
5 83 60
4 83 68
4 83 76
3 83 85
3 83 94
3 84 103
3 84 113
2 84 124
0 84 134
0 83 145
0 83 158
0 83 169
0 83 181
0 83 195
0 82 208
0 82 222
0 81 235
0 81 250
0 80 266
0 79 282
0 79 297
0 78 312
0 77 331
0 76 349
6 90 7
5 90 14
6 91 20
6 91 26
5 92 32
5 92 39
5 92 45
5 92 52
4 92 60
4 93 68
3 93 76
2 93 85
2 93 94
2 93 103
2 93 113
2 93 124
1 93 133
0 93 145
0 92 158
0 92 169
0 92 181
0 91 195
0 91 208
0 91 222
0 90 235
0 90 250
0 89 266
0 88 282
0 87 297
0 87 312
0 86 331
0 86 349
5 100 7
5 100 14
5 100 20
5 100 26
5 101 32
5 101 39
4 101 45
4 102 52
4 102 60
4 102 68
3 102 76
2 102 85
1 102 94
1 102 103
1 102 113
2 102 124
2 102 133
0 101 145
0 101 157
0 100 169
0 100 181
0 100 195
0 100 208
0 100 222
0 100 235
0 100 250
0 99 266
0 99 282
0 98 298
0 98 312
0 97 330
0 96 348
4 109 7
4 109 14
5 109 20
5 109 26
4 110 32
4 110 39
4 110 45
4 110 52
3 110 60
3 111 68
4 111 76
3 111 85
2 111 94
1 111 103
1 112 113
1 112 123
1 112 133
1 112 145
0 112 157
0 112 169
0 111 180
0 111 195
0 111 209
0 111 222
0 111 235
0 110 250
0 110 266
0 109 282
0 109 298
0 108 312
0 107 330
0 107 348
4 117 8
4 117 14
4 118 20
4 118 26
4 120 32
3 120 39
3 120 45
3 120 53
3 121 60
2 121 68
2 122 76
3 122 85
2 122 94
1 122 103
1 122 113
1 122 123
1 123 133
0 123 145
0 122 157
0 122 168
0 122 180
0 122 195
0 121 208
0 121 222
0 121 235
0 120 250
0 120 266
0 119 282
0 118 298
0 118 312
0 117 330
0 116 348
3 128 8
3 128 14
3 129 20
4 129 26
3 130 32
3 130 38
3 130 45
2 131 53
2 131 60
1 132 68
1 132 76
2 132 85
2 132 94
1 132 103
1 132 113
1 132 123
1 132 133
0 132 145
0 132 157
0 132 168
0 132 180
0 132 194
0 131 208
0 131 222
0 130 235
0 130 250
0 129 266
0 129 282
0 129 298
0 128 312
0 128 330
0 128 348
2 138 8
2 138 14
2 139 20
3 139 26
3 140 32
3 140 38
3 141 45
3 141 52
2 142 60
0 142 68
0 142 76
1 142 85
2 142 94
2 142 103
1 142 113
1 142 124
1 142 133
1 142 145
0 142 157
0 143 169
0 143 180
0 142 195
0 142 208
0 142 222
0 142 235
0 142 250
0 142 266
0 141 282
0 141 298
0 141 312
0 140 330
0 140 348
2 148 8
1 149 14
1 149 19
2 150 25
3 150 32
3 150 38
3 151 45
2 151 52
2 151 60
1 152 68
0 152 76
0 153 85
1 153 94
1 153 103
1 153 113
0 154 124
1 154 133
1 154 145
0 154 157
0 155 169
0 155 180
0 155 195
0 155 208
0 155 222
0 154 235
0 154 250
0 154 266
0 153 282
0 153 297
0 153 312
0 152 330
0 152 349
2 158 8
0 159 14
0 160 19
1 161 25
2 161 32
2 162 38
3 162 45
2 163 52
2 164 60
1 164 68
0 165 76
0 165 85
0 165 94
0 165 103
1 166 114
0 166 124
0 166 133
0 166 145
1 167 157
0 167 169
0 167 180
0 167 195
0 166 208
0 166 222
0 166 235
0 166 251
0 165 267
0 165 282
0 164 297
0 164 312
0 164 330
0 163 349
2 170 7
0 172 14
0 172 19
0 173 25
1 173 32
1 174 38
2 175 45
2 175 52
1 176 60
2 176 68
1 177 76
0 177 85
0 177 94
0 177 103
0 177 114
0 178 124
0 178 133
0 178 145
0 178 157
0 178 169
0 179 180
0 178 195
0 178 208
0 178 222
0 178 235
0 177 251
0 177 267
0 176 282
0 176 297
0 176 311
0 175 330
0 175 349
1 183 7
1 184 14
0 184 19
0 185 25
0 185 31
0 186 38
1 186 45
1 187 52
1 188 60
1 188 68
1 188 75
0 188 85
0 189 94
0 189 103
0 189 114
0 189 124
0 189 133
0 189 145
0 189 157
0 190 169
0 190 180
0 190 195
0 190 208
0 190 222
0 190 235
0 190 251
0 190 267
0 190 282
0 190 297
0 190 311
0 190 330
0 189 349
1 194 7
1 195 13
0 195 19
0 197 25
0 197 31
0 197 38
0 198 45
1 198 52
1 199 60
1 199 68
1 200 75
0 200 85
0 200 94
0 201 103
0 201 114
0 202 124
0 202 133
0 203 145
0 203 157
0 203 169
0 204 180
0 204 194
0 204 208
0 204 221
0 205 235
0 204 251
0 204 267
0 204 282
0 204 297
0 204 312
0 203 330
0 203 349
1 205 7
1 206 13
0 207 19
0 208 25
0 209 31
0 210 38
0 210 45
0 211 52
0 212 60
0 213 68
1 213 75
0 214 84
0 214 94
0 215 103
0 215 114
0 216 124
0 217 133
0 217 145
0 217 157
0 218 169
0 218 180
0 218 194
0 218 208
0 218 222
0 218 234
0 218 251
0 218 267
0 218 282
0 218 297
0 217 312
0 217 330
0 216 349
1 219 7
1 221 13
0 221 19
0 222 25
0 223 31
0 224 38
0 225 45
0 226 52
0 227 60
0 227 68
0 228 75
1 228 84
0 228 94
0 229 103
0 229 114
0 230 124
0 230 133
0 231 145
0 231 157
0 232 169
0 232 180
0 232 194
0 232 208
0 232 221
0 232 234
0 232 250
0 231 266
0 231 282
0 231 297
0 231 312
0 230 331
0 229 349
0 234 7
0 235 13
0 236 19
0 236 25
0 237 31
0 238 38
0 238 45
0 239 52
0 240 59
0 241 68
0 242 75
0 242 84
0 242 94
0 242 103
0 243 113
0 243 124
0 244 133
0 244 145
0 244 157
0 245 169
0 245 180
0 245 194
0 245 208
0 245 221
0 245 234
0 245 250
0 244 266
0 244 282
0 244 297
0 244 312
0 243 331
0 243 349
0 247 7
0 248 13
0 249 19
0 250 25
0 250 31
0 251 38
0 252 45
0 253 52
0 254 59
0 254 68
0 255 75
0 255 84
0 255 93
0 255 102
0 256 113
0 256 124
0 257 134
0 257 145
0 257 157
0 258 169
0 258 180
0 258 194
0 258 208
0 259 221
0 259 234
0 259 250
0 260 266
0 259 282
0 260 297
0 260 312
0 259 331
0 260 349
0 260 7
0 261 13
0 262 19
0 263 25
0 264 31
0 264 38
0 265 45
0 266 52
0 267 59
0 267 67
0 267 75
0 268 84
0 268 93
0 269 102
0 270 113
0 270 124
0 271 133
0 272 145
0 273 157
0 273 169
0 274 180
0 274 195
0 275 208
0 275 222
0 275 234
0 276 250
0 276 266
0 276 282
0 276 297
0 277 312
0 276 331
0 276 349
0 273 7
0 274 13
0 275 19
0 276 25
