Gems/AtomLyIntegration/CommonFeatures/Tools/ColorGrading/TestData/Photoshop/HDR_in_LDR_Log2-48nits/Test_Curves_Adjustment_Grade.3dl
0 33 66 99 132 165 198 231 264 297 330 363 396 429 462 495 528 561 594 627 660 693 726 759 792 825 858 891 924 957 990 1023 
2 2 2
2 2 1571
2 2 1782
2 2 1895
2 2 1971
2 2 2027
2 2 2072
2 2 2109
2 2 2141
2 2 2168
2 2 2192
2 2 2213
2 2 2233
2 2 2250
2 2 2266
2 2 2281
2 2 2294
2 2 2307
2 2 2319
2 2 2330
2 2 2341
2 2 2351
2 2 2360
2 2 2369
2 2 2378
2 2 2386
2 2 2393
2 2 2401
2 2 2408
2 2 2414
2 2 2421
2 2 2427
2 1571 2
2 1571 1571
2 1571 1782
2 1571 1895
2 1571 1971
2 1571 2027
2 1571 2072
2 1571 2109
2 1571 2141
2 1571 2168
2 1571 2192
2 1571 2213
2 1571 2233
2 1571 2250
2 1571 2266
2 1571 2281
2 1571 2294
2 1571 2307
2 1571 2319
2 1571 2330
2 1571 2341
2 1571 2351
2 1571 2360
2 1571 2369
2 1571 2378
2 1571 2386
2 1571 2393
2 1571 2401
2 1571 2408
2 1571 2414
2 1571 2421
2 1571 2427
2 1782 2
2 1782 1571
2 1782 1782
2 1782 1895
2 1782 1971
2 1782 2027
2 1782 2072
2 1782 2109
2 1782 2141
2 1782 2168
2 1782 2192
2 1782 2213
2 1782 2233
2 1782 2250
2 1782 2266
2 1782 2281
2 1782 2294
2 1782 2307
2 1782 2319
2 1782 2330
2 1782 2341
2 1782 2351
2 1782 2360
2 1782 2369
2 1782 2378
2 1782 2386
2 1782 2393
2 1782 2401
2 1782 2408
2 1782 2414
2 1782 2421
2 1782 2427
2 1895 2
2 1895 1571
2 1895 1782
2 1895 1895
2 1895 1971
2 1895 2027
2 1895 2072
2 1895 2109
2 1895 2141
2 1895 2168
2 1895 2192
2 1895 2213
2 1895 2233
2 1895 2250
2 1895 2266
2 1895 2281
2 1895 2294
2 1895 2307
2 1895 2319
2 1895 2330
2 1895 2341
2 1895 2351
2 1895 2360
2 1895 2369
2 1895 2378
2 1895 2386
2 1895 2393
2 1895 2401
2 1895 2408
2 1895 2414
2 1895 2421
2 1895 2427
2 1971 2
2 1971 1571
2 1971 1782
2 1971 1895
2 1971 1971
2 1971 2027
2 1971 2072
2 1971 2109
2 1971 2141
2 1971 2168
2 1971 2192
2 1971 2213
2 1971 2233
2 1971 2250
2 1971 2266
2 1971 2281
2 1971 2294
2 1971 2307
2 1971 2319
2 1971 2330
2 1971 2341
2 1971 2351
2 1971 2360
2 1971 2369
2 1971 2378
2 1971 2386
2 1971 2393
2 1971 2401
2 1971 2408
2 1971 2414
2 1971 2421
2 1971 2427
2 2027 2
2 2027 1571
2 2027 1782
2 2027 1895
2 2027 1971
2 2027 2027
2 2027 2072
2 2027 2109
2 2027 2141
2 2027 2168
2 2027 2192
2 2027 2213
2 2027 2233
2 2027 2250
2 2027 2266
2 2027 2281
2 2027 2294
2 2027 2307
2 2027 2319
2 2027 2330
2 2027 2341
2 2027 2351
2 2027 2360
2 2027 2369
2 2027 2378
2 2027 2386
2 2027 2393
2 2027 2401
2 2027 2408
2 2027 2414
2 2027 2421
2 2027 2427
2 2072 2
2 2072 1571
2 2072 1782
2 2072 1895
2 2072 1971
2 2072 2027
2 2072 2072
2 2072 2109
2 2072 2141
2 2072 2168
2 2072 2192
2 2072 2213
2 2072 2233
2 2072 2250
2 2072 2266
2 2072 2281
2 2072 2294
2 2072 2307
2 2072 2319
2 2072 2330
2 2072 2341
2 2072 2351
2 2072 2360
2 2072 2369
2 2072 2378
2 2072 2386
2 2072 2393
2 2072 2401
2 2072 2408
2 2072 2414
2 2072 2421
2 2072 2427
2 2109 2
2 2109 1571
2 2109 1782
2 2109 1895
2 2109 1971
2 2109 2027
2 2109 2072
2 2109 2109
2 2109 2141
2 2109 2168
2 2109 2192
2 2109 2213
2 2109 2233
2 2109 2250
2 2109 2266
2 2109 2281
2 2109 2294
2 2109 2307
2 2109 2319
2 2109 2330
2 2109 2341
2 2109 2351
2 2109 2360
2 2109 2369
2 2109 2378
2 2109 2386
2 2109 2393
2 2109 2401
2 2109 2408
2 2109 2414
2 2109 2421
2 2109 2427
2 2141 2
2 2141 1571
2 2141 1782
2 2141 1895
2 2141 1971
2 2141 2027
2 2141 2072
2 2141 2109
2 2141 2141
2 2141 2168
2 2141 2192
2 2141 2213
2 2141 2233
2 2141 2250
2 2141 2266
2 2141 2281
2 2141 2294
2 2141 2307
2 2141 2319
2 2141 2330
2 2141 2341
2 2141 2351
2 2141 2360
2 2141 2369
2 2141 2378
2 2141 2386
2 2141 2393
2 2141 2401
2 2141 2408
2 2141 2414
2 2141 2421
2 2141 2427
2 2168 2
2 2168 1571
2 2168 1782
2 2168 1895
2 2168 1971
2 2168 2027
2 2168 2072
2 2168 2109
2 2168 2141
2 2168 2168
2 2168 2192
2 2168 2213
2 2168 2233
2 2168 2250
2 2168 2266
2 2168 2281
2 2168 2294
2 2168 2307
2 2168 2319
2 2168 2330
2 2168 2341
2 2168 2351
2 2168 2360
2 2168 2369
2 2168 2378
2 2168 2386
2 2168 2393
2 2168 2401
2 2168 2408
2 2168 2414
2 2168 2421
2 2168 2427
2 2192 2
2 2192 1571
2 2192 1782
2 2192 1895
2 2192 1971
2 2192 2027
2 2192 2072
2 2192 2109
2 2192 2141
2 2192 2168
2 2192 2192
2 2192 2213
2 2192 2233
2 2192 2250
2 2192 2266
2 2192 2281
2 2192 2294
2 2192 2307
2 2192 2319
2 2192 2330
2 2192 2341
2 2192 2351
2 2192 2360
2 2192 2369
2 2192 2378
2 2192 2386
2 2192 2393
2 2192 2401
2 2192 2408
2 2192 2414
2 2192 2421
2 2192 2427
2 2213 2
2 2213 1571
2 2213 1782
2 2213 1895
2 2213 1971
2 2213 2027
2 2213 2072
2 2213 2109
2 2213 2141
2 2213 2168
2 2213 2192
2 2213 2213
2 2213 2233
2 2213 2250
2 2213 2266
2 2213 2281
2 2213 2294
2 2213 2307
2 2213 2319
2 2213 2330
2 2213 2341
2 2213 2351
2 2213 2360
2 2213 2369
2 2213 2378
2 2213 2386
2 2213 2393
2 2213 2401
2 2213 2408
2 2213 2414
2 2213 2421
2 2213 2427
2 2233 2
2 2233 1571
2 2233 1782
2 2233 1895
2 2233 1971
2 2233 2027
2 2233 2072
2 2233 2109
2 2233 2141
2 2233 2168
2 2233 2192
2 2233 2213
2 2233 2233
2 2233 2250
2 2233 2266
2 2233 2281
2 2233 2294
2 2233 2307
2 2233 2319
2 2233 2330
2 2233 2341
2 2233 2351
2 2233 2360
2 2233 2369
2 2233 2378
2 2233 2386
2 2233 2393
2 2233 2401
2 2233 2408
2 2233 2414
2 2233 2421
2 2233 2427
2 2250 2
2 2250 1571
2 2250 1782
2 2250 1895
2 2250 1971
2 2250 2027
2 2250 2072
2 2250 2109
2 2250 2141
2 2250 2168
2 2250 2192
2 2250 2213
2 2250 2233
2 2250 2250
2 2250 2266
2 2250 2281
2 2250 2294
2 2250 2307
2 2250 2319
2 2250 2330
2 2250 2341
2 2250 2351
2 2250 2360
2 2250 2369
2 2250 2378
2 2250 2386
2 2250 2393
2 2250 2401
2 2250 2408
2 2250 2414
2 2250 2421
2 2250 2427
2 2266 2
2 2266 1571
2 2266 1782
2 2266 1895
2 2266 1971
2 2266 2027
2 2266 2072
2 2266 2109
2 2266 2141
2 2266 2168
2 2266 2192
2 2266 2213
2 2266 2233
2 2266 2250
2 2266 2266
2 2266 2281
2 2266 2294
2 2266 2307
2 2266 2319
2 2266 2330
2 2266 2341
2 2266 2351
2 2266 2360
2 2266 2369
2 2266 2378
2 2266 2386
2 2266 2393
2 2266 2401
2 2266 2408
2 2266 2414
2 2266 2421
2 2266 2427
2 2281 2
2 2281 1571
2 2281 1782
2 2281 1895
2 2281 1971
2 2281 2027
2 2281 2072
2 2281 2109
2 2281 2141
2 2281 2168
2 2281 2192
2 2281 2213
2 2281 2233
2 2281 2250
2 2281 2266
2 2281 2281
2 2281 2294
2 2281 2307
2 2281 2319
2 2281 2330
2 2281 2341
2 2281 2351
2 2281 2360
2 2281 2369
2 2281 2378
2 2281 2386
2 2281 2393
2 2281 2401
2 2281 2408
2 2281 2414
2 2281 2421
2 2281 2427
2 2294 2
2 2294 1571
2 2294 1782
2 2294 1895
2 2294 1971
2 2294 2027
2 2294 2072
2 2294 2109
2 2294 2141
2 2294 2168
2 2294 2192
2 2294 2213
2 2294 2233
2 2294 2250
2 2294 2266
2 2294 2281
2 2294 2294
2 2294 2307
2 2294 2319
2 2294 2330
2 2294 2341
2 2294 2351
2 2294 2360
2 2294 2369
2 2294 2378
2 2294 2386
2 2294 2393
2 2294 2401
2 2294 2408
2 2294 2414
2 2294 2421
2 2294 2427
2 2307 2
2 2307 1571
2 2307 1782
2 2307 1895
2 2307 1971
2 2307 2027
2 2307 2072
2 2307 2109
2 2307 2141
2 2307 2168
2 2307 2192
2 2307 2213
2 2307 2233
2 2307 2250
2 2307 2266
2 2307 2281
2 2307 2294
2 2307 2307
2 2307 2319
2 2307 2330
2 2307 2341
2 2307 2351
2 2307 2360
2 2307 2369
2 2307 2378
2 2307 2386
2 2307 2393
2 2307 2401
2 2307 2408
2 2307 2414
2 2307 2421
2 2307 2427
2 2319 2
2 2319 1571
2 2319 1782
2 2319 1895
2 2319 1971
2 2319 2027
2 2319 2072
2 2319 2109
2 2319 2141
2 2319 2168
2 2319 2192
2 2319 2213
2 2319 2233
2 2319 2250
2 2319 2266
2 2319 2281
2 2319 2294
2 2319 2307
2 2319 2319
2 2319 2330
2 2319 2341
2 2319 2351
2 2319 2360
2 2319 2369
2 2319 2378
2 2319 2386
2 2319 2393
2 2319 2401
2 2319 2408
2 2319 2414
2 2319 2421
2 2319 2427
2 2330 2
2 2330 1571
2 2330 1782
2 2330 1895
2 2330 1971
2 2330 2027
2 2330 2072
2 2330 2109
2 2330 2141
2 2330 2168
2 2330 2192
2 2330 2213
2 2330 2233
2 2330 2250
2 2330 2266
2 2330 2281
2 2330 2294
2 2330 2307
2 2330 2319
2 2330 2330
2 2330 2341
2 2330 2351
2 2330 2360
2 2330 2369
2 2330 2378
2 2330 2386
2 2330 2393
2 2330 2401
2 2330 2408
2 2330 2414
2 2330 2421
2 2330 2427
2 2341 2
2 2341 1571
2 2341 1782
2 2341 1895
2 2341 1971
2 2341 2027
2 2341 2072
2 2341 2109
2 2341 2141
2 2341 2168
2 2341 2192
2 2341 2213
2 2341 2233
2 2341 2250
2 2341 2266
2 2341 2281
2 2341 2294
2 2341 2307
2 2341 2319
2 2341 2330
2 2341 2341
2 2341 2351
2 2341 2360
2 2341 2369
2 2341 2378
2 2341 2386
2 2341 2393
2 2341 2401
2 2341 2408
2 2341 2414
2 2341 2421
2 2341 2427
2 2351 2
2 2351 1571
2 2351 1782
2 2351 1895
2 2351 1971
2 2351 2027
2 2351 2072
2 2351 2109
2 2351 2141
2 2351 2168
2 2351 2192
2 2351 2213
2 2351 2233
2 2351 2250
2 2351 2266
2 2351 2281
2 2351 2294
2 2351 2307
2 2351 2319
2 2351 2330
2 2351 2341
2 2351 2351
2 2351 2360
2 2351 2369
2 2351 2378
2 2351 2386
2 2351 2393
2 2351 2401
2 2351 2408
2 2351 2414
2 2351 2421
2 2351 2427
2 2360 2
2 2360 1571
2 2360 1782
2 2360 1895
2 2360 1971
2 2360 2027
2 2360 2072
2 2360 2109
2 2360 2141
2 2360 2168
2 2360 2192
2 2360 2213
2 2360 2233
2 2360 2250
2 2360 2266
2 2360 2281
2 2360 2294
2 2360 2307
2 2360 2319
2 2360 2330
2 2360 2341
2 2360 2351
2 2360 2360
2 2360 2369
2 2360 2378
2 2360 2386
2 2360 2393
2 2360 2401
2 2360 2408
2 2360 2414
2 2360 2421
2 2360 2427
2 2369 2
2 2369 1571
2 2369 1782
2 2369 1895
2 2369 1971
2 2369 2027
2 2369 2072
2 2369 2109
2 2369 2141
2 2369 2168
2 2369 2192
2 2369 2213
2 2369 2233
2 2369 2250
2 2369 2266
2 2369 2281
2 2369 2294
2 2369 2307
2 2369 2319
2 2369 2330
2 2369 2341
2 2369 2351
2 2369 2360
2 2369 2369
2 2369 2378
2 2369 2386
2 2369 2393
2 2369 2401
2 2369 2408
2 2369 2414
2 2369 2421
2 2369 2427
2 2378 2
2 2378 1571
2 2378 1782
2 2378 1895
2 2378 1971
2 2378 2027
2 2378 2072
2 2378 2109
2 2378 2141
2 2378 2168
2 2378 2192
2 2378 2213
2 2378 2233
2 2378 2250
2 2378 2266
2 2378 2281
2 2378 2294
2 2378 2307
2 2378 2319
2 2378 2330
2 2378 2341
2 2378 2351
2 2378 2360
2 2378 2369
2 2378 2378
2 2378 2386
2 2378 2393
2 2378 2401
2 2378 2408
2 2378 2414
2 2378 2421
2 2378 2427
2 2386 2
2 2386 1571
2 2386 1782
2 2386 1895
2 2386 1971
2 2386 2027
2 2386 2072
2 2386 2109
2 2386 2141
2 2386 2168
2 2386 2192
2 2386 2213
2 2386 2233
2 2386 2250
2 2386 2266
2 2386 2281
2 2386 2294
2 2386 2307
2 2386 2319
2 2386 2330
2 2386 2341
2 2386 2351
2 2386 2360
2 2386 2369
2 2386 2378
2 2386 2386
2 2386 2393
2 2386 2401
2 2386 2408
2 2386 2414
2 2386 2421
2 2386 2427
2 2393 2
2 2393 1571
2 2393 1782
2 2393 1895
2 2393 1971
2 2393 2027
2 2393 2072
2 2393 2109
2 2393 2141
2 2393 2168
2 2393 2192
2 2393 2213
2 2393 2233
2 2393 2250
2 2393 2266
2 2393 2281
2 2393 2294
2 2393 2307
2 2393 2319
2 2393 2330
2 2393 2341
2 2393 2351
2 2393 2360
2 2393 2369
2 2393 2378
2 2393 2386
2 2393 2393
2 2393 2401
2 2393 2408
2 2393 2414
2 2393 2421
2 2393 2427
2 2401 2
2 2401 1571
2 2401 1782
2 2401 1895
2 2401 1971
2 2401 2027
2 2401 2072
2 2401 2109
2 2401 2141
2 2401 2168
2 2401 2192
2 2401 2213
2 2401 2233
2 2401 2250
2 2401 2266
2 2401 2281
2 2401 2294
2 2401 2307
2 2401 2319
2 2401 2330
2 2401 2341
2 2401 2351
2 2401 2360
2 2401 2369
2 2401 2378
2 2401 2386
2 2401 2393
2 2401 2401
2 2401 2408
2 2401 2414
2 2401 2421
2 2401 2427
2 2408 2
2 2408 1571
2 2408 1782
2 2408 1895
