Gems/AtomLyIntegration/CommonFeatures/Tools/ColorGrading/TestData/Photoshop/HDR_in_LDR_Log2-48nits/Test_hue-sat_grade_LUT_32.3dl
0 33 66 99 132 165 198 231 264 297 330 363 396 429 462 495 528 561 594 627 660 693 726 759 792 825 858 891 924 957 990 1023 
7 7 7
0 301 6
0 605 10
0 909 15
0 1203 20
0 1499 26
0 1817 31
0 2113 36
0 2419 41
0 2709 46
0 3031 52
0 3325 57
0 3567 61
0 3731 67
0 3885 72
0 4027 77
0 4095 82
0 4095 87
0 4095 93
0 4095 98
0 4095 102
0 4095 107
0 4095 113
0 4095 119
0 4095 124
0 4095 129
0 4095 134
0 4095 139
0 4095 144
0 4095 149
0 4095 155
0 4095 161
303 0 191
250 55 29
513 275 42
754 658 55
757 938 67
737 1188 78
716 1438 91
696 1709 102
687 1949 115
672 2225 126
662 2473 138
640 2749 146
608 3053 151
582 3327 156
556 3547 160
519 3721 164
490 3881 169
468 4029 174
449 4095 180
428 4095 185
403 4095 190
382 4095 195
371 4095 200
349 4095 205
315 4095 209
287 4095 213
260 4095 219
239 4095 225
218 4095 231
205 4095 237
177 4095 241
166 4095 246
412 0 590
505 14 46
504 111 59
774 289 73
1032 550 85
1264 897 98
1492 1307 110
1507 1613 122
1495 1859 133
1474 2127 146
1464 2383 158
1449 2633 169
1425 2907 181
1412 3157 194
1404 3391 207
1384 3571 217
1366 3731 228
1350 3881 240
1341 4023 253
1327 4095 265
1302 4095 277
1283 4095 287
1254 4095 291
1229 4095 295
1209 4095 300
1173 4095 305
1152 4095 311
1134 4095 317
1104 4095 321
1084 4095 327
1062 4095 332
1040 4095 337
389 0 980
760 8 101
740 55 72
753 167 90
1027 331 102
1274 548 115
1540 826 128
1789 1153 140
2015 1534 154
2251 1961 166
2317 2289 177
2297 2529 189
2265 2811 202
2243 3067 214
2225 3303 225
2203 3501 236
2181 3673 248
2163 3835 261
2145 3989 273
2123 4095 285
2103 4095 295
2079 4095 306
2057 4095 319
2040 4095 332
2036 4095 344
2031 4095 357
2009 4095 368
2004 4095 379
1991 4095 390
1982 4095 400
1973 4095 414
1974 4095 427
350 0 1433
1015 2 181
1007 28 94
974 107 102
1004 222 119
1265 379 132
1542 578 145
1800 820 159
2053 1093 171
2303 1412 183
2549 1774 196
2751 2185 209
3005 2613 222
3089 2975 233
3069 3213 244
3049 3429 257
3025 3617 269
2999 3791 281
2987 3951 292
2973 4095 303
2945 4095 314
2921 4095 327
2901 4095 340
2877 4095 353
2863 4095 365
2843 4095 376
2813 4095 387
2795 4095 398
2777 4095 408
2755 4095 422
2731 4095 435
2727 4095 447
292 0 1908
1261 0 292
1263 23 141
1245 64 114
1208 161 132
1253 279 149
1528 432 162
1789 621 175
2059 839 187
2309 1084 201
2579 1355 215
2803 1683 227
3059 2039 239
3309 2403 252
3515 2839 265
3653 3257 278
3697 3555 290
3657 3739 301
3627 3911 311
3601 4073 323
3611 4095 336
3625 4095 349
3597 4095 361
3575 4095 373
3547 4095 384
3527 4095 395
3545 4095 406
3559 4095 417
3585 4095 430
3603 4095 443
3597 4095 456
3579 4095 468
222 0 2409
1511 0 432
1523 15 203
1508 44 141
1476 111 144
1440 214 163
1510 339 179
1767 485 191
2049 664 206
2299 867 219
2581 1091 232
2825 1339 244
3087 1642 256
3345 1959 270
3575 2299 284
3745 2673 296
3783 3055 308
3855 3417 319
3961 3767 331
4027 4043 344
4031 4095 357
4047 4095 369
4059 4095 381
4069 4095 392
4083 4095 403
4095 4095 414
4091 4095 425
4081 4095 439
4075 4095 451
4067 4095 464
4059 4095 476
4051 4095 488
144 0 2929
1809 0 591
1768 9 277
1760 38 187
1739 75 157
1704 162 175
1670 267 193
1744 393 210
2034 536 222
2279 706 235
2573 900 247
2823 1117 261
3087 1351 275
3359 1625 289
3603 1914 301
3809 2233 313
3849 2559 324
3901 2919 337
3943 3259 351
4047 3601 364
4095 3925 377
4095 4095 389
4095 4095 400
4095 4095 411
4095 4095 422
4095 4095 434
4095 4095 447
4095 4095 461
4095 4095 473
4095 4095 484
4093 4095 496
4085 4095 508
75 0 3505
2133 0 770
2036 5 364
2030 30 241
2014 59 188
1984 121 187
1942 215 206
1905 325 224
2012 449 239
2267 597 251
2555 760 265
2821 936 279
3075 1152 292
3359 1372 305
3611 1628 317
3835 1896 329
3879 2187 342
3913 2487 356
3985 2827 369
4041 3155 382
4095 3487 394
4095 3801 407
4095 4095 418
4095 4095 429
4095 4095 442
4095 4095 456
4095 4095 469
4095 4095 481
4095 4095 493
4095 4095 504
4095 4095 515
4095 4095 526
11 0 3993
2465 0 970
2273 1 465
2275 25 304
2267 53 234
2251 84 199
2213 170 218
2177 269 236
2139 380 253
2249 503 270
2539 648 283
2805 813 296
3059 985 308
3349 1185 320
3609 1403 333
3845 1638 347
3923 1889 361
3943 2165 375
3973 2441 387
4041 2773 400
4095 3085 412
4095 3401 423
4095 3703 434
4095 3989 449
4095 4095 463
4095 4095 476
4095 4095 488
4095 4095 502
4095 4095 513
4095 4095 524
4095 4095 535
4095 4095 546
0 0 4043
2797 0 1212
2527 0 579
2533 18 376
2521 45 286
2505 74 235
2477 129 230
2441 217 247
2397 321 266
2363 436 285
2513 563 300
2787 700 312
3035 862 324
3337 1035 337
3601 1220 351
3843 1438 365
3937 1655 378
3969 1899 391
4001 2161 404
4033 2425 416
4095 2737 427
4095 3027 440
4095 3325 454
4095 3637 468
4095 3923 482
4095 4095 494
4095 4095 507
4095 4095 519
4095 4095 531
4095 4095 543
4095 4095 553
4095 4095 564
0 0 4091
3123 0 1476
2781 0 717
2797 11 455
2793 39 342
2777 68 281
2765 93 242
2727 177 259
2689 271 279
2651 376 297
2617 486 314
2767 617 327
3013 761 342
3315 904 356
3589 1084 369
3837 1258 383
3963 1473 395
3967 1673 408
4005 1919 420
4049 2165 431
4087 2425 444
4095 2713 459
4095 2991 473
4095 3281 486
4095 3583 499
4095 3865 512
4095 4095 525
4095 4095 536
4095 4095 548
4095 4095 560
4095 4095 570
4095 4095 583
0 0 4095
3489 0 1755
3005 0 866
3039 8 544
3039 34 406
3027 62 328
3013 87 283
2991 139 272
2953 227 291
2919 321 308
2885 428 326
2843 548 345
3001 671 360
3289 813 374
3571 957 387
3827 1135 399
3985 1308 412
3991 1506 424
3995 1702 435
4041 1947 449
4083 2175 463
4095 2421 477
4095 2701 491
4095 2969 504
4095 3241 517
4095 3535 529
4095 3809 542
4095 4091 554
4095 4095 564
4095 4095 576
4095 4095 590
4095 4095 604
0 0 4095
3803 0 2085
3315 0 1006
3283 3 645
3281 26 476
3269 54 384
3249 83 326
3235 110 290
3203 186 303
3163 276 320
3127 379 337
3095 484 358
3053 603 377
3267 729 391
3549 860 404
3811 1016 415
3999 1178 427
4009 1355 439
4019 1548 454
4033 1745 468
4077 1978 481
4095 2191 495
4095 2439 508
4095 2707 521
4095 2961 534
4095 3223 546
4095 3501 557
4095 3781 569
4095 4053 581
4095 4095 595
4095 4095 609
4095 4095 623
0 0 4095
3921 0 2427
3641 0 1176
3533 1 749
3527 18 551
3509 46 440
3505 76 376
3483 104 329
3457 147 315
3431 234 331
3405 329 350
3371 426 370
3353 540 388
3315 652 406
3531 784 419
3793 910 431
4013 1071 444
4009 1219 458
4033 1405 472
4047 1587 486
4071 1791 499
4095 2008 512
4095 2219 525
4095 2461 537
4095 2715 549
4095 2959 561
4095 3211 573
4095 3493 585
4095 3765 600
4095 4025 615
4095 4095 628
4095 4095 642
0 0 4095
3967 0 2803
3933 0 1339
3783 0 872
3765 14 638
3749 41 508
3733 70 426
3719 97 375
3697 123 335
3679 195 344
3657 282 363
3631 379 383
3611 485 400
3589 592 417
3555 712 434
3771 832 449
4011 972 463
4023 1120 476
4031 1277 490
4055 1455 503
4075 1626 516
4095 1837 529
4095 2049 541
4095 2245 553
4095 2487 565
4095 2729 576
4095 2969 591
4095 3229 605
4095 3503 619
4095 3757 633
4095 4003 646
4095 4093 660
0 0 4095
4027 0 3189
4035 0 1532
4007 0 987
3989 12 724
3965 36 572
3949 64 483
3935 92 421
3917 116 378
3899 159 357
3881 239 376
3869 335 394
3847 432 412
3833 540 428
3805 649 446
3777 766 467
3995 880 481
4033 1030 494
4033 1168 507
4053 1336 519
4077 1510 532
4095 1676 545
4095 1888 556
4095 2083 568
4095 2285 580
4095 2519 595
4095 2759 609
4095 2989 623
4095 3247 636
4095 3511 651
4095 3765 664
4095 4003 677
0 0 4095
4095 0 3633
4031 0 1715
4079 0 1134
4095 6 820
4095 28 650
4095 58 542
4095 85 471
4095 113 420
4095 141 383
4089 206 388
4079 295 405
4071 383 422
4059 490 438
4045 589 459
4011 708 479
3987 816 498
4043 944 511
4043 1083 523
4047 1221 535
4073 1396 548
4095 1561 559
4095 1734 571
4095 1933 584
4095 2125 598
4095 2325 613
4095 2555 627
4095 2789 641
4095 3003 654
4095 3259 668
4095 3533 681
4095 3767 694
0 0 4095
4095 0 4023
4057 0 1942
4065 0 1278
4095 3 923
4095 22 727
4095 49 605
4095 76 526
4095 107 466
4095 135 423
4095 169 400
4095 253 417
4095 342 434
4095 439 452
4093 539 472
4087 646 491
4063 758 510
4043 861 528
4053 1002 540
4053 1135 551
4069 1287 563
4095 1453 575
4095 1600 588
4095 1786 603
4095 1982 617
4095 2155 631
4095 2367 644
4095 2597 658
4095 2817 671
4095 3013 685
4095 3281 698
4095 3543 710
0 0 4095
4095 0 4053
4089 0 2169
4071 0 1434
4095 1 1025
4095 17 812
4095 40 677
4095 71 578
4095 101 517
4095 128 465
4095 154 429
4095 213 429
4095 302 445
4095 391 466
4095 490 485
4093 589 504
4083 699 522
4061 802 539
4053 923 556
4061 1058 568
4061 1185 578
4091 1348 594
4095 1499 608
4095 1648 622
4095 1841 636
4095 2024 649
4095 2197 662
4095 2415 675
4095 2635 688
4095 2831 701
4095 3039 714
4095 3311 726
0 0 4095
4095 0 4081
4095 0 2405
4083 0 1590
4095 0 1152
4095 13 904
4095 34 745
4095 64 644
4095 95 567
4095 122 515
4095 148 470
4095 176 440
4095 263 459
4095 346 479
4095 444 498
4095 536 516
4093 643 533
4079 747 551
4063 855 567
4063 983 584
4073 1108 598
4087 1248 612
4095 1400 626
4095 1544 640
4095 1712 653
4095 1897 667
4095 2071 679
4095 2245 692
4095 2457 705
4095 2657 717
4095 2861 730
4095 3081 742
0 0 4095
4095 0 4095
4095 0 2669
4095 0 1739
4095 0 1277
4095 8 990
4095 29 826
4095 60 709
4095 89 625
4095 116 561
4095 142 515
4095 167 477
4095 226 472
4095 306 491
4095 401 510
4095 493 528
4095 590 545
4093 693 561
4077 795 578
4073 915 597
4075 1038 617
4085 1155 630
4095 1306 644
4095 1449 658
4095 1591 671
4095 1773 684
4095 1948 697
4095 2111 708
4095 2295 721
4095 2495 733
4095 2699 746
4095 2901 757
0 0 4095
4095 0 4095
4095 0 2921
4095 0 1925
4095 0 1415
4095 5 1097
4095 27 905
4095 55 770
4095 83 684
4095 111 612
4095 136 559
4095 164 519
4095 191 485
4095 271 504
4095 359 522
4095 450 539
4095 540 556
4095 643 572
4093 743 590
4085 852 611
4085 973 631
4087 1089 649
4095 1217 661
4095 1360 675
4095 1502 688
4095 1652 700
4095 1827 713
4095 1991 725
4095 2149 737
4095 2345 748
4095 2547 760
4095 2747 772
0 0 4095
4095 0 4095
4095 0 3209
4095 0 2109
4095 0 1561
4095 2 1204
4095 22 983
4095 46 847
4095 74 741
4095 101 668
4095 130 607
4095 159 561
4095 186 525
4095 236 516
4095 317 534
4095 409 551
4095 494 567
4095 594 583
4095 693 604
4095 789 624
4095 909 643
4095 1028 663
4095 1137 679
4095 1282 692
4095 1419 704
4095 1552 717
4095 1713 728
4095 1878 741
4095 2037 752
4095 2207 763
4095 2399 777
4095 2597 792
0 0 4095
4095 0 4095
4095 0 3521
4095 0 2283
4095 0 1705
4095 0 1310
4095 18 1078
4095 36 923
4095 65 807
4095 91 724
4095 123 662
4095 152 606
4095 180 565
4095 207 533
4095 276 546
4095 366 562
4095 452 578
4095 546 596
4095 642 616
4095 735 637
4095 848 655
4095 964 674
4095 1074 692
4095 1198 708
4095 1336 720
4095 1468 733
4095 1607 744
4095 1771 756
4095 1931 768
4095 2087 782
4095 2255 795
4095 2453 810
0 0 4095
4095 0 4095
4095 0 3817
4095 0 2493
4095 0 1864
4095 0 1441
4095 13 1174
4095 30 992
4095 57 877
4095 85 779
4095 116 713
4095 146 657
4095 175 607
4095 200 570
4095 241 558
4095 326 574
4095 410 589
4095 499 610
4095 597 630
4095 688 649
4095 786 668
4095 902 686
4095 1014 704
4095 1124 722
4095 1260 737
4095 1390 748
4095 1519 759
4095 1668 773
4095 1825 785
4095 1980 800
4095 2133 814
4095 2311 827
0 0 4095
4095 0 4095
4095 0 4037
4095 0 2705
4095 0 2020
4095 0 1570
4095 6 1271
4095 25 1078
4095 50 943
4095 80 845
4095 111 762
4095 140 706
4095 168 656
4095 194 612
4095 217 577
4095 289 585
4095 372 603
4095 452 623
4095 551 643
4095 642 662
4095 729 680
4095 846 698
4095 959 716
4095 1063 733
4095 1189 750
4095 1318 764
4095 1442 777
4095 1576 790
4095 1728 805
4095 1883 819
4095 2035 831
4095 2179 844
0 0 4095
4095 0 4095
4095 0 4053
4095 0 2911
4095 0 2175
4095 0 1696
4095 4 1376
4095 21 1169
4095 44 1007
4095 76 907
4095 105 823
4095 134 754
4095 161 703
4095 186 658
4095 210 618
4095 254 598
4095 337 617
4095 415 636
4095 508 656
4095 599 675
4095 685 692
4095 794 710
4095 905 727
4095 1008 743
4095 1119 761
4095 1248 779
4095 1370 796
4095 1498 809
4095 1631 822
4095 1786 836
4095 1937 848
4095 2071 861
0 0 4095
4095 0 4095
4095 0 4071
4095 0 3121
