Gems/Atom/Feature/Common/Tools/ColorGrading/Resources/TestData/Nuke/HDR/Test_Extreme_Grade/test-extreme-grade_inv-Log2-48nits_32_LUT.3dl
0 33 66 99 132 165 198 231 264 297 330 363 396 429 462 495 528 561 594 627 660 693 726 759 792 825 858 891 924 957 990 1023 
0 0 0
0 40 0
0 176 0
0 310 0
0 444 0
0 578 0
0 711 0
0 844 0
0 976 0
0 1109 0
0 1241 0
0 1374 0
0 1506 0
0 1638 0
0 1770 0
0 1903 0
0 2035 0
0 2167 0
0 2299 0
0 2431 0
0 2563 0
0 2695 0
0 2827 0
0 2959 0
0 3091 0
0 3225 0
0 3357 0
0 3489 0
0 3621 0
0 3753 0
0 3885 0
0 4017 0
235 0 150
0 22 0
0 162 0
0 300 0
0 437 0
0 572 0
0 707 0
0 841 0
0 974 0
0 1107 0
0 1240 0
0 1373 0
0 1505 0
0 1638 0
0 1770 0
0 1902 0
0 2035 0
0 2167 0
0 2299 0
0 2431 0
0 2563 0
0 2695 0
0 2827 0
0 2959 0
0 3091 0
0 3225 0
0 3357 0
0 3489 0
0 3621 0
0 3753 0
0 3885 0
0 4017 0
474 0 352
349 0 225
98 143 0
0 286 0
0 427 0
0 565 0
0 701 0
0 836 0
0 971 0
0 1105 0
0 1238 0
0 1371 0
0 1504 0
0 1637 0
0 1769 0
0 1902 0
0 2034 0
0 2167 0
0 2299 0
0 2431 0
0 2563 0
0 2695 0
0 2827 0
0 2959 0
0 3091 0
0 3225 0
0 3357 0
0 3489 0
0 3621 0
0 3753 0
0 3885 0
0 4017 0
672 0 529
595 0 448
467 117 309
205 267 14
0 412 0
0 554 0
0 693 0
0 831 0
0 967 0
0 1102 0
0 1236 0
0 1370 0
0 1503 0
0 1636 0
0 1769 0
0 1901 0
0 2034 0
0 2167 0
0 2299 0
0 2431 0
0 2563 0
0 2695 0
0 2827 0
0 2959 0
0 3091 0
0 3225 0
0 3357 0
0 3489 0
0 3621 0
0 3753 0
0 3885 0
0 4017 0
848 0 693
797 0 638
719 78 551
588 240 402
318 393 67
0 540 0
0 683 0
0 823 0
0 961 0
0 1097 0
0 1233 0
0 1367 0
0 1501 0
0 1635 0
0 1768 0
0 1901 0
0 2033 0
0 2165 0
0 2299 0
0 2431 0
0 2563 0
0 2695 0
0 2827 0
0 2959 0
0 3091 0
0 3223 0
0 3357 0
0 3489 0
0 3621 0
0 3753 0
0 3885 0
0 4017 0
1010 0 848
975 0 809
924 22 751
845 201 661
712 365 502
435 520 130
0 669 0
0 813 0
0 953 0
0 1092 0
0 1228 0
0 1364 0
0 1499 0
0 1633 0
0 1766 0
0 1900 0
0 2033 0
0 2165 0
0 2297 0
0 2431 0
0 2563 0
0 2695 0
0 2827 0
0 2959 0
0 3091 0
0 3223 0
0 3357 0
0 3489 0
0 3621 0
0 3753 0
0 3885 0
0 4017 0
1163 0 996
1139 0 968
1104 0 928
1052 143 869
972 326 775
837 493 609
555 649 202
0 798 0
0 943 0
0 1084 0
0 1223 0
0 1360 0
0 1496 0
0 1631 0
0 1765 0
0 1898 0
0 2032 0
0 2165 0
0 2297 0
0 2429 0
0 2563 0
0 2695 0
0 2827 0
0 2959 0
0 3091 0
0 3223 0
0 3357 0
0 3489 0
0 3621 0
0 3753 0
0 3885 0
0 4017 0
1311 0 1139
1293 0 1119
1269 0 1091
1233 52 1050
1181 267 990
1101 452 893
965 621 721
678 778 283
0 928 0
0 1073 0
0 1215 0
0 1354 0
0 1491 0
0 1627 0
0 1762 0
0 1897 0
0 2030 0
0 2163 0
0 2297 0
0 2429 0
0 2563 0
0 2695 0
0 2827 0
0 2959 0
0 3091 0
0 3223 0
0 3355 0
0 3489 0
0 3621 0
0 3753 0
0 3885 0
0 4017 0
1454 0 1280
1441 0 1265
1424 0 1245
1399 0 1216
1363 174 1175
1311 393 1113
1230 580 1015
1093 750 837
804 908 374
0 1059 0
0 1204 0
0 1346 0
0 1486 0
0 1623 0
0 1759 0
0 1894 0
0 2029 0
0 2163 0
0 2295 0
0 2429 0
0 2561 0
0 2695 0
0 2827 0
0 2959 0
0 3091 0
0 3223 0
0 3355 0
0 3489 0
0 3621 0
0 3753 0
0 3885 0
0 4017 0
1595 0 1418
1585 0 1407
1572 0 1393
1554 0 1372
1530 9 1343
1494 298 1301
1441 520 1239
1360 709 1139
1222 880 957
931 1039 472
0 1190 0
0 1336 0
0 1478 0
0 1617 0
0 1755 0
0 1891 0
0 2026 0
0 2161 0
0 2295 0
0 2427 0
0 2561 0
0 2693 0
0 2827 0
0 2959 0
0 3091 0
0 3223 0
0 3355 0
0 3487 0
0 3621 0
0 3753 0
0 3885 0
0 4017 0
1733 0 1555
1726 0 1547
1716 0 1536
1703 0 1521
1686 0 1501
1661 130 1471
1625 424 1429
1572 649 1366
1491 839 1265
1352 1011 1080
1059 1170 577
0 1321 0
0 1467 0
0 1610 0
0 1749 0
0 1887 0
0 2023 0
0 2159 0
0 2293 0
0 2427 0
0 2559 0
0 2693 0
0 2825 0
0 2959 0
0 3091 0
0 3223 0
0 3355 0
0 3487 0
0 3621 0
0 3753 0
0 3885 0
0 4017 0
1869 0 1690
1864 0 1684
1857 0 1676
1848 0 1666
1835 0 1651
1817 0 1630
1792 254 1601
1756 552 1558
1704 778 1494
1622 970 1392
1483 1141 1205
1188 1301 687
0 1453 0
0 1599 0
0 1741 0
0 1881 0
0 2019 0
0 2155 0
0 2291 0
0 2425 0
0 2559 0
0 2691 0
0 2825 0
0 2957 0
0 3091 0
0 3223 0
0 3355 0
0 3487 0
0 3619 0
0 3753 0
0 3885 0
0 4017 0
2005 0 1825
2001 0 1821
1996 0 1815
1989 0 1807
1979 0 1796
1966 0 1781
1949 0 1760
1924 379 1731
1888 681 1688
1835 908 1624
1753 1100 1521
1614 1272 1332
1318 1432 803
0 1584 0
0 1731 0
0 1873 0
0 2013 0
0 2151 0
0 2287 0
0 2423 0
0 2557 0
0 2691 0
0 2823 0
0 2957 0
0 3089 0
0 3223 0
0 3355 0
0 3487 0
0 3619 0
0 3753 0
0 3885 0
0 4017 0
2139 0 1959
2137 0 1956
2133 0 1951
2127 0 1945
2121 0 1937
2111 0 1927
2099 0 1912
2081 0 1891
2055 506 1861
2019 810 1818
1967 1038 1754
1885 1231 1650
1745 1404 1460
1448 1564 922
0 1716 0
0 1863 0
0 2005 0
0 2145 0
0 2283 0
0 2419 0
0 2555 0
0 2689 0
0 2823 0
0 2957 0
0 3089 0
0 3221 0
0 3355 0
0 3487 0
0 3619 0
0 3751 0
0 3885 0
0 4017 0
2273 0 2093
2271 0 2091
2269 0 2087
2265 0 2083
2259 0 2077
2253 0 2069
2243 0 2057
2231 0 2043
2213 60 2022
2187 635 1992
2151 941 1949
2099 1169 1884
2016 1363 1781
1877 1536 1589
1579 1696 1044
0 1848 0
0 1995 0
0 2137 0
0 2277 0
0 2415 0
0 2551 0
0 2687 0
0 2821 0
0 2955 0
0 3089 0
0 3221 0
0 3355 0
0 3487 0
0 3619 0
0 3751 0
0 3885 0
0 4017 0
2407 0 2225
2405 0 2223
2403 0 2221
2401 0 2219
2397 0 2213
2391 0 2207
2385 0 2199
2375 0 2189
2361 0 2173
2345 182 2153
2319 764 2123
2283 1071 2081
2231 1301 2015
2149 1494 1911
2008 1667 1719
1710 1828 1168
0 1980 0
0 2127 0
0 2269 0
0 2409 0
0 2547 0
0 2683 0
0 2819 0
0 2953 0
0 3087 0
0 3221 0
0 3353 0
0 3487 0
0 3619 0
0 3751 0
0 3883 0
0 4017 0
2539 0 2359
2539 0 2357
2537 0 2355
2535 0 2353
2533 0 2349
2529 0 2345
2523 0 2339
2517 0 2331
2507 0 2321
2493 0 2305
2475 306 2285
2451 894 2255
2415 1202 2211
2363 1432 2147
2279 1626 2042
2141 1799 1850
1842 1960 1295
0 2113 0
0 2259 0
0 2401 0
0 2541 0
0 2679 0
0 2815 0
0 2951 0
0 3085 0
0 3219 0
0 3353 0
0 3485 0
0 3619 0
0 3751 0
0 3883 0
0 4015 0
2673 0 2491
2671 0 2491
2671 0 2489
2669 0 2487
2667 0 2485
2665 0 2481
2661 0 2477
2655 0 2471
2649 0 2463
2639 0 2453
2625 0 2437
2607 433 2415
2583 1025 2387
2547 1334 2343
2493 1564 2279
2411 1758 2173
2273 1931 1981
1973 2091 1423
0 2245 0
0 2391 0
0 2533 0
0 2673 0
0 2811 0
0 2947 0
0 3083 0
0 3217 0
0 3351 0
0 3485 0
0 3617 0
0 3751 0
0 3883 0
0 4015 0
2805 0 2623
2805 0 2623
2803 0 2623
2803 0 2621
2801 0 2619
2799 0 2617
2797 0 2613
2793 0 2609
2787 0 2603
2781 0 2595
2771 0 2583
2757 0 2569
2741 560 2547
2715 1155 2517
2679 1465 2475
2625 1696 2409
2543 1890 2305
2403 2063 2111
2105 2223 1552
0 2377 0
0 2523 0
0 2665 0
0 2805 0
0 2943 0
0 3079 0
0 3215 0
0 3349 0
0 3483 0
0 3617 0
0 3749 0
0 3883 0
0 4015 0
2937 0 2757
2937 0 2755
2937 0 2755
2935 0 2755
2935 0 2753
2933 0 2751
2931 0 2749
2929 0 2745
2925 0 2741
2919 0 2735
2913 0 2727
2903 0 2715
2891 0 2701
2873 689 2679
2847 1287 2649
2811 1597 2607
2759 1828 2541
2675 2022 2437
2535 2195 2243
2237 2355 1681
0 2509 0
0 2655 0
0 2797 0
0 2937 0
0 3075 0
0 3211 0
0 3347 0
0 3481 0
0 3615 0
0 3749 0
0 3881 0
0 4015 0
3071 0 2889
3069 0 2889
3069 0 2887
3069 0 2887
3067 0 2885
3067 0 2885
3065 0 2883
3063 0 2881
3061 0 2877
3057 0 2873
3051 0 2867
3045 0 2859
3035 0 2847
3023 0 2833
3005 819 2811
2979 1418 2781
2943 1729 2739
2891 1959 2673
2807 2153 2569
2667 2327 2375
2369 2487 1811
0 2641 0
0 2787 0
0 2929 0
0 3069 0
0 3207 0
0 3343 0
0 3479 0
0 3613 0
0 3747 0
0 3881 0
0 4015 0
3203 0 3021
3203 0 3021
3203 0 3021
3201 0 3019
3201 0 3019
3201 0 3017
3199 0 3017
3197 0 3015
3195 0 3013
3193 0 3009
3189 0 3005
3183 0 2999
3177 0 2991
3167 0 2979
3155 0 2965
3137 949 2943
3111 1550 2913
3075 1860 2871
3023 2091 2805
2939 2285 2701
2801 2459 2507
2501 2619 1942
0 2773 0
0 2919 0
0 3061 0
0 3201 0
0 3339 0
0 3475 0
0 3611 0
0 3745 0
0 3879 0
0 4013 0
3335 0 3153
3335 0 3153
3335 0 3153
3335 0 3153
3333 0 3151
3333 0 3151
3333 0 3151
3331 0 3149
3329 0 3147
3327 0 3145
3325 0 3141
3321 0 3137
3315 0 3131
3309 0 3123
3299 0 3111
3287 0 3097
3269 1080 3075
3243 1682 3045
3207 1992 3003
3155 2223 2937
3073 2417 2833
2933 2591 2639
2633 2751 2073
0 2905 0
0 3051 0
0 3193 0
0 3333 0
0 3471 0
0 3609 0
0 3743 0
0 3877 0
0 4011 0
3467 0 3285
3467 0 3285
3467 0 3285
3467 0 3285
3467 0 3285
3465 0 3283
3465 0 3283
3465 0 3283
3463 0 3281
3461 0 3279
3459 0 3277
3457 0 3273
3453 0 3269
3447 0 3263
3441 0 3255
3431 0 3243
3419 0 3229
3401 1211 3207
3375 1813 3177
3339 2125 3135
3287 2355 3069
3205 2549 2965
3065 2723 2771
2765 2885 2205
0 3037 0
0 3183 0
0 3327 0
0 3465 0
0 3603 0
0 3741 0
0 3875 0
0 4009 0
3599 0 3417
3599 0 3417
3599 0 3417
3599 0 3417
3599 0 3417
3599 0 3417
3597 0 3415
3597 0 3415
3597 0 3415
3595 0 3413
3593 0 3411
3591 0 3409
3589 0 3405
3585 0 3401
3579 0 3395
3573 0 3387
3563 0 3375
3551 0 3361
3533 1342 3339
3507 1945 3309
3471 2257 3267
3419 2487 3201
3337 2681 3097
3197 2855 2903
2897 3017 2337
0 3169 0
0 3315 0
0 3459 0
0 3599 0
0 3735 0
0 3873 0
0 4007 0
3731 0 3549
3731 0 3549
3731 0 3549
3731 0 3549
3731 0 3549
3731 0 3549
3731 0 3549
3731 0 3547
3729 0 3547
3729 0 3547
3727 0 3545
3725 0 3543
3723 0 3541
3721 0 3537
3717 0 3533
3711 0 3527
3705 0 3519
3695 0 3507
3683 0 3493
3665 1474 3471
3639 2077 3441
3603 2389 3399
3551 2619 3333
3469 2813 3229
3329 2987 3035
3029 3149 2467
0 3301 0
0 3447 0
0 3591 0
0 3731 0
0 3869 0
0 4005 0
3863 0 3683
3863 0 3681
3863 0 3681
3863 0 3681
3863 0 3681
3863 0 3681
3863 0 3681
3863 0 3681
3863 0 3681
3861 0 3679
3861 0 3679
3859 0 3677
3857 0 3675
3855 0 3673
3853 0 3669
3849 0 3665
3845 0 3659
3837 0 3651
3827 0 3641
3815 0 3625
3797 1605 3603
3771 2209 3573
3735 2521 3531
3683 2751 3465
3601 2947 3361
3461 3119 3167
3161 3281 2599
0 3433 0
0 3579 0
0 3723 0
0 3863 0
0 4001 0
3997 0 3815
3997 0 3815
3995 0 3815
3995 0 3813
3995 0 3813
3995 0 3813
3995 0 3813
3995 0 3813
3995 0 3813
3995 0 3813
3993 0 3811
3993 0 3811
3991 0 3809
3991 0 3807
3987 0 3805
3985 0 3801
3981 0 3797
3977 0 3791
3969 0 3783
3959 0 3773
3947 0 3757
3929 1737 3735
3903 2341 3705
3867 2653 3663
3815 2883 3597
3733 3079 3493
3593 3251 3299
3293 3413 2731
0 3565 0
0 3711 0
0 3855 0
0 3995 0
4095 0 3947
4095 0 3947
4095 0 3947
4095 0 3947
