Gems/AtomLyIntegration/CommonFeatures/Resources/ColorGrading/TestData/Photoshop/HDR_in_LDR_Log2-48nits/Weird_Invert_LUT_32.3dl
0 33 66 99 132 165 198 231 264 297 330 363 396 429 462 495 528 561 594 627 660 693 726 759 792 825 858 891 924 957 990 1023 
2708 2728 2735
2707 2727 2734
2707 2726 2731
2706 2725 2729
2705 2723 2726
2703 2721 2721
2701 2716 2714
2699 2712 2707
2696 2709 2699
2695 2705 2691
2690 2697 2677
2684 2688 2659
2676 2677 2636
2671 2668 2615
2666 2658 2590
2659 2646 2557
2650 2630 2512
2638 2609 2450
2622 2582 2356
2602 2545 2203
2574 2495 1960
2537 2423 1610
2519 2386 1415
2519 2386 1415
2519 2386 1415
2519 2386 1415
2519 2386 1415
2519 2386 1415
2519 2386 1415
2519 2386 1415
2519 2386 1415
2519 2386 1415
2707 2726 2734
2707 2726 2733
2707 2725 2731
2706 2724 2729
2705 2722 2726
2703 2720 2721
2701 2716 2715
2699 2711 2707
2696 2708 2699
2695 2704 2691
2690 2697 2677
2684 2687 2658
2676 2676 2636
2670 2667 2615
2665 2657 2590
2658 2645 2557
2649 2629 2512
2637 2609 2449
2621 2581 2356
2601 2545 2203
2573 2494 1960
2536 2422 1610
2518 2384 1415
2518 2384 1415
2518 2384 1415
2518 2384 1415
2518 2384 1415
2518 2384 1415
2518 2384 1415
2518 2384 1415
2518 2384 1415
2518 2384 1415
2705 2724 2732
2706 2724 2732
2706 2724 2731
2706 2723 2729
2704 2721 2726
2703 2719 2721
2701 2716 2716
2699 2710 2707
2696 2707 2699
2695 2703 2690
2690 2696 2676
2684 2687 2658
2675 2674 2636
2669 2665 2615
2664 2656 2590
2657 2644 2557
2649 2628 2512
2637 2607 2449
2621 2580 2356
2600 2543 2203
2573 2493 1959
2535 2420 1609
2517 2383 1415
2517 2383 1415
2517 2383 1415
2517 2383 1415
2517 2383 1415
2517 2383 1415
2517 2383 1415
2517 2383 1415
2517 2383 1415
2517 2383 1415
2703 2722 2729
2703 2722 2729
2704 2722 2729
2706 2722 2729
2704 2720 2726
2703 2717 2721
2701 2714 2716
2698 2709 2707
2696 2706 2699
2694 2701 2690
2689 2694 2676
2683 2685 2658
2674 2672 2635
2668 2663 2614
2663 2654 2590
2656 2642 2557
2647 2626 2512
2636 2606 2449
2620 2578 2356
2599 2541 2202
2571 2491 1959
2535 2419 1609
2516 2381 1414
2516 2381 1414
2516 2381 1414
2516 2381 1414
2516 2381 1414
2516 2381 1414
2516 2381 1414
2516 2381 1414
2516 2381 1414
2516 2381 1414
2700 2718 2726
2701 2718 2726
2701 2718 2726
2703 2718 2726
2704 2718 2725
2703 2716 2721
2701 2713 2716
2698 2709 2708
2695 2703 2699
2693 2699 2690
2688 2692 2676
2682 2684 2658
2672 2670 2635
2667 2661 2614
2661 2651 2589
2655 2640 2556
2646 2624 2512
2634 2603 2449
2618 2576 2355
2598 2539 2202
2570 2489 1959
2533 2416 1609
2515 2378 1414
2515 2378 1414
2515 2378 1414
2515 2378 1414
2515 2378 1414
2515 2378 1414
2515 2378 1414
2515 2378 1414
2515 2378 1414
2515 2378 1414
2696 2714 2722
2697 2714 2722
2698 2714 2722
2699 2714 2722
2700 2714 2721
2702 2714 2721
2700 2710 2716
2698 2707 2708
2694 2701 2699
2692 2697 2690
2687 2690 2675
2681 2681 2657
2670 2666 2635
2664 2657 2614
2659 2648 2589
2652 2636 2556
2644 2620 2511
2632 2600 2448
2616 2573 2355
2596 2536 2202
2568 2485 1958
2531 2413 1608
2513 2374 1413
2513 2374 1413
2513 2374 1413
2513 2374 1413
2513 2374 1413
2513 2374 1413
2513 2374 1413
2513 2374 1413
2513 2374 1413
2513 2374 1413
2692 2708 2717
2692 2708 2717
2693 2708 2717
2694 2708 2717
2696 2708 2716
2697 2708 2716
2700 2708 2716
2697 2704 2708
2694 2699 2699
2691 2693 2689
2686 2687 2675
2678 2676 2657
2667 2661 2634
2661 2652 2613
2657 2644 2589
2650 2632 2556
2641 2616 2511
2629 2596 2448
2614 2569 2354
2593 2532 2201
2566 2481 1958
2529 2408 1607
2510 2369 1412
2510 2369 1412
2510 2369 1412
2510 2369 1412
2510 2369 1412
2510 2369 1412
2510 2369 1412
2510 2369 1412
2510 2369 1412
2510 2369 1412
2685 2701 2711
2686 2701 2711
2687 2701 2710
2688 2701 2710
2689 2701 2710
2691 2700 2710
2693 2700 2709
2697 2700 2708
2693 2695 2699
2689 2689 2688
2683 2681 2674
2675 2671 2656
2666 2658 2634
2661 2649 2613
2657 2641 2589
2650 2629 2556
2641 2613 2511
2629 2593 2448
2614 2566 2354
2593 2529 2201
2566 2478 1958
2529 2405 1607
2510 2366 1412
2510 2366 1412
2510 2366 1412
2510 2366 1412
2510 2366 1412
2510 2366 1412
2510 2366 1412
2510 2366 1412
2510 2366 1412
2510 2366 1412
2677 2691 2702
2678 2691 2702
2679 2691 2702
2680 2691 2702
2681 2691 2702
2683 2691 2701
2685 2691 2701
2689 2691 2700
2690 2688 2699
2687 2684 2688
2683 2677 2674
2675 2667 2656
2665 2653 2634
2661 2645 2613
2657 2637 2589
2650 2625 2556
2641 2610 2511
2629 2589 2448
2614 2562 2354
2593 2525 2201
2566 2474 1958
2529 2401 1607
2510 2362 1412
2510 2362 1412
2510 2362 1412
2510 2362 1412
2510 2362 1412
2510 2362 1412
2510 2362 1412
2510 2362 1412
2510 2362 1412
2510 2362 1412
2667 2679 2692
2667 2679 2692
2668 2679 2692
2669 2679 2691
2671 2679 2691
2672 2679 2691
2675 2679 2690
2677 2678 2690
2679 2676 2688
2684 2676 2686
2681 2672 2675
2674 2661 2656
2664 2648 2634
2661 2640 2613
2657 2631 2589
2650 2620 2556
2641 2605 2511
2629 2585 2448
2614 2557 2354
2593 2521 2201
2566 2469 1958
2529 2395 1607
2510 2356 1412
2510 2356 1412
2510 2356 1412
2510 2356 1412
2510 2356 1412
2510 2356 1412
2510 2356 1412
2510 2356 1412
2510 2356 1412
2510 2356 1412
2654 2664 2679
2654 2664 2679
2655 2664 2678
2656 2664 2678
2657 2664 2678
2659 2664 2678
2661 2664 2677
2661 2661 2676
2664 2661 2675
2669 2661 2672
2679 2662 2675
2673 2656 2658
2664 2641 2634
2660 2633 2613
2657 2625 2589
2650 2613 2556
2641 2598 2511
2629 2578 2448
2614 2551 2354
2593 2514 2201
2566 2462 1958
2529 2388 1607
2510 2348 1412
2510 2348 1412
2510 2348 1412
2510 2348 1412
2510 2348 1412
2510 2348 1412
2510 2348 1412
2510 2348 1412
2510 2348 1412
2510 2348 1412
2637 2646 2662
2637 2646 2662
2638 2645 2662
2639 2645 2662
2640 2645 2661
2642 2645 2661
2642 2643 2661
2642 2642 2659
2646 2642 2658
2650 2641 2656
2660 2642 2658
2670 2645 2658
2663 2633 2635
2659 2624 2613
2657 2616 2589
2650 2604 2556
2641 2589 2511
2629 2569 2448
2614 2542 2354
2593 2505 2201
2566 2453 1958
2529 2377 1607
2510 2337 1412
2510 2337 1412
2510 2337 1412
2510 2337 1412
2510 2337 1412
2510 2337 1412
2510 2337 1412
2510 2337 1412
2510 2337 1412
2510 2337 1412
2615 2621 2641
2615 2621 2641
2616 2621 2641
2617 2621 2641
2617 2620 2641
2617 2619 2640
2617 2617 2639
2619 2617 2638
2622 2617 2637
2626 2617 2635
2635 2617 2636
2646 2619 2637
2659 2622 2638
2658 2613 2614
2655 2603 2589
2650 2593 2556
2641 2578 2511
2629 2558 2448
2614 2530 2354
2593 2493 2201
2566 2441 1958
2529 2363 1607
2510 2322 1412
2510 2322 1412
2510 2322 1412
2510 2322 1412
2510 2322 1412
2510 2322 1412
2510 2322 1412
2510 2322 1412
2510 2322 1412
2510 2322 1412
2601 2603 2631
2600 2603 2631
2600 2603 2630
2600 2603 2630
2600 2603 2630
2600 2603 2629
2600 2602 2628
2599 2602 2627
2599 2601 2625
2601 2599 2623
2606 2599 2621
2614 2598 2618
2630 2601 2621
2655 2601 2620
2655 2588 2589
2650 2577 2556
2641 2562 2511
2629 2542 2448
2614 2515 2354
2593 2477 2201
2566 2423 1958
2529 2344 1607
2511 2302 1413
2511 2302 1413
2511 2302 1413
2511 2302 1413
2511 2302 1413
2511 2302 1413
2511 2302 1413
2511 2302 1413
2511 2302 1413
2511 2302 1413
2585 2583 2621
2585 2583 2621
2585 2583 2620
2585 2583 2620
2585 2582 2619
2585 2582 2619
2584 2582 2618
2584 2581 2617
2584 2581 2615
2583 2580 2613
2583 2579 2609
2581 2578 2606
2591 2578 2601
2617 2576 2602
2652 2576 2600
2650 2556 2556
2641 2541 2511
2629 2521 2448
2614 2493 2355
2593 2455 2201
2566 2400 1958
2529 2318 1607
2511 2273 1413
2511 2273 1413
2511 2273 1413
2511 2273 1413
2511 2273 1413
2511 2273 1413
2511 2273 1413
2511 2273 1413
2511 2273 1413
2511 2273 1413
2568 2559 2607
2568 2559 2607
2568 2559 2607
2567 2559 2607
2567 2558 2606
2567 2558 2606
2567 2558 2604
2567 2558 2603
2566 2557 2602
2566 2556 2599
2565 2556 2596
2564 2554 2592
2563 2553 2587
2569 2547 2579
2606 2545 2581
2648 2543 2572
2641 2513 2511
2629 2493 2448
2614 2464 2355
2593 2425 2201
2566 2367 1958
2529 2280 1608
2511 2233 1413
2511 2233 1413
2511 2233 1413
2511 2233 1413
2511 2233 1413
2511 2233 1413
2511 2233 1413
2511 2233 1413
2511 2233 1413
2511 2233 1413
2544 2527 2590
2544 2527 2590
2544 2527 2589
2544 2527 2589
2544 2527 2588
2544 2527 2588
2544 2526 2587
2543 2526 2586
2543 2525 2584
2543 2524 2582
2542 2524 2579
2541 2522 2575
2540 2521 2570
2544 2516 2562
2564 2510 2564
2591 2503 2556
2639 2496 2534
2630 2453 2448
2614 2424 2355
2593 2382 2202
2566 2321 1958
2529 2226 1608
2511 2174 1413
2511 2174 1413
2511 2174 1413
2511 2174 1413
2511 2174 1413
2511 2174 1413
2511 2174 1413
2511 2174 1413
2511 2174 1413
2511 2174 1413
2513 2484 2566
2513 2484 2566
2513 2484 2566
2513 2483 2566
2513 2483 2565
2513 2483 2564
2513 2483 2564
2512 2482 2562
2512 2482 2560
2511 2481 2558
2511 2480 2556
2510 2479 2552
2509 2477 2546
2508 2474 2539
2510 2468 2530
2536 2458 2531
2580 2444 2523
2627 2431 2482
2614 2366 2355
2594 2321 2202
2566 2252 1958
2529 2146 1608
2511 2093 1413
2511 2093 1413
2511 2093 1413
2511 2093 1413
2511 2093 1413
2511 2093 1413
2511 2093 1413
2511 2093 1413
2511 2093 1413
2511 2093 1413
2470 2423 2535
2470 2423 2535
2470 2422 2535
2470 2422 2534
2470 2422 2534
2470 2422 2533
2469 2422 2532
2469 2421 2531
2469 2420 2529
2469 2420 2527
2468 2419 2524
2467 2417 2520
2466 2416 2515
2464 2413 2508
2462 2409 2498
2464 2400 2484
2505 2384 2491
2559 2357 2470
2611 2335 2407
2594 2227 2202
2566 2147 1958
2530 2038 1608
2511 1984 1413
2511 1984 1413
2511 1984 1413
2511 1984 1413
2511 1984 1413
2511 1984 1413
2511 1984 1413
2511 1984 1413
2511 1984 1413
2511 1984 1413
2410 2333 2493
2410 2333 2492
2410 2332 2492
2409 2332 2492
2409 2332 2491
2409 2332 2491
2409 2331 2490
2409 2331 2488
2408 2330 2487
2408 2329 2484
2407 2328 2481
2406 2327 2477
2405 2324 2472
2403 2322 2464
2401 2317 2454
2397 2312 2440
2396 2302 2420
2461 2266 2431
2533 2215 2396
2591 2177 2291
2567 2002 1959
2530 1891 1609
2511 1836 1414
2511 1836 1414
2511 1836 1414
2511 1836 1414
2511 1836 1414
2511 1836 1414
2511 1836 1414
2511 1836 1414
2511 1836 1414
2511 1836 1414
2320 2186 2433
2320 2186 2433
2320 2186 2433
2320 2186 2432
2320 2185 2432
2320 2185 2431
2319 2184 2430
2319 2184 2429
2319 2183 2427
2318 2182 2425
2317 2180 2421
2316 2178 2417
2314 2176 2411
2312 2172 2403
2310 2167 2392
2306 2160 2376
2301 2151 2355
2307 2133 2333
2397 2074 2342
2496 1991 2278
2565 1939 2094
2530 1685 1609
2511 1625 1414
2511 1625 1414
2511 1625 1414
2511 1625 1414
2511 1625 1414
2511 1625 1414
2511 1625 1414
2511 1625 1414
2511 1625 1414
2511 1625 1414
2174 1965 2346
2174 1964 2346
2174 1964 2346
2174 1964 2345
2174 1964 2345
2174 1963 2344
2173 1963 2343
2173 1962 2341
2172 1961 2339
2172 1960 2336
2170 1959 2333
2169 1957 2328
2167 1954 2321
2165 1950 2311
2161 1945 2299
2157 1938 2281
2151 1929 2256
2142 1917 2221
2176 1889 2203
2305 1801 2200
2446 1675 2082
2529 1598 1811
2512 1415 1520
2512 1415 1520
2512 1415 1520
2512 1415 1520
2512 1415 1520
2512 1415 1520
2512 1415 1520
2512 1415 1520
2512 1415 1520
2512 1415 1520
2096 1854 2299
2096 1854 2299
2096 1854 2298
2095 1854 2298
2095 1854 2297
2095 1853 2296
2095 1853 2295
2094 1852 2293
2094 1851 2291
2093 1850 2288
2092 1849 2284
2091 1846 2279
2089 1844 2272
2086 1840 2261
2083 1835 2247
2078 1828 2228
2072 1818 2201
2064 1805 2162
2053 1788 2110
2206 1704 2142
2346 1576 2055
2512 1411 1806
2512 1411 1663
2512 1411 1663
2512 1411 1663
2512 1411 1663
2512 1411 1663
2512 1411 1663
2512 1411 1663
2512 1411 1663
2512 1411 1663
2512 1411 1663
2096 1854 2299
2096 1854 2299
2096 1854 2298
2095 1854 2298
2095 1854 2297
2095 1853 2296
2095 1853 2295
2094 1852 2293
2094 1851 2291
2093 1850 2288
2092 1849 2284
2091 1846 2279
2089 1844 2272
2086 1840 2261
2083 1835 2247
2078 1828 2228
2072 1818 2201
2064 1805 2162
2053 1788 2110
2206 1704 2142
2346 1576 2055
2512 1411 1806
2512 1411 1663
2512 1411 1663
2512 1411 1663
2512 1411 1663
2512 1411 1663
2512 1411 1663
2512 1411 1663
2512 1411 1663
2512 1411 1663
2512 1411 1663
2096 1854 2299
2096 1854 2299
2096 1854 2298
2095 1854 2298
2095 1854 2297
2095 1853 2296
2095 1853 2295
2094 1852 2293
2094 1851 2291
2093 1850 2288
2092 1849 2284
2091 1846 2279
2089 1844 2272
2086 1840 2261
2083 1835 2247
2078 1828 2228
2072 1818 2201
2064 1805 2162
2053 1788 2110
2206 1704 2142
2346 1576 2055
2512 1411 1806
2512 1411 1663
2512 1411 1663
2512 1411 1663
2512 1411 1663
2512 1411 1663
2512 1411 1663
2512 1411 1663
2512 1411 1663
2512 1411 1663
2512 1411 1663
2096 1854 2299
2096 1854 2299
2096 1854 2298
2095 1854 2298
2095 1854 2297
2095 1853 2296
2095 1853 2295
2094 1852 2293
2094 1851 2291
2093 1850 2288
2092 1849 2284
2091 1846 2279
2089 1844 2272
2086 1840 2261
2083 1835 2247
2078 1828 2228
2072 1818 2201
2064 1805 2162
2053 1788 2110
2206 1704 2142
2346 1576 2055
2512 1411 1806
2512 1411 1663
2512 1411 1663
2512 1411 1663
2512 1411 1663
2512 1411 1663
2512 1411 1663
2512 1411 1663
2512 1411 1663
2512 1411 1663
2512 1411 1663
2096 1854 2299
2096 1854 2299
2096 1854 2298
2095 1854 2298
2095 1854 2297
2095 1853 2296
2095 1853 2295
2094 1852 2293
2094 1851 2291
2093 1850 2288
2092 1849 2284
2091 1846 2279
2089 1844 2272
2086 1840 2261
2083 1835 2247
2078 1828 2228
2072 1818 2201
2064 1805 2162
2053 1788 2110
2206 1704 2142
2346 1576 2055
2512 1411 1806
2512 1411 1663
2512 1411 1663
2512 1411 1663
2512 1411 1663
2512 1411 1663
2512 1411 1663
2512 1411 1663
2512 1411 1663
2512 1411 1663
2512 1411 1663
2096 1854 2299
2096 1854 2299
2096 1854 2298
2095 1854 2298
2095 1854 2297
2095 1853 2296
2095 1853 2295
2094 1852 2293
2094 1851 2291
2093 1850 2288
2092 1849 2284
2091 1846 2279
2089 1844 2272
2086 1840 2261
2083 1835 2247
2078 1828 2228
2072 1818 2201
2064 1805 2162
2053 1788 2110
2206 1704 2142
2346 1576 2055
2512 1411 1806
2512 1411 1663
2512 1411 1663
2512 1411 1663
2512 1411 1663
2512 1411 1663
2512 1411 1663
2512 1411 1663
2512 1411 1663
2512 1411 1663
2512 1411 1663
2096 1854 2299
2096 1854 2299
2096 1854 2298
2095 1854 2298
