Gems/AtomLyIntegration/CommonFeatures/Tools/ColorGrading/LUTs/ACEScg_Log2-48nits-AP1_sRGB.3dl
0 256 512 767 1023
0 0 0
0 0 1890
0 0 2759
0 0 3233
0 0 3489
0 1903 0
0 1899 1819
0 1894 2695
0 1891 3169
0 1889 3425
0 2768 0
0 2765 1760
0 2762 2648
0 2759 3120
0 2758 3376
0 3232 0
0 3228 1728
0 3224 2622
0 3222 3092
0 3222 3345
0 3480 0
0 3476 1723
0 3473 2613
0 3471 3078
0 3470 3330
2029 0 0
2205 0 1871
2138 0 2737
2086 0 3210
2054 0 3466
1876 1826 0
1824 1824 1824
1737 1817 2693
1673 1814 3163
1642 1814 3418
1213 2718 0
1086 2716 1767
965 2712 2649
754 2709 3118
676 2709 3372
127 3187 0
298 3184 1737
190 3181 2624
0 3180 3091
232 3178 3343
0 3438 0
0 3435 1732
20 3432 2616
17 3429 3078
0 3429 3328
2999 0 0
3184 0 1868
3198 0 2727
3167 0 3197
3148 0 3451
2985 1732 0
2866 1746 1825
2964 1714 2691
2932 1710 3158
2911 1709 3410
2730 2655 0
2692 2653 1774
2650 2650 2650
2610 2647 3116
2585 2646 3368
2482 3134 0
2439 3131 1745
2389 3129 2626
2344 3128 3089
2313 3125 3340
2325 3389 0
2275 3386 1740
2215 3383 2618
2168 3382 3077
2150 3381 3325
3580 0 0
3667 0 1870
3748 0 2725
3736 0 3191
3717 0 3444
3513 1676 0
3435 1688 1829
3532 1645 2691
3536 1634 3155
3522 1630 3406
3361 2612 0
3317 2612 1782
3232 2616 2651
3284 2602 3115
3268 2601 3365
3185 3095 0
3152 3093 1755
3113 3092 2629
3089 3089 3089
3066 3087 3339
3064 3354 0
3029 3351 1750
2990 3348 2622
2954 3347 3077
2938 3346 3324
3925 0 5
3957 0 1874
4024 0 2727
4035 0 3190
4021 0 3441
3811 1647 0
3763 1657 1834
3801 1624 2693
3851 1589 3155
3841 1585 3405
3672 2590 0
3614 2595 1789
3555 2596 2653
3604 2581 3116
3609 2575 3365
3532 3073 0
3501 3072 1765
3454 3072 2633
3403 3071 3090
3435 3063 3339
3428 3332 0
3397 3330 1761
3362 3327 2627
3338 3326 3079
3324 3324 3324
