Gems/AtomLyIntegration/CommonFeatures/Tools/ColorGrading/LUTs/ACEScg_Log2-48nits-AP1_sRGB.3dl
0 64 128 192 256 320 384 448 512 575 639 703 767 831 895 959 1023
0 0 0
0 0 679
0 0 1158
0 0 1554
0 0 1890
0 0 2163
0 0 2393
0 0 2589
0 0 2759
0 0 2908
0 0 3034
0 0 3140
0 0 3233
0 0 3311
0 0 3379
0 0 3437
0 0 3489
0 689 0
0 677 643
0 660 1137
0 652 1538
0 645 1875
0 640 2150
0 634 2380
0 630 2576
0 624 2747
0 621 2896
0 617 3022
0 611 3129
0 610 3221
0 608 3299
0 604 3367
0 602 3425
0 600 3478
0 1173 0
0 1170 590
0 1160 1108
0 1157 1518
0 1153 1857
0 1150 2132
0 1148 2362
0 1146 2558
0 1142 2729
0 1141 2878
0 1139 3004
0 1138 3111
0 1135 3203
0 1135 3281
0 1135 3349
0 1135 3408
0 1133 3460
0 1570 0
0 1569 526
0 1567 1077
0 1565 1497
0 1563 1838
0 1562 2113
0 1560 2344
0 1558 2541
0 1556 2712
0 1555 2860
0 1554 2987
0 1553 3093
0 1552 3185
0 1550 3263
0 1551 3331
0 1550 3390
0 1550 3442
0 1903 0
0 1904 452
0 1903 1046
0 1901 1475
0 1899 1819
0 1898 2096
0 1897 2327
0 1896 2524
0 1894 2695
0 1893 2844
0 1892 2971
0 1891 3077
0 1891 3169
0 1891 3247
0 1890 3315
0 1890 3373
0 1889 3425
0 2176 0
0 2176 364
0 2175 1015
0 2174 1455
0 2173 1802
0 2172 2080
0 2170 2312
0 2169 2510
0 2168 2681
0 2168 2830
0 2166 2956
0 2166 3062
0 2165 3155
0 2165 3232
0 2164 3300
0 2165 3358
0 2164 3411
0 2404 0
0 2404 261
0 2403 985
0 2403 1436
0 2401 1786
0 2400 2066
0 2399 2299
0 2398 2497
0 2397 2669
0 2396 2818
0 2395 2944
0 2395 3050
0 2394 3142
0 2394 3220
0 2393 3287
0 2394 3346
0 2393 3398
0 2599 0
0 2599 136
0 2598 957
0 2597 1419
0 2596 1773
0 2595 2054
0 2594 2287
0 2593 2486
0 2592 2658
0 2592 2807
0 2591 2933
0 2590 3038
0 2590 3130
0 2590 3208
0 2589 3276
0 2589 3334
0 2588 3386
0 2768 0
0 2767 53
0 2767 930
0 2766 1403
0 2765 1760
0 2764 2043
0 2763 2277
0 2762 2476
0 2762 2648
0 2761 2797
0 2760 2923
0 2759 3028
0 2759 3120
0 2758 3198
0 2758 3265
0 2758 3324
0 2758 3376
0 2915 0
0 2914 0
0 2913 905
0 2912 1390
0 2911 1749
0 2909 2033
0 2908 2268
0 2908 2467
0 2907 2639
0 2906 2788
0 2906 2914
0 2906 3019
0 2906 3111
0 2905 3189
0 2904 3256
0 2904 3314
0 2904 3366
0 3037 0
0 3037 0
0 3037 884
0 3037 1378
0 3035 1740
0 3034 2025
0 3032 2260
0 3032 2460
0 3030 2632
0 3029 2781
0 3029 2907
0 3029 3012
0 3028 3104
0 3028 3181
0 3028 3248
0 3028 3306
0 3028 3358
0 3141 0
0 3141 0
0 3140 869
0 3140 1369
0 3139 1733
0 3138 2019
0 3138 2254
0 3137 2454
0 3137 2626
0 3136 2775
0 3134 2901
0 3134 3006
0 3133 3097
0 3132 3174
0 3132 3241
0 3131 3300
0 3131 3351
0 3232 0
0 3231 0
0 3230 855
0 3229 1363
0 3228 1728
0 3226 2014
0 3226 2250
0 3224 2450
0 3224 2622
0 3223 2770
0 3223 2896
0 3222 3000
0 3222 3092
0 3222 3169
0 3222 3236
0 3223 3294
0 3222 3345
0 3306 0
0 3306 0
0 3306 846
0 3305 1359
0 3305 1725
0 3304 2011
0 3304 2247
0 3303 2446
0 3301 2618
0 3301 2766
0 3299 2892
0 3298 2996
0 3298 3087
0 3297 3164
0 3297 3231
0 3296 3289
0 3296 3341
0 3373 0
0 3372 0
0 3371 839
0 3370 1357
0 3369 1723
0 3368 2009
0 3367 2245
0 3366 2444
0 3365 2616
0 3365 2764
0 3364 2889
0 3364 2993
0 3364 3084
0 3364 3161
0 3364 3227
0 3364 3285
0 3364 3336
0 3429 0
0 3428 0
0 3428 835
0 3427 1356
0 3427 1722
0 3426 2008
0 3425 2243
0 3425 2442
0 3424 2614
0 3423 2762
0 3422 2886
0 3421 2990
0 3421 3081
0 3420 3157
0 3420 3224
0 3419 3281
0 3419 3333
0 3480 0
0 3479 0
0 3479 833
0 3477 1356
0 3476 1723
0 3475 2008
0 3474 2243
0 3474 2442
0 3473 2613
0 3472 2760
0 3471 2884
0 3471 2988
0 3471 3078
0 3470 3155
0 3470 3221
0 3470 3278
0 3470 3330
791 0 0
807 0 665
748 0 1150
684 0 1548
611 0 1885
521 0 2159
438 0 2389
285 0 2585
160 0 2755
113 0 2904
165 0 3030
135 0 3137
138 0 3229
71 0 3307
17 0 3375
0 0 3433
0 0 3486
666 647 0
629 629 629
577 627 1135
496 620 1538
401 615 1875
232 608 2148
218 603 2378
34 597 2574
34 592 2745
66 588 2893
22 585 3020
0 579 3126
0 576 3218
16 572 3296
27 572 3364
17 568 3422
41 564 3475
162 1154 0
152 1150 592
44 1145 1110
0 1141 1520
9 1137 1858
0 1135 2132
0 1133 2362
0 1130 2558
0 1126 2728
0 1126 2877
0 1124 3003
0 1121 3109
0 1120 3202
0 1119 3280
0 1119 3347
0 1118 3406
0 1115 3458
0 1558 0
0 1558 531
0 1556 1080
0 1554 1499
0 1553 1839
0 1551 2114
0 1550 2344
0 1547 2541
0 1546 2711
0 1545 2860
0 1544 2986
0 1542 3092
0 1541 3185
0 1540 3262
0 1541 3330
0 1540 3388
0 1540 3440
0 1895 0
0 1895 458
0 1894 1049
0 1892 1478
0 1891 1821
0 1890 2097
0 1889 2328
0 1887 2525
0 1886 2696
0 1884 2844
0 1884 2970
0 1883 3076
0 1882 3168
0 1882 3246
0 1881 3314
0 1882 3372
0 1880 3424
0 2168 0
0 2168 372
0 2168 1018
0 2167 1458
0 2166 1804
0 2164 2082
0 2163 2313
0 2162 2511
0 2160 2682
0 2160 2830
0 2159 2956
0 2159 3062
0 2158 3154
0 2158 3232
0 2157 3299
0 2157 3358
0 2156 3410
0 2397 0
0 2397 273
0 2397 989
0 2396 1439
0 2394 1789
0 2393 2068
0 2392 2300
0 2391 2498
0 2390 2669
0 2390 2818
0 2388 2944
0 2388 3050
0 2387 3142
0 2388 3219
0 2386 3287
0 2386 3345
0 2386 3397
0 2592 0
0 2592 150
0 2592 961
0 2591 1422
0 2590 1775
0 2589 2056
0 2587 2289
0 2587 2487
0 2586 2658
0 2585 2807
0 2584 2933
0 2584 3038
0 2583 3130
0 2583 3208
0 2582 3275
0 2583 3333
0 2582 3386
0 2761 0
0 2761 55
0 2761 935
0 2760 1407
0 2759 1762
0 2758 2044
0 2757 2278
0 2756 2477
0 2755 2648
0 2755 2797
0 2753 2923
0 2753 3028
0 2752 3120
0 2752 3198
0 2752 3265
0 2752 3323
0 2751 3375
0 2908 0
0 2907 0
0 2906 910
0 2905 1393
0 2904 1752
0 2903 2035
0 2902 2269
0 2902 2468
0 2901 2640
0 2900 2789
0 2901 2914
0 2900 3020
0 2900 3111
0 2899 3189
0 2898 3256
0 2897 3314
0 2898 3366
0 3031 0
0 3031 0
0 3031 889
0 3030 1381
0 3029 1742
0 3027 2027
0 3026 2262
0 3025 2461
0 3024 2633
0 3023 2782
0 3023 2907
0 3023 3012
0 3022 3104
0 3023 3181
0 3022 3248
0 3022 3306
0 3022 3358
0 3135 0
0 3135 0
0 3134 874
0 3133 1373
0 3133 1736
0 3132 2021
0 3132 2256
0 3131 2455
0 3131 2627
0 3130 2776
0 3128 2901
0 3127 3006
0 3127 3097
0 3126 3174
0 3126 3241
0 3125 3299
0 3125 3351
0 3225 0
0 3225 0
0 3223 860
0 3222 1367
0 3221 1731
0 3220 2016
0 3219 2252
0 3219 2451
0 3218 2623
0 3217 2771
0 3217 2896
0 3217 3001
0 3216 3092
0 3216 3169
0 3216 3236
0 3216 3293
0 3216 3345
0 3300 0
0 3300 0
0 3300 851
0 3299 1362
0 3299 1727
0 3298 2013
0 3298 2248
0 3296 2447
0 3295 2619
0 3294 2767
0 3293 2892
0 3292 2997
0 3292 3088
0 3291 3164
0 3291 3231
0 3290 3289
0 3290 3340
0 3366 0
0 3366 0
0 3365 844
0 3364 1360
0 3363 1726
0 3362 2011
0 3361 2246
0 3360 2445
0 3359 2617
0 3359 2765
0 3358 2889
0 3358 2993
0 3358 3084
0 3358 3160
0 3358 3227
0 3358 3285
0 3358 3336
0 3422 0
0 3422 0
0 3422 841
0 3421 1359
0 3420 1725
0 3420 2010
0 3419 2245
0 3418 2444
0 3417 2615
0 3417 2762
0 3416 2887
0 3415 2991
0 3414 3081
0 3414 3157
0 3414 3224
0 3413 3281
0 3413 3333
0 3473 0
0 3473 0
0 3472 839
0 3471 1360
0 3470 1725
0 3469 2010
0 3468 2244
0 3468 2443
0 3467 2614
0 3466 2761
0 3465 2885
0 3465 2988
0 3465 3079
0 3464 3155
0 3464 3221
0 3464 3278
0 3464 3330
1282 0 0
1364 0 653
1359 0 1141
1325 0 1542
1294 0 1879
1260 0 2152
1226 0 2382
1191 0 2578
1160 0 2749
1127 0 2897
1095 0 3024
1071 0 3130
1050 0 3223
1016 0 3301
991 0 3368
976 0 3427
967 0 3479
1295 572 0
1236 578 634
1279 557 1133
1249 548 1536
1211 544 1872
1178 536 2145
1139 531 2374
1106 523 2570
1063 520 2740
1034 512 2889
997 507 3015
957 505 3121
939 498 3214
924 493 3291
865 496 3359
828 493 3417
812 486 3470
1145 1114 0
1136 1114 593
1110 1110 1110
1069 1107 1521
1031 1103 1857
985 1102 2131
942 1099 2360
894 1095 2556
862 1094 2726
795 1092 2875
755 1090 3000
668 1086 3106
561 1086 3199
577 1086 3276
587 1085 3344
618 1083 3402
572 1082 3455
870 1535 0
850 1535 534
822 1534 1083
769 1532 1501
671 1531 1840
575 1529 2114
577 1527 2344
482 1524 2540
306 1524 2710
338 1522 2859
359 1521 2984
268 1520 3090
261 1519 3183
244 1518 3260
225 1518 3328
171 1518 3386
203 1517 3438
417 1877 0
279 1878 463
328 1876 1052
262 1875 1480
91 1874 1822
199 1872 2098
78 1871 2328
55 1870 2525
32 1868 2695
110 1867 2844
63 1866 2969
52 1865 3075
17 1865 3167
0 1865 3245
19 1864 3312
95 1864 3370
72 1863 3422
0 2153 0
56 2154 378
0 2153 1022
0 2152 1460
28 2151 1806
6 2149 2083
0 2148 2314
0 2147 2511
0 2146 2682
0 2145 2830
0 2144 2956
0 2144 3061
0 2143 3153
0 2143 3231
0 2142 3298
0 2141 3356
0 2141 3408
0 2384 0
0 2384 282
0 2383 993
0 2382 1442
0 2381 1790
0 2380 2069
0 2379 2301
0 2378 2499
0 2377 2669
0 2376 2818
0 2375 2944
0 2375 3049
0 2374 3141
0 2374 3218
0 2373 3286
0 2372 3344
0 2373 3396
0 2580 0
0 2580 162
0 2579 965
0 2578 1425
0 2577 1777
0 2576 2057
0 2575 2290
0 2574 2487
0 2573 2659
0 2573 2807
0 2572 2933
0 2572 3038
0 2571 3130
0 2571 3207
0 2570 3274
0 2570 3333
0 2570 3385
0 2750 0
0 2750 61
0 2749 939
0 2748 1409
0 2748 1764
0 2747 2046
0 2745 2279
0 2745 2477
0 2744 2649
0 2743 2797
0 2742 2923
0 2741 3028
0 2741 3120
0 2741 3197
0 2740 3264
0 2740 3322
0 2740 3374
0 2897 0
0 2896 13
0 2895 915
0 2894 1396
0 2893 1754
0 2892 2036
0 2891 2270
0 2891 2469
0 2890 2640
0 2890 2789
0 2890 2914
0 2889 3019
0 2889 3111
0 2887 3188
0 2887 3255
0 2886 3313
0 2886 3365
0 3021 0
0 3021 0
0 3020 893
0 3019 1384
0 3018 1745
0 3016 2029
0 3016 2263
0 3015 2462
0 3014 2633
0 3012 2782
0 3012 2907
0 3012 3012
0 3011 3103
0 3012 3180
0 3011 3247
0 3011 3305
0 3012 3357
0 3124 0
0 3124 0
0 3124 878
0 3123 1376
0 3122 1738
0 3122 2022
0 3121 2257
0 3121 2456
0 3120 2628
0 3119 2776
0 3118 2901
0 3117 3006
0 3116 3097
0 3115 3174
0 3115 3241
0 3115 3299
0 3114 3351
0 3215 0
0 3214 0
0 3213 865
0 3212 1370
0 3211 1733
0 3210 2018
0 3209 2253
0 3208 2452
0 3208 2623
0 3207 2771
0 3207 2896
0 3207 3001
0 3206 3092
0 3206 3168
0 3206 3235
0 3206 3293
0 3205 3345
0 3290 0
0 3290 0
0 3290 855
0 3289 1365
0 3289 1729
0 3288 2015
0 3287 2249
0 3286 2448
0 3285 2620
0 3284 2768
0 3283 2892
0 3282 2997
0 3282 3087
0 3281 3164
0 3281 3231
0 3280 3288
0 3280 3340
0 3356 0
0 3355 0
0 3355 850
0 3354 1364
0 3353 1728
0 3351 2013
0 3351 2248
0 3350 2446
0 3349 2617
0 3349 2765
0 3348 2889
0 3348 2993
0 3348 3084
0 3348 3160
0 3348 3227
0 3348 3284
0 3348 3336
0 3412 0
0 3412 0
0 3412 846
0 3411 1362
0 3410 1727
0 3410 2012
0 3410 2246
0 3408 2445
0 3407 2615
0 3407 2763
0 3406 2887
0 3405 2991
0 3404 3081
0 3404 3157
0 3404 3223
0 3403 3281
0 3403 3332
0 3463 0
0 3463 0
0 3462 845
0 3461 1363
0 3460 1727
0 3459 2012
0 3458 2246
0 3458 2444
0 3457 2615
0 3456 2761
0 3455 2885
0 3455 2988
0 3455 3079
0 3455 3155
0 3454 3221
0 3454 3278
0 3454 3329
1680 0 0
1751 0 645
1831 0 1136
1820 0 1539
1798 0 1874
1775 0 2147
1754 0 2376
1731 0 2572
1712 0 2742
1692 0 2891
1677 0 3017
1655 0 3123
1643 0 3216
1636 0 3294
1616 0 3362
1604 0 3420
1597 0 3472
1715 489 0
1671 500 631
1757 458 1130
1768 440 1535
1744 431 1869
1723 425 2142
1700 418 2370
1678 412 2566
1658 408 2736
1637 398 2884
1617 390 3010
1602 387 3116
1584 376 3208
1571 367 3286
1563 362 3354
1546 366 3412
