Gems/AtomLyIntegration/CommonFeatures/Tools/ColorGrading/LUTs/ACEScg_Log2-48nits-AP1_sRGB.3dl
0 128 256 384 512 639 767 895 1023
0 0 0
0 0 1158
0 0 1890
0 0 2393
0 0 2759
0 0 3034
0 0 3233
0 0 3379
0 0 3489
0 1173 0
0 1160 1108
0 1153 1857
0 1148 2362
0 1142 2729
0 1139 3004
0 1135 3203
0 1135 3349
0 1133 3460
0 1903 0
0 1903 1046
0 1899 1819
0 1897 2327
0 1894 2695
0 1892 2971
0 1891 3169
0 1890 3315
0 1889 3425
0 2404 0
0 2403 985
0 2401 1786
0 2399 2299
0 2397 2669
0 2395 2944
0 2394 3142
0 2393 3287
0 2393 3398
0 2768 0
0 2767 930
0 2765 1760
0 2763 2277
0 2762 2648
0 2760 2923
0 2759 3120
0 2758 3265
0 2758 3376
0 3037 0
0 3037 884
0 3035 1740
0 3032 2260
0 3030 2632
0 3029 2907
0 3028 3104
0 3028 3248
0 3028 3358
0 3232 0
0 3230 855
0 3228 1728
0 3226 2250
0 3224 2622
0 3223 2896
0 3222 3092
0 3222 3236
0 3222 3345
0 3373 0
0 3371 839
0 3369 1723
0 3367 2245
0 3365 2616
0 3364 2889
0 3364 3084
0 3364 3227
0 3364 3336
0 3480 0
0 3479 833
0 3476 1723
0 3474 2243
0 3473 2613
0 3471 2884
0 3471 3078
0 3470 3221
0 3470 3330
1282 0 0
1359 0 1141
1294 0 1879
1226 0 2382
1160 0 2749
1095 0 3024
1050 0 3223
991 0 3368
967 0 3479
1145 1114 0
1110 1110 1110
1031 1103 1857
942 1099 2360
862 1094 2726
755 1090 3000
561 1086 3199
587 1085 3344
572 1082 3455
417 1877 0
328 1876 1052
91 1874 1822
78 1871 2328
32 1868 2695
63 1866 2969
17 1865 3167
19 1864 3312
72 1863 3422
0 2384 0
0 2383 993
0 2381 1790
0 2379 2301
0 2377 2669
0 2375 2944
0 2374 3141
0 2373 3286
0 2373 3396
0 2750 0
0 2749 939
0 2748 1764
0 2745 2279
0 2744 2649
0 2742 2923
0 2741 3120
0 2740 3264
0 2740 3374
0 3021 0
0 3020 893
0 3018 1745
0 3016 2263
0 3014 2633
0 3012 2907
0 3011 3103
0 3011 3247
0 3012 3357
0 3215 0
0 3213 865
0 3211 1733
0 3209 2253
0 3208 2623
0 3207 2896
0 3206 3092
0 3206 3235
0 3205 3345
0 3356 0
0 3355 850
0 3353 1728
0 3351 2248
0 3349 2617
0 3348 2889
0 3348 3084
0 3348 3227
0 3348 3336
0 3463 0
0 3462 845
0 3460 1727
0 3458 2246
0 3457 2615
0 3455 2885
0 3455 3079
0 3454 3221
0 3454 3329
2029 0 0
2191 0 1135
2205 0 1871
2170 0 2372
2138 0 2737
2109 0 3012
2086 0 3210
2068 0 3356
2054 0 3466
2082 1018 0
1992 1033 1111
2077 1003 1856
2042 996 2356
2006 992 2721
1977 987 2994
1952 985 3192
1934 980 3336
1913 982 3447
1876 1826 0
1858 1825 1056
1824 1824 1824
1777 1820 2328
1737 1817 2693
1703 1815 2966
1673 1814 3163
1648 1813 3308
1642 1814 3418
1575 2346 0
1546 2345 998
1504 2343 1793
1448 2341 2302
1379 2339 2669
1332 2337 2942
1305 2337 3139
1283 2336 3283
1220 2336 3393
1213 2718 0
1183 2717 945
1086 2716 1767
989 2714 2280
965 2712 2649
812 2710 2922
754 2709 3118
793 2709 3262
676 2709 3372
766 2992 0
689 2991 901
530 2989 1748
579 2987 2265
306 2985 2634
334 2983 2906
406 2983 3102
356 2983 3246
96 2983 3355
127 3187 0
302 3186 874
298 3184 1737
92 3182 2255
190 3181 2624
271 3180 2896
0 3180 3091
30 3180 3234
232 3178 3343
229 3330 0
22 3328 859
0 3327 1732
100 3325 2250
0 3323 2618
0 3323 2889
12 3322 3083
74 3322 3225
0 3321 3334
0 3438 0
86 3437 854
0 3435 1732
0 3433 2248
20 3432 2616
0 3430 2885
17 3429 3078
0 3429 3219
0 3429 3328
2584 0 0
2687 0 1134
2792 0 1868
2780 0 2366
2756 0 2731
2736 0 3004
2719 0 3202
2706 0 3347
2697 0 3457
2620 935 0
2557 948 1112
2671 899 1855
2684 879 2354
2660 873 2717
2639 869 2989
2622 867 3186
2611 864 3331
2600 866 3440
2551 1774 0
2518 1778 1060
2438 1783 1824
2502 1767 2327
2478 1764 2692
2453 1762 2964
2435 1760 3160
2422 1759 3304
2405 1760 3414
2370 2306 0
2356 2306 1004
2328 2304 1796
2303 2303 2303
2271 2300 2669
2246 2298 2940
2225 2297 3137
2205 2297 3280
2192 2297 3390
2178 2685 0
2161 2685 952
2126 2683 1771
2090 2681 2282
2058 2679 2649
2036 2678 2921
2016 2677 3117
1993 2676 3260
1983 2676 3369
1989 2963 0
1977 2962 909
1937 2959 1752
1895 2957 2266
1862 2955 2634
1826 2955 2906
1814 2954 3101
1790 2954 3244
1760 2953 3353
1837 3160 0
1818 3158 882
1769 3156 1741
1726 3155 2257
1683 3154 2625
1653 3153 2896
1633 3153 3090
1593 3152 3232
1546 3151 3341
1711 3304 0
1673 3302 868
1626 3300 1736
1579 3299 2252
1553 3298 2619
1501 3297 2889
1444 3297 3082
1382 3296 3224
1345 3295 3333
1583 3413 0
1561 3411 864
1523 3410 1736
1459 3408 2250
1408 3406 2617
1320 3405 2885
1226 3404 3077
1310 3404 3218
1287 3404 3326
2999 0 0
3059 0 1135
3184 0 1868
3212 0 2364
3198 0 2727
3180 0 2999
3167 0 3197
3158 0 3341
3148 0 3451
3008 852 0
2970 867 1113
3043 819 1855
3127 758 2353
3116 744 2715
3100 734 2986
3086 727 3182
3075 737 3326
3065 734 3435
2985 1732 0
2928 1742 1063
2866 1746 1825
2953 1722 2328
2964 1714 2691
2946 1711 2962
2932 1710 3158
2920 1709 3301
2911 1709 3410
2875 2271 0
2857 2272 1009
2816 2272 1798
2754 2275 2303
2802 2264 2669
2781 2263 2940
2767 2261 3135
2755 2261 3278
2749 2260 3387
2730 2655 0
2716 2655 959
2692 2653 1774
2670 2651 2284
2650 2650 2650
2627 2648 2921
2610 2647 3116
2597 2646 3259
2585 2646 3368
2593 2936 0
2579 2934 918
2554 2932 1756
2529 2930 2268
2505 2929 2635
2488 2928 2906
2469 2928 3100
2452 2927 3243
2435 2927 3352
2482 3134 0
2467 3133 892
2439 3131 1745
2411 3130 2259
2389 3129 2626
2368 3129 2896
2344 3128 3089
2326 3126 3231
2313 3125 3340
2394 3279 0
2376 3278 878
2349 3276 1740
2324 3275 2254
2296 3274 2620
2262 3274 2889
2239 3273 3082
2225 3272 3223
2220 3271 3331
2325 3389 0
2309 3388 873
2275 3386 1740
2245 3385 2253
2215 3383 2618
2183 3382 2885
2168 3382 3077
2164 3381 3218
2150 3381 3325
3325 0 0
3361 0 1137
3461 0 1868
3521 0 2364
3521 0 2726
3510 0 2997
3499 0 3193
3488 0 3337
3478 0 3447
3314 771 0
3292 779 1115
3330 744 1856
3424 657 2353
3445 620 2714
3436 587 2984
3422 597 3180
3412 602 3323
3404 604 3432
3291 1699 0
3234 1712 1066
3191 1714 1827
3244 1695 2328
3307 1672 2691
3298 1668 2961
3285 1667 3156
3275 1667 3299
3270 1664 3408
3217 2243 0
3190 2246 1015
3135 2250 1801
3087 2252 2304
3148 2237 2669
3155 2232 2939
3142 2231 3134
3134 2230 3277
3128 2229 3385
3105 2630 0
3093 2630 966
3070 2629 1778
3039 2628 2285
2987 2630 2650
3022 2622 2921
3009 2621 3115
3000 2621 3258
2988 2621 3366
2992 2912 0
2982 2911 927
2961 2909 1761
2939 2907 2271
2919 2906 2637
2906 2906 2906
2891 2906 3100
2877 2904 3242
2864 2903 3351
2900 3112 0
2888 3111 901
2865 3110 1750
2842 3109 2262
2823 3108 2627
2807 3108 2896
2789 3106 3089
2775 3105 3231
2764 3104 3339
2828 3258 0
2812 3258 887
2790 3256 1745
2768 3255 2257
2748 3254 2622
2722 3254 2890
2705 3253 3082
2693 3252 3223
2686 3250 3331
2769 3370 0
2753 3368 884
2728 3367 1745
2707 3365 2256
2682 3364 2620
2657 3363 2886
2643 3362 3077
2634 3362 3217
2633 3361 3325
3580 0 0
3602 0 1140
3667 0 1870
3731 0 2365
3748 0 2725
3745 0 2995
3736 0 3191
3725 0 3335
3717 0 3444
3552 695 0
3540 699 1118
3556 674 1857
3628 577 2353
3671 499 2714
3674 466 2983
3663 485 3178
3653 461 3321
3646 461 3430
3513 1676 0
3465 1688 1069
3435 1688 1829
3461 1674 2328
3532 1645 2691
3545 1636 2961
3536 1634 3155
3527 1632 3298
3522 1630 3406
3451 2223 0
3419 2229 1020
3363 2234 1803
3331 2234 2305
3365 2222 2669
3409 2210 2940
3405 2207 3134
3397 2206 3276
3392 2205 3384
3361 2612 0
3345 2613 973
3317 2612 1782
3271 2614 2287
3232 2616 2651
3271 2607 2921
3284 2602 3115
3277 2602 3257
3268 2601 3365
3265 2894 0
3255 2893 936
3235 2892 1765
3210 2891 2274
3179 2891 2638
3148 2893 2906
3177 2888 3100
3167 2887 3242
3157 2885 3350
3185 3095 0
3173 3095 911
3152 3093 1755
3130 3092 2265
3113 3092 2629
3101 3091 2897
3089 3089 3089
3077 3088 3231
3066 3087 3339
3118 3242 0
3104 3242 898
3083 3240 1750
3064 3239 2260
3048 3238 2624
3029 3238 2891
3014 3237 3082
3002 3235 3223
2993 3234 3330
3064 3354 0
3051 3353 895
3029 3351 1750
3010 3350 2259
2990 3348 2622
2969 3348 2887
2954 3347 3077
2944 3347 3217
2938 3346 3324
3775 0 0
3789 0 1144
3828 0 1872
3881 0 2366
3908 0 2726
3914 0 2995
3908 0 3190
3901 0 3333
3892 0 3442
3736 626 0
3728 644 1122
3733 599 1859
3780 527 2354
3827 425 2715
3844 393 2983
3839 287 3178
3830 354 3320
3822 343 3428
3680 1659 0
3643 1670 1073
3620 1669 1831
3631 1657 2329
3685 1631 2692
3718 1614 2961
3718 1609 3155
3710 1608 3297
3703 1606 3405
3619 2211 0
3585 2217 1025
3537 2222 1806
3514 2221 2307
3531 2212 2670
3580 2196 2940
3591 2190 3134
3586 2188 3276
3580 2187 3384
3540 2599 0
3521 2601 980
3487 2602 1785
3443 2604 2289
3415 2604 2652
3438 2597 2921
3470 2589 3115
3470 2587 3257
3465 2586 3365
3457 2881 0
3445 2881 945
3424 2879 1770
3394 2880 2276
3357 2882 2639
3329 2883 2907
3358 2877 3100
3369 2872 3242
3363 2871 3350
3384 3083 0
3375 3082 921
3354 3081 1760
3332 3080 2268
3310 3080 2631
3286 3080 2898
3267 3079 3090
3288 3075 3231
3280 3074 3338
3324 3230 0
3311 3229 909
3291 3228 1756
3271 3227 2263
3254 3226 2626
3242 3225 2892
3232 3224 3083
3223 3223 3223
3213 3222 3330
3273 3342 0
3260 3341 906
3240 3339 1756
3222 3338 2262
3205 3337 2624
3191 3336 2888
3177 3335 3078
3165 3335 3217
3156 3334 3324
3925 0 5
3934 0 1148
3957 0 1874
3995 0 2367
4024 0 2727
4036 0 2995
4035 0 3190
4030 0 3333
4021 0 3441
3878 586 0
3873 573 1126
3873 528 1861
3900 485 2355
3940 380 2715
3964 261 2984
3967 335 3178
3964 327 3319
3957 214 3427
3811 1647 0
3782 1658 1077
3763 1657 1834
3766 1647 2331
3801 1624 2693
3839 1601 2961
3851 1589 3155
3848 1585 3297
3841 1585 3405
3745 2203 0
3713 2210 1030
3672 2214 1809
3653 2212 2308
3661 2205 2671
3702 2189 2940
3727 2178 3134
3728 2175 3276
3722 2174 3383
3672 2590 0
3650 2593 987
3614 2595 1789
3574 2597 2291
3555 2596 2653
3564 2591 2922
3604 2581 3116
3614 2576 3257
3609 2575 3365
3599 2872 0
3584 2872 954
3559 2872 1774
3529 2872 2278
3492 2875 2641
3468 2876 2908
3488 2869 3101
3512 2863 3242
3513 2860 3350
3532 3073 0
3520 3073 931
3501 3072 1765
3479 3072 2271
3454 3072 2633
3425 3072 2899
3403 3071 3090
3426 3066 3231
3435 3063 3339
3475 3220 0
3464 3220 920
3446 3218 1761
3426 3218 2267
3407 3217 2629
3390 3216 2893
3372 3216 3084
3357 3215 3223
3374 3211 3330
3428 3332 0
3416 3331 918
3397 3330 1761
3379 3328 2266
3362 3327 2627
3348 3327 2890
3338 3326 3079
3331 3325 3218
3324 3324 3324
