Gems/AtomLyIntegration/CommonFeatures/Tools/ColorGrading/LUTs/from_sRGB_to_ACEScg.3dl
3DMESH
Mesh 5 12
0 32 64 96 128 160 192 224 256 288 320 352 384 416 448 480 512 543 575 607 639 671 703 735 767 799 831 863 895 927 959 991 1023
8 8 8
14 10 63
18 12 100
24 13 142
31 15 188
39 17 239
48 19 299
57 22 364
67 25 435
78 29 510
89 33 589
101 37 672
113 42 757
125 46 847
138 50 945
151 55 1052
164 59 1168
178 64 1296
192 69 1435
206 74 1588
221 79 1757
236 85 1943
252 90 2149
268 95 2382
284 101 2657
301 106 2990
318 111 3408
335 117 3960
352 122 4095
369 126 4095
385 129 4095
400 130 4095
409 126 4095
33 63 15
37 66 68
39 65 104
43 65 145
48 66 191
54 67 242
61 69 301
70 71 366
79 73 437
89 75 511
99 78 590
110 81 673
121 83 758
133 86 848
145 89 946
158 92 1053
171 96 1170
184 99 1297
198 103 1437
212 107 1590
227 111 1759
242 116 1945
257 120 2151
273 124 2384
289 129 2660
306 134 2994
323 138 3413
340 143 3967
357 147 4095
374 150 4095
390 153 4095
404 153 4095
413 149 4095
51 100 19
55 104 70
57 104 108
59 103 148
63 103 194
68 104 245
75 106 304
83 108 369
91 110 439
100 112 513
110 114 592
120 116 675
131 118 760
142 121 850
154 123 948
166 126 1055
179 129 1172
192 132 1299
205 135 1439
219 138 1592
233 142 1761
248 145 1947
263 149 2153
279 153 2387
295 157 2664
312 161 2998
328 165 3418
345 169 3974
362 173 4095
379 176 4095
395 178 4095
409 178 4095
418 172 4095
71 142 26
74 145 73
77 147 110
80 147 153
83 146 197
87 146 248
93 148 307
100 150 371
107 152 441
116 154 516
125 156 594
134 158 677
144 160 762
155 162 852
166 164 950
178 166 1057
190 168 1174
202 171 1302
215 173 1441
229 176 1595
243 179 1764
257 182 1951
272 186 2157
288 189 2391
304 192 2668
320 196 3004
336 199 3426
353 203 3984
370 206 4095
386 209 4095
402 210 4095
416 210 4095
425 204 4095
94 188 33
96 190 76
100 194 113
103 195 155
106 195 202
109 195 253
114 196 310
120 197 374
127 199 444
135 201 518
143 203 597
152 205 679
161 206 764
171 208 854
181 210 953
192 212 1060
204 214 1177
216 216 1305
228 218 1445
242 221 1599
255 223 1768
269 226 1955
284 229 2161
299 232 2397
315 235 2675
331 238 3012
347 241 3435
363 244 3996
380 247 4095
396 249 4095
411 250 4095
425 249 4095
433 243 4095
119 239 42
121 240 81
124 243 116
127 247 158
131 248 205
134 249 258
138 249 315
144 250 378
150 252 447
157 253 521
164 255 599
173 257 682
181 258 767
190 260 857
200 261 956
210 263 1063
221 265 1180
233 267 1308
245 269 1449
258 271 1603
271 274 1773
285 276 1960
299 279 2167
314 281 2403
329 284 2682
344 287 3021
360 290 3447
376 292 4012
393 295 4095
408 297 4095
424 298 4095
437 296 4095
445 289 4095
148 299 51
149 299 88
151 301 121
155 304 162
158 306 209
161 307 262
165 308 320
170 309 382
175 310 451
181 311 524
188 313 603
196 315 685
204 316 769
212 318 860
222 319 959
231 321 1066
242 322 1184
253 324 1312
265 326 1453
277 328 1608
290 330 1778
303 332 1965
317 335 2173
331 337 2410
346 340 2691
361 342 3032
377 345 3461
392 347 4031
408 349 4095
424 351 4095
438 351 4095
451 350 4095
458 342 4095
179 364 62
180 365 96
181 365 128
184 367 167
187 370 214
190 371 266
194 372 324
198 373 387
203 374 455
208 375 528
215 377 606
222 379 688
229 380 772
237 381 863
246 382 962
255 384 1070
265 385 1188
276 387 1317
287 389 1458
299 390 1613
311 392 1783
324 394 1972
337 397 2180
351 399 2418
366 401 2701
381 403 3044
396 406 3477
411 408 4051
426 410 4095
441 411 4095
456 411 4095
468 409 4095
475 401 4095
211 435 72
212 435 105
213 436 135
215 437 174
218 438 219
221 440 271
225 441 328
229 442 392
233 443 460
238 444 532
244 446 610
251 447 691
258 448 776
265 449 867
274 450 966
283 452 1074
292 453 1192
302 454 1321
313 456 1463
324 458 1619
336 460 1790
348 461 1979
361 463 2188
375 465 2427
389 468 2711
403 470 3057
418 472 3494
432 474 4075
447 475 4095
462 476 4095
476 476 4095
487 473 4095
493 465 4095
246 510 84
247 510 114
248 510 144
249 511 181
251 512 225
254 513 276
258 515 333
261 515 396
266 517 464
271 518 537
276 519 614
282 520 695
289 521 779
296 522 870
304 523 970
312 524 1078
321 525 1197
331 527 1326
341 528 1469
352 530 1625
363 531 1796
375 533 1986
388 535 2196
401 537 2437
414 539 2723
428 540 3072
442 542 3513
456 544 4095
471 545 4095
485 546 4095
498 546 4095
509 543 4095
515 534 4095
283 589 96
283 589 124
284 589 153
286 590 189
288 590 232
290 591 282
293 592 339
297 593 402
301 594 469
305 595 541
311 596 618
316 597 698
322 597 783
329 598 874
337 599 974
345 600 1083
353 602 1202
363 603 1332
372 604 1474
383 606 1631
394 607 1803
405 609 1994
417 610 2204
430 612 2447
442 614 2735
456 616 3087
469 617 3533
483 619 4095
497 620 4095
511 620 4095
524 620 4095
534 616 4095
539 607 4095
322 672 108
322 672 135
323 672 162
324 673 197
326 673 240
328 673 289
331 674 345
334 675 408
338 675 475
342 676 547
347 677 623
353 677 703
358 678 787
365 679 879
372 680 979
380 681 1088
388 682 1207
397 683 1338
406 684 1481
416 686 1638
426 687 1811
437 689 2002
449 690 2214
461 692 2458
473 693 2749
486 695 3104
499 696 3555
513 698 4095
526 699 4095
539 699 4095
551 698 4095
561 694 4095
565 684 4095
363 759 121
363 759 147
364 759 172
365 759 206
367 759 248
369 759 297
371 760 352
374 760 414
378 760 480
382 761 552
386 761 627
391 762 707
397 763 792
403 764 884
410 764 984
417 765 1093
425 766 1213
433 768 1344
442 769 1487
451 770 1645
461 771 1819
472 773 2011
483 774 2223
494 776 2470
506 777 2763
519 779 3122
531 780 3578
544 781 4095
557 782 4095
570 782 4095
581 781 4095
591 777 4095
594 767 4095
405 850 134
405 850 158
406 850 183
407 850 216
409 850 257
410 851 305
413 851 360
416 851 420
419 852 486
423 852 557
427 853 633
432 853 712
437 854 797
443 855 889
449 856 989
456 857 1099
463 858 1219
471 859 1350
480 860 1494
489 861 1653
499 862 1827
509 864 2020
519 865 2234
530 867 2482
542 868 2778
554 870 3140
566 871 3603
578 872 4095
591 873 4095
603 873 4095
614 872 4095
623 868 4095
624 857 4095
448 950 147
449 950 170
450 950 194
451 950 226
452 950 266
454 950 313
456 951 367
459 951 427
462 951 493
465 952 563
469 952 638
474 953 718
479 954 802
484 954 894
490 955 995
497 956 1105
504 957 1225
512 958 1357
520 959 1502
529 961 1661
538 962 1836
547 963 2029
558 965 2244
568 966 2495
579 968 2793
591 969 3160
602 971 3629
614 972 4095
626 973 4095
638 973 4095
648 972 4095
657 967 4095
657 955 4095
493 1058 161
494 1058 182
495 1058 205
495 1059 236
497 1059 275
499 1059 322
501 1059 375
503 1060 435
506 1060 500
509 1060 570
513 1061 644
518 1062 723
522 1062 808
528 1063 900
533 1064 1001
540 1065 1111
547 1066 1232
554 1067 1364
562 1068 1509
570 1070 1669
579 1071 1845
588 1072 2039
598 1074 2256
608 1075 2508
619 1077 2810
630 1078 3181
641 1080 3657
652 1081 4095
664 1082 4095
675 1082 4095
685 1080 4095
692 1076 4095
692 1063 4095
540 1177 174
540 1177 195
541 1177 217
542 1178 247
543 1178 286
545 1178 331
547 1178 384
549 1179 443
552 1179 507
555 1179 577
559 1180 651
563 1181 729
567 1181 814
573 1182 906
578 1183 1007
584 1184 1118
591 1185 1239
598 1186 1371
605 1187 1517
613 1189 1677
621 1190 1854
630 1192 2049
640 1193 2267
650 1195 2522
660 1196 2827
670 1198 3202
681 1199 3686
692 1200 4095
703 1201 4095
714 1201 4095
724 1200 4095
730 1195 4095
729 1182 4095
588 1308 188
588 1308 208
589 1308 230
590 1308 259
591 1308 296
592 1308 341
594 1309 393
596 1309 451
599 1309 515
602 1310 584
606 1310 657
610 1311 735
614 1312 820
619 1313 912
624 1314 1014
630 1315 1125
636 1316 1246
643 1317 1379
650 1318 1525
658 1319 1686
666 1321 1864
674 1322 2060
683 1324 2280
693 1325 2537
703 1327 2845
713 1329 3225
723 1330 3717
734 1331 4095
745 1332 4095
755 1332 4095
765 1331 4095
771 1326 4095
769 1312 4095
637 1451 202
637 1451 221
638 1451 242
639 1451 271
640 1451 308
641 1452 352
643 1452 403
645 1452 460
648 1453 523
651 1453 591
654 1454 664
658 1454 742
662 1455 826
667 1456 919
672 1457 1021
677 1458 1132
683 1459 1253
690 1460 1387
697 1462 1534
704 1463 1696
712 1464 1874
720 1466 2071
729 1468 2292
738 1469 2552
748 1471 2863
758 1472 3249
768 1474 3749
779 1475 4095
789 1476 4095
800 1476 4095
809 1475 4095
815 1470 4095
812 1455 4095
687 1609 217
687 1609 235
688 1609 255
689 1609 283
690 1609 319
691 1609 362
693 1610 413
695 1610 469
697 1610 531
700 1611 599
703 1612 671
707 1612 749
711 1613 833
716 1614 926
721 1615 1028
726 1616 1139
732 1617 1261
738 1618 1395
745 1620 1543
752 1621 1705
760 1623 1884
768 1624 2082
777 1626 2305
786 1628 2568
795 1629 2883
805 1631 3274
815 1633 3783
826 1634 4095
837 1635 4095
847 1635 4095
856 1633 4095
861 1628 4095
857 1612 4095
738 1783 231
739 1783 249
739 1783 269
740 1783 296
741 1783 331
743 1783 373
744 1784 423
746 1784 478
749 1785 540
751 1785 607
755 1786 678
758 1787 756
762 1787 840
767 1788 933
772 1789 1035
777 1790 1147
783 1792 1269
789 1793 1404
795 1794 1552
803 1796 1715
810 1797 1895
818 1799 2094
827 1801 2319
836 1803 2584
846 1804 2903
856 1806 3300
866 1808 3819
876 1809 4095
887 1810 4095
897 1810 4095
905 1809 4095
911 1803 4095
906 1787 4095
792 1975 246
793 1975 263
793 1975 282
794 1975 309
795 1976 343
797 1976 385
798 1976 433
800 1977 488
803 1977 548
805 1978 615
809 1979 686
812 1979 763
816 1980 847
820 1981 940
825 1982 1042
831 1983 1154
836 1985 1277
842 1986 1413
849 1988 1561
856 1989 1725
864 1991 1906
872 1993 2106
880 1994 2333
890 1996 2601
899 1998 2924
909 2000 3328
919 2002 3856
929 2003 4095
940 2004 4095
950 2005 4095
958 2003 4095
963 1997 4095
957 1979 4095
849 2190 260
849 2190 277
850 2190 296
851 2190 322
852 2190 355
853 2190 396
855 2191 443
857 2191 497
859 2192 557
862 2193 623
865 2193 693
869 2194 770
873 2195 855
877 2196 948
882 2197 1050
887 2199 1162
893 2200 1286
899 2201 1421
906 2203 1571
913 2205 1735
920 2207 1917
928 2208 2118
937 2210 2347
946 2212 2618
955 2215 2946
965 2217 3356
975 2219 3895
986 2220 4095
996 2222 4095
1006 2222 4095
1015 2220 4095
1019 2215 4095
1011 2196 4095
908 2439 274
909 2439 291
909 2439 309
910 2439 334
911 2440 367
913 2440 407
914 2440 453
916 2441 507
919 2442 566
921 2442 630
925 2443 700
928 2444 777
932 2445 862
936 2446 955
941 2448 1057
946 2449 1170
952 2451 1294
958 2453 1430
965 2454 1580
972 2456 1745
980 2458 1928
988 2461 2130
996 2463 2362
1005 2465 2636
1015 2468 2969
1025 2470 3386
1035 2472 3936
1045 2475 4095
1056 2476 4095
1065 2477 4095
1074 2476 4095
1078 2470 4095
1068 2450 4095
970 2738 288
971 2738 304
971 2738 321
972 2738 346
973 2739 378
974 2739 417
976 2739 463
978 2740 515
981 2741 573
983 2742 637
986 2743 707
990 2744 783
994 2745 868
998 2747 961
1003 2748 1064
1008 2750 1177
1014 2752 1301
1020 2754 1438
1027 2756 1589
1034 2758 1755
1042 2761 1938
1050 2763 2142
1058 2766 2376
1067 2769 2654
1077 2772 2991
1087 2775 3416
1097 2778 3978
1107 2780 4095
1118 2783 4095
1127 2784 4095
1136 2783 4095
1139 2777 4095
1128 2756 4095
1034 3107 300
1035 3107 315
1035 3107 332
1036 3107 356
1037 3108 388
1038 3108 426
1040 3109 471
1042 3110 522
1045 3111 580
1047 3112 643
1050 3113 712
1054 3114 788
1058 3116 873
1062 3118 967
1067 3120 1070
1072 3122 1183
1078 3124 1308
1084 3127 1445
1091 3129 1596
1098 3132 1763
1106 3135 1948
1114 3138 2153
1123 3142 2390
1132 3145 2671
1141 3149 3014
1151 3153 3447
1161 3156 4020
1172 3160 4095
1182 3163 4095
1192 3165 4095
1200 3165 4095
1203 3160 4095
1189 3137 4095
1100 3583 309
1100 3583 324
1101 3584 341
1101 3584 364
1103 3585 395
1104 3585 432
1106 3586 476
1108 3587 527
1110 3588 584
1113 3590 646
1116 3591 715
1119 3593 791
1123 3595 876
1128 3598 970
1133 3600 1073
1138 3603 1187
1144 3606 1312
1150 3609 1449
1157 3613 1601
1164 3616 1769
1171 3620 1955
1180 3624 2161
1188 3629 2401
1198 3634 2687
1207 3638 3035
1217 3643 3476
1227 3648 4063
1238 3653 4095
1248 3658 4095
1258 3662 4095
1266 3663 4095
1269 3659 4095
1252 3636 4095
1165 4095 315
1166 4095 329
1166 4095 345
1167 4095 368
1168 4095 398
1169 4095 435
1171 4095 478
1173 4095 528
1176 4095 584
