Gems/AtomLyIntegration/CommonFeatures/Tools/ColorGrading/LUTs/from_Log2-48nits_AP1_to_ACEScg.3dl
3DMESH
Mesh 5 12
0 32 64 96 128 160 192 224 256 288 320 352 384 416 448 480 512 543 575 607 639 671 703 735 767 799 831 863 895 927 959 991 1023
8 8 8
8 8 11
8 8 14
8 8 19
8 8 25
8 8 33
8 8 44
8 8 58
8 8 77
8 8 103
8 8 136
8 8 180
8 8 239
8 8 317
8 8 420
8 8 556
8 8 737
8 8 977
8 8 1295
8 8 1716
8 8 2274
8 8 3013
8 8 3993
8 8 4095
8 8 4095
8 8 4095
8 8 4095
8 8 4095
8 8 4095
8 8 4095
8 8 4095
8 8 4095
8 8 4095
8 11 8
8 11 11
8 11 14
8 11 19
8 11 25
8 11 33
8 11 44
8 11 58
8 11 77
8 11 103
8 11 136
8 11 180
8 11 239
8 11 317
8 11 420
8 11 556
8 11 737
8 11 977
8 11 1295
8 11 1716
8 11 2274
8 11 3013
8 11 3993
8 11 4095
8 11 4095
8 11 4095
8 11 4095
8 11 4095
8 11 4095
8 11 4095
8 11 4095
8 11 4095
8 11 4095
8 14 8
8 14 11
8 14 14
8 14 19
8 14 25
8 14 33
8 14 44
8 14 58
8 14 77
8 14 103
8 14 136
8 14 180
8 14 239
8 14 317
8 14 420
8 14 556
8 14 737
8 14 977
8 14 1295
8 14 1716
8 14 2274
8 14 3013
8 14 3993
8 14 4095
8 14 4095
8 14 4095
8 14 4095
8 14 4095
8 14 4095
8 14 4095
8 14 4095
8 14 4095
8 14 4095
8 19 8
8 19 11
8 19 14
8 19 19
8 19 25
8 19 33
8 19 44
8 19 58
8 19 77
8 19 103
8 19 136
8 19 180
8 19 239
8 19 317
8 19 420
8 19 556
8 19 737
8 19 977
8 19 1295
8 19 1716
8 19 2274
8 19 3013
8 19 3993
8 19 4095
8 19 4095
8 19 4095
8 19 4095
8 19 4095
8 19 4095
8 19 4095
8 19 4095
8 19 4095
8 19 4095
8 25 8
8 25 11
8 25 14
8 25 19
8 25 25
8 25 33
8 25 44
8 25 58
8 25 77
8 25 103
8 25 136
8 25 180
8 25 239
8 25 317
8 25 420
8 25 556
8 25 737
8 25 977
8 25 1295
8 25 1716
8 25 2274
8 25 3013
8 25 3993
8 25 4095
8 25 4095
8 25 4095
8 25 4095
8 25 4095
8 25 4095
8 25 4095
8 25 4095
8 25 4095
8 25 4095
8 33 8
8 33 11
8 33 14
8 33 19
8 33 25
8 33 33
8 33 44
8 33 58
8 33 77
8 33 103
8 33 136
8 33 180
8 33 239
8 33 317
8 33 420
8 33 556
8 33 737
8 33 977
8 33 1295
8 33 1716
8 33 2274
8 33 3013
8 33 3993
8 33 4095
8 33 4095
8 33 4095
8 33 4095
8 33 4095
8 33 4095
8 33 4095
8 33 4095
8 33 4095
8 33 4095
8 44 8
8 44 11
8 44 14
8 44 19
8 44 25
8 44 33
8 44 44
8 44 58
8 44 77
8 44 103
8 44 136
8 44 180
8 44 239
8 44 317
8 44 420
8 44 556
8 44 737
8 44 977
8 44 1295
8 44 1716
8 44 2274
8 44 3013
8 44 3993
8 44 4095
8 44 4095
8 44 4095
8 44 4095
8 44 4095
8 44 4095
8 44 4095
8 44 4095
8 44 4095
8 44 4095
8 58 8
8 58 11
8 58 14
8 58 19
8 58 25
8 58 33
8 58 44
8 58 58
8 58 77
8 58 103
8 58 136
8 58 180
8 58 239
8 58 317
8 58 420
8 58 556
8 58 737
8 58 977
8 58 1295
8 58 1716
8 58 2274
8 58 3013
8 58 3993
8 58 4095
8 58 4095
8 58 4095
8 58 4095
8 58 4095
8 58 4095
8 58 4095
8 58 4095
8 58 4095
8 58 4095
8 77 8
8 77 11
8 77 14
8 77 19
8 77 25
8 77 33
8 77 44
8 77 58
8 77 77
8 77 103
8 77 136
8 77 180
8 77 239
8 77 317
8 77 420
8 77 556
8 77 737
8 77 977
8 77 1295
8 77 1716
8 77 2274
8 77 3013
8 77 3993
8 77 4095
8 77 4095
8 77 4095
8 77 4095
8 77 4095
8 77 4095
8 77 4095
8 77 4095
8 77 4095
8 77 4095
8 103 8
8 103 11
8 103 14
8 103 19
8 103 25
8 103 33
8 103 44
8 103 58
8 103 77
8 103 103
8 103 136
8 103 180
8 103 239
8 103 317
8 103 420
8 103 556
8 103 737
8 103 977
8 103 1295
8 103 1716
8 103 2274
8 103 3013
8 103 3993
8 103 4095
8 103 4095
8 103 4095
8 103 4095
8 103 4095
8 103 4095
8 103 4095
8 103 4095
8 103 4095
8 103 4095
8 136 8
8 136 11
8 136 14
8 136 19
8 136 25
8 136 33
8 136 44
8 136 58
8 136 77
8 136 103
8 136 136
8 136 180
8 136 239
8 136 317
8 136 420
8 136 556
8 136 737
8 136 977
8 136 1295
8 136 1716
8 136 2274
8 136 3013
8 136 3993
8 136 4095
8 136 4095
8 136 4095
8 136 4095
8 136 4095
8 136 4095
8 136 4095
8 136 4095
8 136 4095
8 136 4095
8 180 8
8 180 11
8 180 14
8 180 19
8 180 25
8 180 33
8 180 44
8 180 58
8 180 77
8 180 103
8 180 136
8 180 180
8 180 239
8 180 317
8 180 420
8 180 556
8 180 737
8 180 977
8 180 1295
8 180 1716
8 180 2274
8 180 3013
8 180 3993
8 180 4095
8 180 4095
8 180 4095
8 180 4095
8 180 4095
8 180 4095
8 180 4095
8 180 4095
8 180 4095
8 180 4095
8 239 8
8 239 11
8 239 14
8 239 19
8 239 25
8 239 33
8 239 44
8 239 58
8 239 77
8 239 103
8 239 136
8 239 180
8 239 239
8 239 317
8 239 420
8 239 556
8 239 737
8 239 977
8 239 1295
8 239 1716
8 239 2274
8 239 3013
8 239 3993
8 239 4095
8 239 4095
8 239 4095
8 239 4095
8 239 4095
8 239 4095
8 239 4095
8 239 4095
8 239 4095
8 239 4095
8 317 8
8 317 11
8 317 14
8 317 19
8 317 25
8 317 33
8 317 44
8 317 58
8 317 77
8 317 103
8 317 136
8 317 180
8 317 239
8 317 317
8 317 420
8 317 556
8 317 737
8 317 977
8 317 1295
8 317 1716
8 317 2274
8 317 3013
8 317 3993
8 317 4095
8 317 4095
8 317 4095
8 317 4095
8 317 4095
8 317 4095
8 317 4095
8 317 4095
8 317 4095
8 317 4095
8 420 8
8 420 11
8 420 14
8 420 19
8 420 25
8 420 33
8 420 44
8 420 58
8 420 77
8 420 103
8 420 136
8 420 180
8 420 239
8 420 317
8 420 420
8 420 556
8 420 737
8 420 977
8 420 1295
8 420 1716
8 420 2274
8 420 3013
8 420 3993
8 420 4095
8 420 4095
8 420 4095
8 420 4095
8 420 4095
8 420 4095
8 420 4095
8 420 4095
8 420 4095
8 420 4095
8 556 8
8 556 11
8 556 14
8 556 19
8 556 25
8 556 33
8 556 44
8 556 58
8 556 77
8 556 103
8 556 136
8 556 180
8 556 239
8 556 317
8 556 420
8 556 556
8 556 737
8 556 977
8 556 1295
8 556 1716
8 556 2274
8 556 3013
8 556 3993
8 556 4095
8 556 4095
8 556 4095
8 556 4095
8 556 4095
8 556 4095
8 556 4095
8 556 4095
8 556 4095
8 556 4095
8 737 8
8 737 11
8 737 14
8 737 19
8 737 25
8 737 33
8 737 44
8 737 58
8 737 77
8 737 103
8 737 136
8 737 180
8 737 239
8 737 317
8 737 420
8 737 556
8 737 737
8 737 977
8 737 1295
8 737 1716
8 737 2274
8 737 3013
8 737 3993
8 737 4095
8 737 4095
8 737 4095
8 737 4095
8 737 4095
8 737 4095
8 737 4095
8 737 4095
8 737 4095
8 737 4095
8 977 8
8 977 11
8 977 14
8 977 19
8 977 25
8 977 33
8 977 44
8 977 58
8 977 77
8 977 103
8 977 136
8 977 180
8 977 239
8 977 317
8 977 420
8 977 556
8 977 737
8 977 977
8 977 1295
8 977 1716
8 977 2274
8 977 3013
8 977 3993
8 977 4095
8 977 4095
8 977 4095
8 977 4095
8 977 4095
8 977 4095
8 977 4095
8 977 4095
8 977 4095
8 977 4095
8 1295 8
8 1295 11
8 1295 14
8 1295 19
8 1295 25
8 1295 33
8 1295 44
8 1295 58
8 1295 77
8 1295 103
8 1295 136
8 1295 180
8 1295 239
8 1295 317
8 1295 420
8 1295 556
8 1295 737
8 1295 977
8 1295 1295
8 1295 1716
8 1295 2274
8 1295 3013
8 1295 3993
8 1295 4095
8 1295 4095
8 1295 4095
8 1295 4095
8 1295 4095
8 1295 4095
8 1295 4095
8 1295 4095
8 1295 4095
8 1295 4095
8 1716 8
8 1716 11
8 1716 14
8 1716 19
8 1716 25
8 1716 33
8 1716 44
8 1716 58
8 1716 77
8 1716 103
8 1716 136
8 1716 180
8 1716 239
8 1716 317
8 1716 420
8 1716 556
8 1716 737
8 1716 977
8 1716 1295
8 1716 1716
8 1716 2274
8 1716 3013
8 1716 3993
8 1716 4095
8 1716 4095
8 1716 4095
8 1716 4095
8 1716 4095
8 1716 4095
8 1716 4095
8 1716 4095
8 1716 4095
8 1716 4095
8 2274 8
8 2274 11
8 2274 14
8 2274 19
8 2274 25
8 2274 33
8 2274 44
8 2274 58
8 2274 77
8 2274 103
8 2274 136
8 2274 180
8 2274 239
8 2274 317
8 2274 420
8 2274 556
8 2274 737
8 2274 977
8 2274 1295
8 2274 1716
8 2274 2274
8 2274 3013
8 2274 3993
8 2274 4095
8 2274 4095
8 2274 4095
8 2274 4095
8 2274 4095
8 2274 4095
8 2274 4095
8 2274 4095
8 2274 4095
8 2274 4095
8 3013 8
8 3013 11
8 3013 14
8 3013 19
8 3013 25
8 3013 33
8 3013 44
8 3013 58
8 3013 77
8 3013 103
8 3013 136
8 3013 180
8 3013 239
8 3013 317
8 3013 420
8 3013 556
8 3013 737
8 3013 977
8 3013 1295
8 3013 1716
8 3013 2274
8 3013 3013
8 3013 3993
8 3013 4095
8 3013 4095
8 3013 4095
8 3013 4095
8 3013 4095
8 3013 4095
8 3013 4095
8 3013 4095
8 3013 4095
8 3013 4095
8 3993 8
8 3993 11
8 3993 14
8 3993 19
8 3993 25
8 3993 33
8 3993 44
8 3993 58
8 3993 77
8 3993 103
8 3993 136
8 3993 180
8 3993 239
8 3993 317
8 3993 420
8 3993 556
8 3993 737
8 3993 977
8 3993 1295
8 3993 1716
8 3993 2274
8 3993 3013
8 3993 3993
8 3993 4095
8 3993 4095
8 3993 4095
8 3993 4095
8 3993 4095
8 3993 4095
8 3993 4095
8 3993 4095
8 3993 4095
8 3993 4095
8 4095 8
8 4095 11
8 4095 14
8 4095 19
8 4095 25
8 4095 33
8 4095 44
8 4095 58
8 4095 77
8 4095 103
8 4095 136
8 4095 180
8 4095 239
8 4095 317
8 4095 420
8 4095 556
8 4095 737
8 4095 977
8 4095 1295
8 4095 1716
8 4095 2274
8 4095 3013
8 4095 3993
8 4095 4095
8 4095 4095
8 4095 4095
8 4095 4095
8 4095 4095
8 4095 4095
8 4095 4095
8 4095 4095
8 4095 4095
8 4095 4095
8 4095 8
8 4095 11
8 4095 14
8 4095 19
8 4095 25
8 4095 33
8 4095 44
8 4095 58
8 4095 77
8 4095 103
8 4095 136
8 4095 180
8 4095 239
8 4095 317
8 4095 420
8 4095 556
8 4095 737
8 4095 977
8 4095 1295
8 4095 1716
8 4095 2274
8 4095 3013
8 4095 3993
8 4095 4095
8 4095 4095
8 4095 4095
8 4095 4095
8 4095 4095
8 4095 4095
8 4095 4095
8 4095 4095
8 4095 4095
8 4095 4095
8 4095 8
8 4095 11
8 4095 14
8 4095 19
8 4095 25
8 4095 33
8 4095 44
8 4095 58
8 4095 77
8 4095 103
8 4095 136
8 4095 180
8 4095 239
8 4095 317
8 4095 420
8 4095 556
8 4095 737
8 4095 977
8 4095 1295
8 4095 1716
8 4095 2274
8 4095 3013
8 4095 3993
8 4095 4095
8 4095 4095
8 4095 4095
8 4095 4095
8 4095 4095
8 4095 4095
8 4095 4095
8 4095 4095
8 4095 4095
8 4095 4095
8 4095 8
8 4095 11
8 4095 14
8 4095 19
8 4095 25
8 4095 33
8 4095 44
8 4095 58
8 4095 77
8 4095 103
8 4095 136
8 4095 180
8 4095 239
8 4095 317
8 4095 420
8 4095 556
8 4095 737
8 4095 977
8 4095 1295
8 4095 1716
8 4095 2274
8 4095 3013
8 4095 3993
8 4095 4095
8 4095 4095
8 4095 4095
8 4095 4095
8 4095 4095
8 4095 4095
8 4095 4095
8 4095 4095
8 4095 4095
8 4095 4095
8 4095 8
8 4095 11
8 4095 14
8 4095 19
8 4095 25
8 4095 33
8 4095 44
8 4095 58
8 4095 77
