Gems/AtomLyIntegration/CommonFeatures/Tools/ColorGrading/LUTs/from_ACEScg_to_Log2-48nits_AP1.3dl
3DMESH
Mesh 5 12
0 32 64 96 128 160 192 224 256 288 320 352 384 416 448 480 512 543 575 607 639 671 703 735 767 799 831 863 895 927 959 991 1023
0 0 0
0 0 1252
0 0 1567
0 0 1751
0 0 1882
0 0 1983
0 0 2066
0 0 2136
0 0 2197
0 0 2250
0 0 2298
0 0 2342
0 0 2381
0 0 2417
0 0 2451
0 0 2482
0 0 2512
0 0 2539
0 0 2565
0 0 2590
0 0 2613
0 0 2635
0 0 2657
0 0 2677
0 0 2696
0 0 2715
0 0 2732
0 0 2750
0 0 2766
0 0 2782
0 0 2797
0 0 2812
0 0 2827
0 1252 0
0 1252 1252
0 1252 1567
0 1252 1751
0 1252 1882
0 1252 1983
0 1252 2066
0 1252 2136
0 1252 2197
0 1252 2250
0 1252 2298
0 1252 2342
0 1252 2381
0 1252 2417
0 1252 2451
0 1252 2482
0 1252 2512
0 1252 2539
0 1252 2565
0 1252 2590
0 1252 2613
0 1252 2635
0 1252 2657
0 1252 2677
0 1252 2696
0 1252 2715
0 1252 2732
0 1252 2750
0 1252 2766
0 1252 2782
0 1252 2797
0 1252 2812
0 1252 2827
0 1567 0
0 1567 1252
0 1567 1567
0 1567 1751
0 1567 1882
0 1567 1983
0 1567 2066
0 1567 2136
0 1567 2197
0 1567 2250
0 1567 2298
0 1567 2342
0 1567 2381
0 1567 2417
0 1567 2451
0 1567 2482
0 1567 2512
0 1567 2539
0 1567 2565
0 1567 2590
0 1567 2613
0 1567 2635
0 1567 2657
0 1567 2677
0 1567 2696
0 1567 2715
0 1567 2732
0 1567 2750
0 1567 2766
0 1567 2782
0 1567 2797
0 1567 2812
0 1567 2827
0 1751 0
0 1751 1252
0 1751 1567
0 1751 1751
0 1751 1882
0 1751 1983
0 1751 2066
0 1751 2136
0 1751 2197
0 1751 2250
0 1751 2298
0 1751 2342
0 1751 2381
0 1751 2417
0 1751 2451
0 1751 2482
0 1751 2512
0 1751 2539
0 1751 2565
0 1751 2590
0 1751 2613
0 1751 2635
0 1751 2657
0 1751 2677
0 1751 2696
0 1751 2715
0 1751 2732
0 1751 2750
0 1751 2766
0 1751 2782
0 1751 2797
0 1751 2812
0 1751 2827
0 1882 0
0 1882 1252
0 1882 1567
0 1882 1751
0 1882 1882
0 1882 1983
0 1882 2066
0 1882 2136
0 1882 2197
0 1882 2250
0 1882 2298
0 1882 2342
0 1882 2381
0 1882 2417
0 1882 2451
0 1882 2482
0 1882 2512
0 1882 2539
0 1882 2565
0 1882 2590
0 1882 2613
0 1882 2635
0 1882 2657
0 1882 2677
0 1882 2696
0 1882 2715
0 1882 2732
0 1882 2750
0 1882 2766
0 1882 2782
0 1882 2797
0 1882 2812
0 1882 2827
0 1983 0
0 1983 1252
0 1983 1567
0 1983 1751
0 1983 1882
0 1983 1983
0 1983 2066
0 1983 2136
0 1983 2197
0 1983 2250
0 1983 2298
0 1983 2342
0 1983 2381
0 1983 2417
0 1983 2451
0 1983 2482
0 1983 2512
0 1983 2539
0 1983 2565
0 1983 2590
0 1983 2613
0 1983 2635
0 1983 2657
0 1983 2677
0 1983 2696
0 1983 2715
0 1983 2732
0 1983 2750
0 1983 2766
0 1983 2782
0 1983 2797
0 1983 2812
0 1983 2827
0 2066 0
0 2066 1252
0 2066 1567
0 2066 1751
0 2066 1882
0 2066 1983
0 2066 2066
0 2066 2136
0 2066 2197
0 2066 2250
0 2066 2298
0 2066 2342
0 2066 2381
0 2066 2417
0 2066 2451
0 2066 2482
0 2066 2512
0 2066 2539
0 2066 2565
0 2066 2590
0 2066 2613
0 2066 2635
0 2066 2657
0 2066 2677
0 2066 2696
0 2066 2715
0 2066 2732
0 2066 2750
0 2066 2766
0 2066 2782
0 2066 2797
0 2066 2812
0 2066 2827
0 2136 0
0 2136 1252
0 2136 1567
0 2136 1751
0 2136 1882
0 2136 1983
0 2136 2066
0 2136 2136
0 2136 2197
0 2136 2250
0 2136 2298
0 2136 2342
0 2136 2381
0 2136 2417
0 2136 2451
0 2136 2482
0 2136 2512
0 2136 2539
0 2136 2565
0 2136 2590
0 2136 2613
0 2136 2635
0 2136 2657
0 2136 2677
0 2136 2696
0 2136 2715
0 2136 2732
0 2136 2750
0 2136 2766
0 2136 2782
0 2136 2797
0 2136 2812
0 2136 2827
0 2197 0
0 2197 1252
0 2197 1567
0 2197 1751
0 2197 1882
0 2197 1983
0 2197 2066
0 2197 2136
0 2197 2197
0 2197 2250
0 2197 2298
0 2197 2342
0 2197 2381
0 2197 2417
0 2197 2451
0 2197 2482
0 2197 2512
0 2197 2539
0 2197 2565
0 2197 2590
0 2197 2613
0 2197 2635
0 2197 2657
0 2197 2677
0 2197 2696
0 2197 2715
0 2197 2732
0 2197 2750
0 2197 2766
0 2197 2782
0 2197 2797
0 2197 2812
0 2197 2827
0 2250 0
0 2250 1252
0 2250 1567
0 2250 1751
0 2250 1882
0 2250 1983
0 2250 2066
0 2250 2136
0 2250 2197
0 2250 2250
0 2250 2298
0 2250 2342
0 2250 2381
0 2250 2417
0 2250 2451
0 2250 2482
0 2250 2512
0 2250 2539
0 2250 2565
0 2250 2590
0 2250 2613
0 2250 2635
0 2250 2657
0 2250 2677
0 2250 2696
0 2250 2715
0 2250 2732
0 2250 2750
0 2250 2766
0 2250 2782
0 2250 2797
0 2250 2812
0 2250 2827
0 2298 0
0 2298 1252
0 2298 1567
0 2298 1751
0 2298 1882
0 2298 1983
0 2298 2066
0 2298 2136
0 2298 2197
0 2298 2250
0 2298 2298
0 2298 2342
0 2298 2381
0 2298 2417
0 2298 2451
0 2298 2482
0 2298 2512
0 2298 2539
0 2298 2565
0 2298 2590
0 2298 2613
0 2298 2635
0 2298 2657
0 2298 2677
0 2298 2696
0 2298 2715
0 2298 2732
0 2298 2750
0 2298 2766
0 2298 2782
0 2298 2797
0 2298 2812
0 2298 2827
0 2342 0
0 2342 1252
0 2342 1567
0 2342 1751
0 2342 1882
0 2342 1983
0 2342 2066
0 2342 2136
0 2342 2197
0 2342 2250
0 2342 2298
0 2342 2342
0 2342 2381
0 2342 2417
0 2342 2451
0 2342 2482
0 2342 2512
0 2342 2539
0 2342 2565
0 2342 2590
0 2342 2613
0 2342 2635
0 2342 2657
0 2342 2677
0 2342 2696
0 2342 2715
0 2342 2732
0 2342 2750
0 2342 2766
0 2342 2782
0 2342 2797
0 2342 2812
0 2342 2827
0 2381 0
0 2381 1252
0 2381 1567
0 2381 1751
0 2381 1882
0 2381 1983
0 2381 2066
0 2381 2136
0 2381 2197
0 2381 2250
0 2381 2298
0 2381 2342
0 2381 2381
0 2381 2417
0 2381 2451
0 2381 2482
0 2381 2512
0 2381 2539
0 2381 2565
0 2381 2590
0 2381 2613
0 2381 2635
0 2381 2657
0 2381 2677
0 2381 2696
0 2381 2715
0 2381 2732
0 2381 2750
0 2381 2766
0 2381 2782
0 2381 2797
0 2381 2812
0 2381 2827
0 2417 0
0 2417 1252
0 2417 1567
0 2417 1751
0 2417 1882
0 2417 1983
0 2417 2066
0 2417 2136
0 2417 2197
0 2417 2250
0 2417 2298
0 2417 2342
0 2417 2381
0 2417 2417
0 2417 2451
0 2417 2482
0 2417 2512
0 2417 2539
0 2417 2565
0 2417 2590
0 2417 2613
0 2417 2635
0 2417 2657
0 2417 2677
0 2417 2696
0 2417 2715
0 2417 2732
0 2417 2750
0 2417 2766
0 2417 2782
0 2417 2797
0 2417 2812
0 2417 2827
0 2451 0
0 2451 1252
0 2451 1567
0 2451 1751
0 2451 1882
0 2451 1983
0 2451 2066
0 2451 2136
0 2451 2197
0 2451 2250
0 2451 2298
0 2451 2342
0 2451 2381
0 2451 2417
0 2451 2451
0 2451 2482
0 2451 2512
0 2451 2539
0 2451 2565
0 2451 2590
0 2451 2613
0 2451 2635
0 2451 2657
0 2451 2677
0 2451 2696
0 2451 2715
0 2451 2732
0 2451 2750
0 2451 2766
0 2451 2782
0 2451 2797
0 2451 2812
0 2451 2827
0 2482 0
0 2482 1252
0 2482 1567
0 2482 1751
0 2482 1882
0 2482 1983
0 2482 2066
0 2482 2136
0 2482 2197
0 2482 2250
0 2482 2298
0 2482 2342
0 2482 2381
0 2482 2417
0 2482 2451
0 2482 2482
0 2482 2512
0 2482 2539
0 2482 2565
0 2482 2590
0 2482 2613
0 2482 2635
0 2482 2657
0 2482 2677
0 2482 2696
0 2482 2715
0 2482 2732
0 2482 2750
0 2482 2766
0 2482 2782
0 2482 2797
0 2482 2812
0 2482 2827
0 2512 0
0 2512 1252
0 2512 1567
0 2512 1751
0 2512 1882
0 2512 1983
0 2512 2066
0 2512 2136
0 2512 2197
0 2512 2250
0 2512 2298
0 2512 2342
0 2512 2381
0 2512 2417
0 2512 2451
0 2512 2482
0 2512 2512
0 2512 2539
0 2512 2565
0 2512 2590
0 2512 2613
0 2512 2635
0 2512 2657
0 2512 2677
0 2512 2696
0 2512 2715
0 2512 2732
0 2512 2750
0 2512 2766
0 2512 2782
0 2512 2797
0 2512 2812
0 2512 2827
0 2539 0
0 2539 1252
0 2539 1567
0 2539 1751
0 2539 1882
0 2539 1983
0 2539 2066
0 2539 2136
0 2539 2197
0 2539 2250
0 2539 2298
0 2539 2342
0 2539 2381
0 2539 2417
0 2539 2451
0 2539 2482
0 2539 2512
0 2539 2539
0 2539 2565
0 2539 2590
0 2539 2613
0 2539 2635
0 2539 2657
0 2539 2677
0 2539 2696
0 2539 2715
0 2539 2732
0 2539 2750
0 2539 2766
0 2539 2782
0 2539 2797
0 2539 2812
0 2539 2827
0 2565 0
0 2565 1252
0 2565 1567
0 2565 1751
0 2565 1882
0 2565 1983
0 2565 2066
0 2565 2136
0 2565 2197
0 2565 2250
0 2565 2298
0 2565 2342
0 2565 2381
0 2565 2417
0 2565 2451
0 2565 2482
0 2565 2512
0 2565 2539
0 2565 2565
0 2565 2590
0 2565 2613
0 2565 2635
0 2565 2657
0 2565 2677
0 2565 2696
0 2565 2715
0 2565 2732
0 2565 2750
0 2565 2766
0 2565 2782
0 2565 2797
0 2565 2812
0 2565 2827
0 2590 0
0 2590 1252
0 2590 1567
0 2590 1751
0 2590 1882
0 2590 1983
0 2590 2066
0 2590 2136
0 2590 2197
0 2590 2250
0 2590 2298
0 2590 2342
0 2590 2381
0 2590 2417
0 2590 2451
0 2590 2482
0 2590 2512
0 2590 2539
0 2590 2565
0 2590 2590
0 2590 2613
0 2590 2635
0 2590 2657
0 2590 2677
0 2590 2696
0 2590 2715
0 2590 2732
0 2590 2750
0 2590 2766
0 2590 2782
0 2590 2797
0 2590 2812
0 2590 2827
0 2613 0
0 2613 1252
0 2613 1567
0 2613 1751
0 2613 1882
0 2613 1983
0 2613 2066
0 2613 2136
0 2613 2197
0 2613 2250
0 2613 2298
0 2613 2342
0 2613 2381
0 2613 2417
0 2613 2451
0 2613 2482
0 2613 2512
0 2613 2539
0 2613 2565
0 2613 2590
0 2613 2613
0 2613 2635
0 2613 2657
0 2613 2677
0 2613 2696
0 2613 2715
0 2613 2732
0 2613 2750
0 2613 2766
0 2613 2782
0 2613 2797
0 2613 2812
0 2613 2827
0 2635 0
0 2635 1252
0 2635 1567
0 2635 1751
0 2635 1882
0 2635 1983
0 2635 2066
0 2635 2136
0 2635 2197
0 2635 2250
0 2635 2298
0 2635 2342
0 2635 2381
0 2635 2417
0 2635 2451
0 2635 2482
0 2635 2512
0 2635 2539
0 2635 2565
0 2635 2590
0 2635 2613
0 2635 2635
0 2635 2657
0 2635 2677
0 2635 2696
0 2635 2715
0 2635 2732
0 2635 2750
0 2635 2766
0 2635 2782
0 2635 2797
0 2635 2812
0 2635 2827
0 2657 0
0 2657 1252
0 2657 1567
0 2657 1751
0 2657 1882
0 2657 1983
0 2657 2066
0 2657 2136
0 2657 2197
0 2657 2250
0 2657 2298
0 2657 2342
0 2657 2381
0 2657 2417
0 2657 2451
0 2657 2482
0 2657 2512
0 2657 2539
0 2657 2565
0 2657 2590
0 2657 2613
0 2657 2635
0 2657 2657
0 2657 2677
0 2657 2696
0 2657 2715
0 2657 2732
0 2657 2750
0 2657 2766
0 2657 2782
0 2657 2797
0 2657 2812
0 2657 2827
0 2677 0
0 2677 1252
0 2677 1567
0 2677 1751
0 2677 1882
0 2677 1983
0 2677 2066
0 2677 2136
0 2677 2197
0 2677 2250
0 2677 2298
0 2677 2342
0 2677 2381
0 2677 2417
0 2677 2451
0 2677 2482
0 2677 2512
0 2677 2539
0 2677 2565
0 2677 2590
0 2677 2613
0 2677 2635
0 2677 2657
0 2677 2677
0 2677 2696
0 2677 2715
0 2677 2732
0 2677 2750
0 2677 2766
0 2677 2782
0 2677 2797
0 2677 2812
0 2677 2827
0 2696 0
0 2696 1252
0 2696 1567
0 2696 1751
0 2696 1882
0 2696 1983
0 2696 2066
0 2696 2136
0 2696 2197
0 2696 2250
0 2696 2298
0 2696 2342
0 2696 2381
0 2696 2417
0 2696 2451
0 2696 2482
0 2696 2512
0 2696 2539
0 2696 2565
0 2696 2590
0 2696 2613
0 2696 2635
0 2696 2657
0 2696 2677
0 2696 2696
0 2696 2715
0 2696 2732
0 2696 2750
0 2696 2766
0 2696 2782
0 2696 2797
0 2696 2812
0 2696 2827
0 2715 0
0 2715 1252
0 2715 1567
0 2715 1751
0 2715 1882
0 2715 1983
0 2715 2066
0 2715 2136
0 2715 2197
0 2715 2250
0 2715 2298
0 2715 2342
0 2715 2381
0 2715 2417
0 2715 2451
0 2715 2482
0 2715 2512
0 2715 2539
0 2715 2565
0 2715 2590
0 2715 2613
0 2715 2635
0 2715 2657
0 2715 2677
0 2715 2696
0 2715 2715
0 2715 2732
0 2715 2750
0 2715 2766
0 2715 2782
0 2715 2797
0 2715 2812
0 2715 2827
0 2732 0
0 2732 1252
0 2732 1567
0 2732 1751
0 2732 1882
0 2732 1983
0 2732 2066
0 2732 2136
0 2732 2197
0 2732 2250
0 2732 2298
0 2732 2342
0 2732 2381
0 2732 2417
0 2732 2451
0 2732 2482
0 2732 2512
0 2732 2539
0 2732 2565
0 2732 2590
0 2732 2613
0 2732 2635
0 2732 2657
0 2732 2677
0 2732 2696
0 2732 2715
0 2732 2732
0 2732 2750
0 2732 2766
0 2732 2782
0 2732 2797
0 2732 2812
0 2732 2827
0 2750 0
0 2750 1252
0 2750 1567
0 2750 1751
0 2750 1882
0 2750 1983
0 2750 2066
0 2750 2136
0 2750 2197
