Gems/AtomLyIntegration/CommonFeatures/Tools/ColorGrading/LUTs/from_ACEScg_to_sRGB.3dl
3DMESH
Mesh 5 12
0 32 64 96 128 160 192 224 256 288 320 352 384 416 448 480 512 543 575 607 639 671 703 735 767 799 831 863 895 927 959 991 1023
0 0 0
0 0 343
0 0 679
0 0 934
0 0 1158
0 0 1361
0 0 1554
0 0 1731
0 0 1890
0 0 2033
0 0 2163
0 0 2283
0 0 2393
0 0 2494
0 0 2589
0 0 2677
0 0 2759
0 0 2836
0 0 2908
0 0 2973
0 0 3034
0 0 3090
0 0 3140
0 0 3189
0 0 3233
0 0 3273
0 0 3311
0 0 3348
0 0 3379
0 0 3409
0 0 3437
0 0 3465
0 0 3489
0 346 0
0 347 325
0 341 665
0 331 924
0 322 1150
0 315 1354
0 308 1548
0 303 1726
0 296 1885
0 292 2028
0 286 2159
0 278 2279
0 274 2388
0 269 2490
0 261 2585
0 255 2673
0 249 2755
0 243 2832
0 240 2904
0 237 2969
0 233 3030
0 224 3086
0 220 3136
0 216 3185
0 211 3229
0 204 3269
0 201 3307
0 200 3344
0 198 3375
0 195 3404
0 193 3433
0 191 3461
0 191 3485
0 689 0
0 687 294
0 677 643
0 668 909
0 660 1137
0 655 1343
0 652 1538
0 648 1716
0 645 1875
0 643 2019
0 640 2150
0 637 2270
0 634 2380
0 632 2482
0 630 2576
0 628 2665
0 624 2747
0 621 2824
0 621 2896
0 619 2961
0 617 3022
0 614 3078
0 611 3129
0 610 3177
0 610 3221
0 609 3261
0 608 3299
0 606 3336
0 604 3367
0 603 3397
0 602 3425
0 602 3453
0 600 3478
0 948 0
0 947 246
0 942 618
0 934 891
0 929 1123
0 925 1331
0 922 1528
0 919 1707
0 918 1866
0 917 2010
0 915 2141
0 913 2261
0 910 2371
0 908 2473
0 908 2567
0 906 2656
0 904 2738
0 903 2815
0 901 2887
0 899 2952
0 899 3013
0 899 3069
0 898 3120
0 897 3168
0 895 3212
0 892 3252
0 892 3290
0 893 3327
0 893 3358
0 893 3388
0 892 3417
0 891 3444
0 889 3469
0 1173 0
0 1173 184
0 1170 590
0 1165 872
0 1160 1108
0 1158 1320
0 1157 1518
0 1155 1697
0 1153 1857
0 1151 2001
0 1150 2132
0 1149 2252
0 1148 2362
0 1147 2464
0 1146 2558
0 1144 2647
0 1142 2729
0 1141 2806
0 1141 2878
0 1140 2943
0 1139 3004
0 1138 3060
0 1138 3111
0 1137 3159
0 1135 3203
0 1134 3243
0 1135 3281
0 1136 3318
0 1135 3349
0 1135 3379
0 1135 3408
0 1134 3435
0 1133 3460
0 1378 0
0 1378 106
0 1377 560
0 1375 851
0 1372 1093
0 1370 1308
0 1369 1508
0 1367 1687
0 1366 1847
0 1366 1991
0 1365 2122
0 1364 2243
0 1363 2353
0 1362 2455
0 1360 2550
0 1358 2638
0 1358 2720
0 1357 2798
0 1357 2869
0 1357 2934
0 1356 2996
0 1355 3051
0 1354 3102
0 1354 3150
0 1352 3194
0 1351 3234
0 1352 3272
0 1353 3309
0 1353 3340
0 1353 3370
0 1352 3399
0 1352 3426
0 1351 3451
0 1570 0
0 1570 27
0 1569 526
0 1568 829
0 1567 1077
0 1566 1296
0 1565 1497
0 1564 1677
0 1563 1838
0 1563 1982
0 1562 2113
0 1561 2233
0 1560 2344
0 1559 2446
0 1558 2541
0 1557 2629
0 1556 2712
0 1555 2789
0 1555 2860
0 1555 2925
0 1554 2987
0 1554 3042
0 1553 3093
0 1553 3141
0 1552 3185
0 1551 3225
0 1550 3263
0 1551 3300
0 1551 3331
0 1550 3361
0 1550 3390
0 1550 3417
0 1550 3442
0 1745 0
0 1746 0
0 1745 490
0 1745 808
0 1744 1061
0 1743 1283
0 1742 1486
0 1742 1667
0 1741 1828
0 1741 1973
0 1740 2104
0 1739 2225
0 1738 2335
0 1738 2437
0 1736 2532
0 1736 2621
0 1735 2703
0 1734 2781
0 1734 2852
0 1733 2917
0 1733 2978
0 1733 3034
0 1733 3084
0 1732 3133
0 1731 3177
0 1731 3217
0 1731 3255
0 1730 3292
0 1729 3323
0 1729 3352
0 1729 3381
0 1730 3409
0 1730 3433
0 1903 0
0 1904 0
0 1904 452
0 1903 786
0 1903 1046
0 1902 1270
0 1901 1475
0 1900 1657
0 1899 1819
0 1899 1964
0 1898 2096
0 1898 2217
0 1897 2327
0 1896 2429
0 1896 2524
0 1895 2613
0 1894 2695
0 1894 2773
0 1893 2844
0 1892 2909
0 1892 2971
0 1892 3026
0 1891 3077
0 1891 3125
0 1891 3169
0 1891 3209
0 1891 3247
0 1890 3284
0 1890 3315
0 1890 3344
0 1890 3373
0 1890 3401
0 1889 3425
0 2046 0
0 2046 0
0 2046 410
0 2046 764
0 2046 1030
0 2045 1258
0 2044 1465
0 2044 1648
0 2043 1810
0 2042 1956
0 2042 2088
0 2040 2209
0 2040 2320
0 2040 2422
0 2039 2517
0 2038 2606
0 2038 2688
0 2038 2765
0 2037 2837
0 2037 2902
0 2036 2963
0 2035 3019
0 2035 3069
0 2035 3118
0 2034 3162
0 2034 3201
0 2034 3239
0 2034 3276
0 2035 3307
0 2034 3337
0 2033 3365
0 2033 3393
0 2033 3418
0 2176 0
0 2176 0
0 2176 364
0 2176 742
0 2175 1015
0 2175 1246
0 2174 1455
0 2174 1639
0 2173 1802
0 2172 1948
0 2172 2080
0 2171 2201
0 2170 2312
0 2170 2415
0 2169 2510
0 2169 2599
0 2168 2681
0 2168 2759
0 2168 2830
0 2167 2895
0 2166 2956
0 2166 3012
0 2166 3062
0 2165 3111
0 2165 3155
0 2165 3194
0 2165 3232
0 2165 3269
0 2164 3300
0 2164 3330
0 2165 3358
0 2165 3386
0 2164 3411
0 2295 0
0 2295 0
0 2295 320
0 2295 720
0 2294 1000
0 2294 1235
0 2293 1445
0 2292 1630
0 2292 1794
0 2291 1941
0 2291 2073
0 2290 2194
0 2290 2306
0 2289 2408
0 2289 2503
0 2288 2592
0 2288 2675
0 2287 2752
0 2286 2824
0 2286 2889
0 2286 2950
0 2285 3005
0 2285 3056
0 2285 3104
0 2285 3148
0 2284 3188
0 2284 3226
0 2284 3263
0 2284 3293
0 2284 3323
0 2283 3352
0 2283 3380
0 2284 3404
0 2404 0
0 2404 0
0 2404 261
0 2404 698
0 2403 985
0 2403 1223
0 2403 1436
0 2402 1622
0 2401 1786
0 2401 1933
0 2400 2066
0 2400 2188
0 2399 2299
0 2399 2402
0 2398 2497
0 2397 2586
0 2397 2669
0 2397 2746
0 2396 2818
0 2396 2882
0 2395 2944
0 2395 2999
0 2395 3050
0 2395 3098
0 2394 3142
0 2394 3182
0 2394 3220
0 2393 3256
0 2393 3287
0 2393 3317
0 2394 3346
0 2394 3373
0 2393 3398
0 2505 0
0 2505 0
0 2505 205
0 2505 675
0 2504 970
0 2504 1213
0 2503 1427
0 2503 1614
0 2502 1779
0 2502 1927
0 2501 2060
0 2501 2182
0 2500 2293
0 2500 2396
0 2499 2491
0 2499 2580
0 2498 2663
0 2498 2740
0 2497 2812
0 2497 2877
0 2497 2938
0 2496 2993
0 2496 3044
0 2496 3092
0 2496 3136
0 2495 3176
0 2495 3214
0 2495 3250
0 2495 3281
0 2495 3311
0 2494 3340
0 2494 3367
0 2495 3392
0 2599 0
0 2599 0
0 2599 136
0 2598 654
0 2598 957
0 2598 1202
0 2597 1419
0 2597 1607
0 2596 1773
0 2596 1920
0 2595 2054
0 2595 2176
0 2594 2287
0 2594 2390
0 2593 2486
0 2593 2575
0 2592 2658
0 2592 2735
0 2592 2807
0 2591 2871
0 2591 2933
0 2590 2988
0 2590 3038
0 2590 3087
0 2590 3130
0 2590 3170
0 2590 3208
0 2589 3245
0 2589 3276
0 2589 3305
0 2589 3334
0 2588 3362
0 2588 3386
0 2686 0
0 2686 0
0 2686 88
0 2686 631
0 2685 942
0 2685 1192
0 2684 1411
0 2684 1600
0 2684 1766
0 2683 1914
0 2683 2048
0 2682 2170
0 2682 2282
0 2681 2385
0 2681 2481
0 2680 2570
0 2680 2653
0 2679 2730
0 2679 2802
0 2679 2866
0 2678 2928
0 2678 2983
0 2678 3033
0 2678 3082
0 2677 3125
0 2677 3165
0 2677 3203
0 2677 3240
0 2677 3270
0 2676 3300
0 2676 3329
0 2676 3356
0 2676 3381
0 2768 0
0 2767 0
0 2767 53
0 2767 611
0 2767 930
0 2766 1183
0 2766 1403
0 2766 1593
0 2765 1760
0 2765 1909
0 2764 2043
0 2764 2165
0 2763 2277
0 2763 2380
0 2762 2476
0 2762 2565
0 2762 2648
0 2761 2725
0 2761 2797
0 2760 2861
0 2760 2923
0 2760 2978
0 2759 3028
0 2759 3077
0 2759 3120
0 2758 3160
0 2758 3198
0 2758 3235
0 2758 3265
0 2759 3295
0 2758 3324
0 2758 3351
0 2758 3376
0 2843 0
0 2843 0
0 2844 4
0 2843 589
0 2843 917
0 2843 1174
0 2842 1396
0 2842 1587
0 2842 1754
0 2841 1903
0 2840 2038
0 2840 2160
0 2839 2272
0 2838 2375
0 2838 2471
0 2837 2560
0 2837 2643
0 2836 2721
0 2836 2792
0 2836 2857
0 2835 2918
0 2835 2973
0 2835 3024
0 2835 3072
0 2835 3116
0 2835 3155
0 2835 3193
0 2834 3230
0 2834 3260
0 2835 3290
0 2835 3319
0 2835 3346
0 2835 3371
0 2915 0
0 2914 0
0 2914 0
0 2913 567
0 2913 905
0 2912 1166
0 2912 1390
0 2911 1581
0 2911 1749
0 2910 1898
0 2909 2033
0 2909 2156
0 2908 2268
0 2908 2371
0 2908 2467
0 2907 2556
0 2907 2639
0 2907 2717
0 2906 2788
0 2907 2853
0 2906 2914
0 2906 2969
0 2906 3019
0 2906 3068
0 2906 3111
0 2906 3151
0 2905 3189
0 2905 3225
0 2904 3256
0 2904 3286
0 2904 3314
0 2903 3342
0 2904 3366
0 2977 0
0 2977 0
0 2977 0
0 2977 551
0 2976 896
0 2976 1158
0 2976 1384
0 2975 1576
0 2975 1744
0 2975 1894
0 2975 2029
0 2974 2152
0 2974 2264
0 2974 2367
0 2974 2463
0 2973 2552
0 2973 2635
0 2972 2713
0 2972 2784
0 2971 2849
0 2970 2910
0 2970 2965
0 2970 3016
0 2969 3064
0 2969 3107
0 2969 3147
0 2968 3185
0 2968 3221
0 2968 3252
0 2968 3282
0 2967 3310
0 2967 3338
0 2967 3362
0 3037 0
0 3037 0
0 3037 0
0 3037 529
0 3037 884
0 3037 1151
0 3037 1378
0 3036 1571
0 3035 1740
0 3034 1890
0 3034 2025
0 3033 2148
0 3032 2260
0 3032 2364
0 3032 2460
0 3031 2549
0 3030 2632
0 3030 2709
0 3029 2781
0 3029 2845
0 3029 2907
0 3029 2961
0 3029 3012
0 3028 3060
0 3028 3104
0 3028 3143
0 3028 3181
0 3028 3217
0 3028 3248
0 3028 3278
0 3028 3306
0 3028 3334
0 3028 3358
0 3092 0
0 3092 0
0 3091 0
0 3091 513
0 3090 876
0 3090 1146
0 3090 1374
0 3089 1568
0 3088 1737
0 3088 1887
0 3087 2022
0 3087 2145
0 3086 2257
0 3086 2361
0 3086 2457
0 3085 2546
0 3085 2629
0 3085 2706
0 3084 2778
0 3084 2842
0 3084 2903
0 3084 2958
0 3084 3009
0 3084 3057
0 3084 3100
0 3084 3140
0 3084 3178
0 3083 3214
0 3083 3245
0 3082 3274
0 3082 3303
0 3081 3330
0 3082 3355
0 3141 0
0 3141 0
0 3141 0
0 3141 500
0 3140 869
0 3140 1141
0 3140 1369
0 3139 1564
0 3139 1733
0 3138 1884
0 3138 2019
0 3138 2142
0 3138 2254
0 3137 2358
0 3137 2454
0 3137 2543
0 3137 2626
0 3136 2703
0 3136 2775
0 3135 2839
0 3134 2901
0 3134 2955
0 3134 3006
0 3133 3054
0 3133 3097
0 3133 3137
0 3132 3174
0 3132 3211
0 3132 3241
0 3132 3271
0 3131 3300
0 3131 3327
0 3131 3351
0 3188 0
0 3188 0
0 3188 0
0 3188 481
0 3187 861
0 3187 1136
0 3187 1365
0 3187 1560
0 3186 1730
0 3186 1881
0 3185 2016
0 3184 2139
0 3184 2252
0 3183 2356
0 3182 2452
0 3182 2541
0 3182 2624
0 3181 2701
0 3180 2773
0 3180 2837
0 3180 2898
0 3179 2953
0 3179 3003
0 3179 3051
0 3179 3094
0 3179 3134
0 3178 3172
0 3178 3208
0 3178 3239
0 3178 3268
0 3178 3297
0 3178 3324
0 3178 3348
0 3232 0
0 3231 0
0 3231 0
0 3231 468
0 3230 855
0 3229 1133
0 3229 1363
0 3228 1558
0 3228 1728
0 3227 1879
0 3226 2014
0 3226 2138
0 3226 2250
0 3225 2354
0 3224 2450
0 3224 2539
0 3224 2622
0 3224 2699
0 3223 2770
0 3223 2835
0 3223 2896
0 3222 2950
0 3222 3000
0 3222 3049
0 3222 3092
0 3222 3131
0 3222 3169
0 3222 3205
0 3222 3236
0 3222 3265
0 3223 3294
0 3223 3321
0 3222 3345
0 3270 0
0 3269 0
0 3269 0
0 3269 459
0 3268 851
0 3268 1130
0 3268 1361
0 3268 1556
0 3267 1727
0 3266 1877
0 3266 2013
0 3266 2136
0 3266 2248
0 3265 2352
0 3265 2448
0 3264 2537
0 3264 2620
0 3264 2697
0 3264 2768
0 3264 2832
0 3264 2893
0 3264 2948
0 3264 2998
0 3263 3046
0 3263 3089
0 3262 3129
0 3262 3167
0 3261 3203
0 3261 3233
0 3261 3263
0 3260 3291
0 3260 3319
0 3260 3343
0 3306 0
0 3306 0
0 3306 0
0 3306 448
0 3306 846
0 3305 1127
0 3305 1359
0 3305 1555
0 3305 1725
0 3304 1876
0 3304 2011
0 3304 2134
0 3304 2247
0 3304 2350
0 3303 2446
0 3302 2535
0 3301 2618
0 3301 2695
0 3301 2766
0 3300 2831
0 3299 2892
0 3299 2946
0 3298 2996
0 3298 3044
0 3298 3087
0 3298 3127
0 3297 3164
0 3297 3201
0 3297 3231
0 3297 3260
0 3296 3289
0 3296 3317
0 3296 3341
0 3341 0
0 3341 0
0 3341 0
0 3342 433
0 3341 840
0 3340 1124
0 3340 1357
0 3339 1553
0 3339 1723
