Gems/AtomLyIntegration/CommonFeatures/Tools/ColorGrading/LUTs/invLog2_48_nits_Shaper_to_linear.3dl
0 256 512 767 1023
0 0 0
0 0 2197
0 0 2512
0 0 2696
0 0 2827
0 2197 0
0 2197 2197
0 2197 2512
0 2197 2696
0 2197 2827
0 2512 0
0 2512 2197
0 2512 2512
0 2512 2696
0 2512 2827
0 2696 0
0 2696 2197
0 2696 2512
0 2696 2696
0 2696 2827
0 2827 0
0 2827 2197
0 2827 2512
0 2827 2696
0 2827 2827
2197 0 0
2197 0 2197
2197 0 2512
2197 0 2696
2197 0 2827
2197 2197 0
2197 2197 2197
2197 2197 2512
2197 2197 2696
2197 2197 2827
2197 2512 0
2197 2512 2197
2197 2512 2512
2197 2512 2696
2197 2512 2827
2197 2696 0
2197 2696 2197
2197 2696 2512
2197 2696 2696
2197 2696 2827
2197 2827 0
2197 2827 2197
2197 2827 2512
2197 2827 2696
2197 2827 2827
2512 0 0
2512 0 2197
2512 0 2512
2512 0 2696
2512 0 2827
2512 2197 0
2512 2197 2197
2512 2197 2512
2512 2197 2696
2512 2197 2827
2512 2512 0
2512 2512 2197
2512 2512 2512
2512 2512 2696
2512 2512 2827
2512 2696 0
2512 2696 2197
2512 2696 2512
2512 2696 2696
2512 2696 2827
2512 2827 0
2512 2827 2197
2512 2827 2512
2512 2827 2696
2512 2827 2827
2696 0 0
2696 0 2197
2696 0 2512
2696 0 2696
2696 0 2827
2696 2197 0
2696 2197 2197
2696 2197 2512
2696 2197 2696
2696 2197 2827
2696 2512 0
2696 2512 2197
2696 2512 2512
2696 2512 2696
2696 2512 2827
2696 2696 0
2696 2696 2197
2696 2696 2512
2696 2696 2696
2696 2696 2827
2696 2827 0
2696 2827 2197
2696 2827 2512
2696 2827 2696
2696 2827 2827
2827 0 0
2827 0 2197
2827 0 2512
2827 0 2696
2827 0 2827
2827 2197 0
2827 2197 2197
2827 2197 2512
2827 2197 2696
2827 2197 2827
2827 2512 0
2827 2512 2197
2827 2512 2512
2827 2512 2696
2827 2512 2827
2827 2696 0
2827 2696 2197
2827 2696 2512
2827 2696 2696
2827 2696 2827
2827 2827 0
2827 2827 2197
2827 2827 2512
2827 2827 2696
2827 2827 2827
