Gems/AtomLyIntegration/CommonFeatures/Tools/ColorGrading/LUTs/invLog2_48_nits_Shaper_to_linear.3dl
0 64 128 192 256 320 384 448 512 575 639 703 767 831 895 959 1023
0 0 0
0 0 1567
0 0 1882
0 0 2066
0 0 2197
0 0 2298
0 0 2381
0 0 2451
0 0 2512
0 0 2565
0 0 2613
0 0 2657
0 0 2696
0 0 2732
0 0 2766
0 0 2797
0 0 2827
0 1567 0
0 1567 1567
0 1567 1882
0 1567 2066
0 1567 2197
0 1567 2298
0 1567 2381
0 1567 2451
0 1567 2512
0 1567 2565
0 1567 2613
0 1567 2657
0 1567 2696
0 1567 2732
0 1567 2766
0 1567 2797
0 1567 2827
0 1882 0
0 1882 1567
0 1882 1882
0 1882 2066
0 1882 2197
0 1882 2298
0 1882 2381
0 1882 2451
0 1882 2512
0 1882 2565
0 1882 2613
0 1882 2657
0 1882 2696
0 1882 2732
0 1882 2766
0 1882 2797
0 1882 2827
0 2066 0
0 2066 1567
0 2066 1882
0 2066 2066
0 2066 2197
0 2066 2298
0 2066 2381
0 2066 2451
0 2066 2512
0 2066 2565
0 2066 2613
0 2066 2657
0 2066 2696
0 2066 2732
0 2066 2766
0 2066 2797
0 2066 2827
0 2197 0
0 2197 1567
0 2197 1882
0 2197 2066
0 2197 2197
0 2197 2298
0 2197 2381
0 2197 2451
0 2197 2512
0 2197 2565
0 2197 2613
0 2197 2657
0 2197 2696
0 2197 2732
0 2197 2766
0 2197 2797
0 2197 2827
0 2298 0
0 2298 1567
0 2298 1882
0 2298 2066
0 2298 2197
0 2298 2298
0 2298 2381
0 2298 2451
0 2298 2512
0 2298 2565
0 2298 2613
0 2298 2657
0 2298 2696
0 2298 2732
0 2298 2766
0 2298 2797
0 2298 2827
0 2381 0
0 2381 1567
0 2381 1882
0 2381 2066
0 2381 2197
0 2381 2298
0 2381 2381
0 2381 2451
0 2381 2512
0 2381 2565
0 2381 2613
0 2381 2657
0 2381 2696
0 2381 2732
0 2381 2766
0 2381 2797
0 2381 2827
0 2451 0
0 2451 1567
0 2451 1882
0 2451 2066
0 2451 2197
0 2451 2298
0 2451 2381
0 2451 2451
0 2451 2512
0 2451 2565
0 2451 2613
0 2451 2657
0 2451 2696
0 2451 2732
0 2451 2766
0 2451 2797
0 2451 2827
0 2512 0
0 2512 1567
0 2512 1882
0 2512 2066
0 2512 2197
0 2512 2298
0 2512 2381
0 2512 2451
0 2512 2512
0 2512 2565
0 2512 2613
0 2512 2657
0 2512 2696
0 2512 2732
0 2512 2766
0 2512 2797
0 2512 2827
0 2565 0
0 2565 1567
0 2565 1882
0 2565 2066
0 2565 2197
0 2565 2298
0 2565 2381
0 2565 2451
0 2565 2512
0 2565 2565
0 2565 2613
0 2565 2657
0 2565 2696
0 2565 2732
0 2565 2766
0 2565 2797
0 2565 2827
0 2613 0
0 2613 1567
0 2613 1882
0 2613 2066
0 2613 2197
0 2613 2298
0 2613 2381
0 2613 2451
0 2613 2512
0 2613 2565
0 2613 2613
0 2613 2657
0 2613 2696
0 2613 2732
0 2613 2766
0 2613 2797
0 2613 2827
0 2657 0
0 2657 1567
0 2657 1882
0 2657 2066
0 2657 2197
0 2657 2298
0 2657 2381
0 2657 2451
0 2657 2512
0 2657 2565
0 2657 2613
0 2657 2657
0 2657 2696
0 2657 2732
0 2657 2766
0 2657 2797
0 2657 2827
0 2696 0
0 2696 1567
0 2696 1882
0 2696 2066
0 2696 2197
0 2696 2298
0 2696 2381
0 2696 2451
0 2696 2512
0 2696 2565
0 2696 2613
0 2696 2657
0 2696 2696
0 2696 2732
0 2696 2766
0 2696 2797
0 2696 2827
0 2732 0
0 2732 1567
0 2732 1882
0 2732 2066
0 2732 2197
0 2732 2298
0 2732 2381
0 2732 2451
0 2732 2512
0 2732 2565
0 2732 2613
0 2732 2657
0 2732 2696
0 2732 2732
0 2732 2766
0 2732 2797
0 2732 2827
0 2766 0
0 2766 1567
0 2766 1882
0 2766 2066
0 2766 2197
0 2766 2298
0 2766 2381
0 2766 2451
0 2766 2512
0 2766 2565
0 2766 2613
0 2766 2657
0 2766 2696
0 2766 2732
0 2766 2766
0 2766 2797
0 2766 2827
0 2797 0
0 2797 1567
0 2797 1882
0 2797 2066
0 2797 2197
0 2797 2298
0 2797 2381
0 2797 2451
0 2797 2512
0 2797 2565
0 2797 2613
0 2797 2657
0 2797 2696
0 2797 2732
0 2797 2766
0 2797 2797
0 2797 2827
0 2827 0
0 2827 1567
0 2827 1882
0 2827 2066
0 2827 2197
0 2827 2298
0 2827 2381
0 2827 2451
0 2827 2512
0 2827 2565
0 2827 2613
0 2827 2657
0 2827 2696
0 2827 2732
0 2827 2766
0 2827 2797
0 2827 2827
1567 0 0
1567 0 1567
1567 0 1882
1567 0 2066
1567 0 2197
1567 0 2298
1567 0 2381
1567 0 2451
1567 0 2512
1567 0 2565
1567 0 2613
1567 0 2657
1567 0 2696
1567 0 2732
1567 0 2766
1567 0 2797
1567 0 2827
1567 1567 0
1567 1567 1567
1567 1567 1882
1567 1567 2066
1567 1567 2197
1567 1567 2298
1567 1567 2381
1567 1567 2451
1567 1567 2512
1567 1567 2565
1567 1567 2613
1567 1567 2657
1567 1567 2696
1567 1567 2732
1567 1567 2766
1567 1567 2797
1567 1567 2827
1567 1882 0
1567 1882 1567
1567 1882 1882
1567 1882 2066
1567 1882 2197
1567 1882 2298
1567 1882 2381
1567 1882 2451
1567 1882 2512
1567 1882 2565
1567 1882 2613
1567 1882 2657
1567 1882 2696
1567 1882 2732
1567 1882 2766
1567 1882 2797
1567 1882 2827
1567 2066 0
1567 2066 1567
1567 2066 1882
1567 2066 2066
1567 2066 2197
1567 2066 2298
1567 2066 2381
1567 2066 2451
1567 2066 2512
1567 2066 2565
1567 2066 2613
1567 2066 2657
1567 2066 2696
1567 2066 2732
1567 2066 2766
1567 2066 2797
1567 2066 2827
1567 2197 0
1567 2197 1567
1567 2197 1882
1567 2197 2066
1567 2197 2197
1567 2197 2298
1567 2197 2381
1567 2197 2451
1567 2197 2512
1567 2197 2565
1567 2197 2613
1567 2197 2657
1567 2197 2696
1567 2197 2732
1567 2197 2766
1567 2197 2797
1567 2197 2827
1567 2298 0
1567 2298 1567
1567 2298 1882
1567 2298 2066
1567 2298 2197
1567 2298 2298
1567 2298 2381
1567 2298 2451
1567 2298 2512
1567 2298 2565
1567 2298 2613
1567 2298 2657
1567 2298 2696
1567 2298 2732
1567 2298 2766
1567 2298 2797
1567 2298 2827
1567 2381 0
1567 2381 1567
1567 2381 1882
1567 2381 2066
1567 2381 2197
1567 2381 2298
1567 2381 2381
1567 2381 2451
1567 2381 2512
1567 2381 2565
1567 2381 2613
1567 2381 2657
1567 2381 2696
1567 2381 2732
1567 2381 2766
1567 2381 2797
1567 2381 2827
1567 2451 0
1567 2451 1567
1567 2451 1882
1567 2451 2066
1567 2451 2197
1567 2451 2298
1567 2451 2381
1567 2451 2451
1567 2451 2512
1567 2451 2565
1567 2451 2613
1567 2451 2657
1567 2451 2696
1567 2451 2732
1567 2451 2766
1567 2451 2797
1567 2451 2827
1567 2512 0
1567 2512 1567
1567 2512 1882
1567 2512 2066
1567 2512 2197
1567 2512 2298
1567 2512 2381
1567 2512 2451
1567 2512 2512
1567 2512 2565
1567 2512 2613
1567 2512 2657
1567 2512 2696
1567 2512 2732
1567 2512 2766
1567 2512 2797
1567 2512 2827
1567 2565 0
1567 2565 1567
1567 2565 1882
1567 2565 2066
1567 2565 2197
1567 2565 2298
1567 2565 2381
1567 2565 2451
1567 2565 2512
1567 2565 2565
1567 2565 2613
1567 2565 2657
1567 2565 2696
1567 2565 2732
1567 2565 2766
1567 2565 2797
1567 2565 2827
1567 2613 0
1567 2613 1567
1567 2613 1882
1567 2613 2066
1567 2613 2197
1567 2613 2298
1567 2613 2381
1567 2613 2451
1567 2613 2512
1567 2613 2565
1567 2613 2613
1567 2613 2657
1567 2613 2696
1567 2613 2732
1567 2613 2766
1567 2613 2797
1567 2613 2827
1567 2657 0
1567 2657 1567
1567 2657 1882
1567 2657 2066
1567 2657 2197
1567 2657 2298
1567 2657 2381
1567 2657 2451
1567 2657 2512
1567 2657 2565
1567 2657 2613
1567 2657 2657
1567 2657 2696
1567 2657 2732
1567 2657 2766
1567 2657 2797
1567 2657 2827
1567 2696 0
1567 2696 1567
1567 2696 1882
1567 2696 2066
1567 2696 2197
1567 2696 2298
1567 2696 2381
1567 2696 2451
1567 2696 2512
1567 2696 2565
1567 2696 2613
1567 2696 2657
1567 2696 2696
1567 2696 2732
1567 2696 2766
1567 2696 2797
1567 2696 2827
1567 2732 0
1567 2732 1567
1567 2732 1882
1567 2732 2066
1567 2732 2197
1567 2732 2298
1567 2732 2381
1567 2732 2451
1567 2732 2512
1567 2732 2565
1567 2732 2613
1567 2732 2657
1567 2732 2696
1567 2732 2732
1567 2732 2766
1567 2732 2797
1567 2732 2827
1567 2766 0
1567 2766 1567
1567 2766 1882
1567 2766 2066
1567 2766 2197
1567 2766 2298
1567 2766 2381
1567 2766 2451
1567 2766 2512
1567 2766 2565
1567 2766 2613
1567 2766 2657
1567 2766 2696
1567 2766 2732
1567 2766 2766
1567 2766 2797
1567 2766 2827
1567 2797 0
1567 2797 1567
1567 2797 1882
1567 2797 2066
1567 2797 2197
1567 2797 2298
1567 2797 2381
1567 2797 2451
1567 2797 2512
1567 2797 2565
1567 2797 2613
1567 2797 2657
1567 2797 2696
1567 2797 2732
1567 2797 2766
1567 2797 2797
1567 2797 2827
1567 2827 0
1567 2827 1567
1567 2827 1882
1567 2827 2066
1567 2827 2197
1567 2827 2298
1567 2827 2381
1567 2827 2451
1567 2827 2512
1567 2827 2565
1567 2827 2613
1567 2827 2657
1567 2827 2696
1567 2827 2732
1567 2827 2766
1567 2827 2797
1567 2827 2827
1882 0 0
1882 0 1567
1882 0 1882
1882 0 2066
1882 0 2197
1882 0 2298
1882 0 2381
1882 0 2451
1882 0 2512
1882 0 2565
1882 0 2613
1882 0 2657
1882 0 2696
1882 0 2732
1882 0 2766
1882 0 2797
1882 0 2827
1882 1567 0
1882 1567 1567
1882 1567 1882
1882 1567 2066
1882 1567 2197
1882 1567 2298
1882 1567 2381
1882 1567 2451
1882 1567 2512
1882 1567 2565
1882 1567 2613
1882 1567 2657
1882 1567 2696
1882 1567 2732
1882 1567 2766
1882 1567 2797
1882 1567 2827
1882 1882 0
1882 1882 1567
1882 1882 1882
1882 1882 2066
1882 1882 2197
1882 1882 2298
1882 1882 2381
1882 1882 2451
1882 1882 2512
1882 1882 2565
1882 1882 2613
1882 1882 2657
1882 1882 2696
1882 1882 2732
1882 1882 2766
1882 1882 2797
1882 1882 2827
1882 2066 0
1882 2066 1567
1882 2066 1882
1882 2066 2066
1882 2066 2197
1882 2066 2298
1882 2066 2381
1882 2066 2451
1882 2066 2512
1882 2066 2565
1882 2066 2613
1882 2066 2657
1882 2066 2696
1882 2066 2732
1882 2066 2766
1882 2066 2797
1882 2066 2827
1882 2197 0
1882 2197 1567
1882 2197 1882
1882 2197 2066
1882 2197 2197
1882 2197 2298
1882 2197 2381
1882 2197 2451
1882 2197 2512
1882 2197 2565
1882 2197 2613
1882 2197 2657
1882 2197 2696
1882 2197 2732
1882 2197 2766
1882 2197 2797
1882 2197 2827
1882 2298 0
1882 2298 1567
1882 2298 1882
1882 2298 2066
1882 2298 2197
1882 2298 2298
1882 2298 2381
1882 2298 2451
1882 2298 2512
1882 2298 2565
1882 2298 2613
1882 2298 2657
1882 2298 2696
1882 2298 2732
1882 2298 2766
1882 2298 2797
1882 2298 2827
1882 2381 0
1882 2381 1567
1882 2381 1882
1882 2381 2066
1882 2381 2197
1882 2381 2298
1882 2381 2381
1882 2381 2451
1882 2381 2512
1882 2381 2565
1882 2381 2613
1882 2381 2657
1882 2381 2696
1882 2381 2732
1882 2381 2766
1882 2381 2797
1882 2381 2827
1882 2451 0
1882 2451 1567
1882 2451 1882
1882 2451 2066
1882 2451 2197
1882 2451 2298
1882 2451 2381
1882 2451 2451
1882 2451 2512
1882 2451 2565
1882 2451 2613
1882 2451 2657
1882 2451 2696
1882 2451 2732
1882 2451 2766
1882 2451 2797
1882 2451 2827
1882 2512 0
1882 2512 1567
1882 2512 1882
1882 2512 2066
1882 2512 2197
1882 2512 2298
1882 2512 2381
1882 2512 2451
1882 2512 2512
1882 2512 2565
1882 2512 2613
1882 2512 2657
1882 2512 2696
1882 2512 2732
1882 2512 2766
1882 2512 2797
1882 2512 2827
1882 2565 0
1882 2565 1567
1882 2565 1882
1882 2565 2066
1882 2565 2197
1882 2565 2298
1882 2565 2381
1882 2565 2451
1882 2565 2512
1882 2565 2565
1882 2565 2613
1882 2565 2657
1882 2565 2696
1882 2565 2732
1882 2565 2766
1882 2565 2797
1882 2565 2827
1882 2613 0
1882 2613 1567
1882 2613 1882
1882 2613 2066
1882 2613 2197
1882 2613 2298
1882 2613 2381
1882 2613 2451
1882 2613 2512
1882 2613 2565
1882 2613 2613
1882 2613 2657
1882 2613 2696
1882 2613 2732
1882 2613 2766
1882 2613 2797
1882 2613 2827
1882 2657 0
1882 2657 1567
1882 2657 1882
1882 2657 2066
1882 2657 2197
1882 2657 2298
1882 2657 2381
1882 2657 2451
1882 2657 2512
1882 2657 2565
1882 2657 2613
1882 2657 2657
1882 2657 2696
1882 2657 2732
1882 2657 2766
1882 2657 2797
1882 2657 2827
1882 2696 0
1882 2696 1567
1882 2696 1882
1882 2696 2066
1882 2696 2197
1882 2696 2298
1882 2696 2381
1882 2696 2451
1882 2696 2512
1882 2696 2565
1882 2696 2613
1882 2696 2657
1882 2696 2696
1882 2696 2732
1882 2696 2766
1882 2696 2797
1882 2696 2827
1882 2732 0
1882 2732 1567
1882 2732 1882
1882 2732 2066
1882 2732 2197
1882 2732 2298
1882 2732 2381
1882 2732 2451
1882 2732 2512
1882 2732 2565
1882 2732 2613
1882 2732 2657
1882 2732 2696
1882 2732 2732
1882 2732 2766
1882 2732 2797
1882 2732 2827
1882 2766 0
1882 2766 1567
1882 2766 1882
1882 2766 2066
1882 2766 2197
1882 2766 2298
1882 2766 2381
1882 2766 2451
1882 2766 2512
1882 2766 2565
1882 2766 2613
1882 2766 2657
1882 2766 2696
1882 2766 2732
1882 2766 2766
1882 2766 2797
1882 2766 2827
1882 2797 0
1882 2797 1567
1882 2797 1882
1882 2797 2066
1882 2797 2197
1882 2797 2298
1882 2797 2381
1882 2797 2451
1882 2797 2512
1882 2797 2565
1882 2797 2613
1882 2797 2657
1882 2797 2696
1882 2797 2732
1882 2797 2766
1882 2797 2797
1882 2797 2827
1882 2827 0
1882 2827 1567
1882 2827 1882
1882 2827 2066
1882 2827 2197
1882 2827 2298
1882 2827 2381
1882 2827 2451
1882 2827 2512
1882 2827 2565
1882 2827 2613
1882 2827 2657
1882 2827 2696
1882 2827 2732
1882 2827 2766
1882 2827 2797
1882 2827 2827
2066 0 0
2066 0 1567
2066 0 1882
2066 0 2066
2066 0 2197
2066 0 2298
2066 0 2381
2066 0 2451
2066 0 2512
2066 0 2565
2066 0 2613
2066 0 2657
2066 0 2696
2066 0 2732
2066 0 2766
2066 0 2797
2066 0 2827
2066 1567 0
2066 1567 1567
2066 1567 1882
2066 1567 2066
2066 1567 2197
2066 1567 2298
2066 1567 2381
2066 1567 2451
2066 1567 2512
2066 1567 2565
2066 1567 2613
2066 1567 2657
2066 1567 2696
2066 1567 2732
2066 1567 2766
2066 1567 2797
