Gems/AtomLyIntegration/CommonFeatures/Tools/ColorGrading/LUTs/invLog2_48_nits_Shaper_to_linear.3dl
0 128 256 384 512 639 767 895 1023
0 0 0
0 0 1882
0 0 2197
0 0 2381
0 0 2512
0 0 2613
0 0 2696
0 0 2766
0 0 2827
0 1882 0
0 1882 1882
0 1882 2197
0 1882 2381
0 1882 2512
0 1882 2613
0 1882 2696
0 1882 2766
0 1882 2827
0 2197 0
0 2197 1882
0 2197 2197
0 2197 2381
0 2197 2512
0 2197 2613
0 2197 2696
0 2197 2766
0 2197 2827
0 2381 0
0 2381 1882
0 2381 2197
0 2381 2381
0 2381 2512
0 2381 2613
0 2381 2696
0 2381 2766
0 2381 2827
0 2512 0
0 2512 1882
0 2512 2197
0 2512 2381
0 2512 2512
0 2512 2613
0 2512 2696
0 2512 2766
0 2512 2827
0 2613 0
0 2613 1882
0 2613 2197
0 2613 2381
0 2613 2512
0 2613 2613
0 2613 2696
0 2613 2766
0 2613 2827
0 2696 0
0 2696 1882
0 2696 2197
0 2696 2381
0 2696 2512
0 2696 2613
0 2696 2696
0 2696 2766
0 2696 2827
0 2766 0
0 2766 1882
0 2766 2197
0 2766 2381
0 2766 2512
0 2766 2613
0 2766 2696
0 2766 2766
0 2766 2827
0 2827 0
0 2827 1882
0 2827 2197
0 2827 2381
0 2827 2512
0 2827 2613
0 2827 2696
0 2827 2766
0 2827 2827
1882 0 0
1882 0 1882
1882 0 2197
1882 0 2381
1882 0 2512
1882 0 2613
1882 0 2696
1882 0 2766
1882 0 2827
1882 1882 0
1882 1882 1882
1882 1882 2197
1882 1882 2381
1882 1882 2512
1882 1882 2613
1882 1882 2696
1882 1882 2766
1882 1882 2827
1882 2197 0
1882 2197 1882
1882 2197 2197
1882 2197 2381
1882 2197 2512
1882 2197 2613
1882 2197 2696
1882 2197 2766
1882 2197 2827
1882 2381 0
1882 2381 1882
1882 2381 2197
1882 2381 2381
1882 2381 2512
1882 2381 2613
1882 2381 2696
1882 2381 2766
1882 2381 2827
1882 2512 0
1882 2512 1882
1882 2512 2197
1882 2512 2381
1882 2512 2512
1882 2512 2613
1882 2512 2696
1882 2512 2766
1882 2512 2827
1882 2613 0
1882 2613 1882
1882 2613 2197
1882 2613 2381
1882 2613 2512
1882 2613 2613
1882 2613 2696
1882 2613 2766
1882 2613 2827
1882 2696 0
1882 2696 1882
1882 2696 2197
1882 2696 2381
1882 2696 2512
1882 2696 2613
1882 2696 2696
1882 2696 2766
1882 2696 2827
1882 2766 0
1882 2766 1882
1882 2766 2197
1882 2766 2381
1882 2766 2512
1882 2766 2613
1882 2766 2696
1882 2766 2766
1882 2766 2827
1882 2827 0
1882 2827 1882
1882 2827 2197
1882 2827 2381
1882 2827 2512
1882 2827 2613
1882 2827 2696
1882 2827 2766
1882 2827 2827
2197 0 0
2197 0 1882
2197 0 2197
2197 0 2381
2197 0 2512
2197 0 2613
2197 0 2696
2197 0 2766
2197 0 2827
2197 1882 0
2197 1882 1882
2197 1882 2197
2197 1882 2381
2197 1882 2512
2197 1882 2613
2197 1882 2696
2197 1882 2766
2197 1882 2827
2197 2197 0
2197 2197 1882
2197 2197 2197
2197 2197 2381
2197 2197 2512
2197 2197 2613
2197 2197 2696
2197 2197 2766
2197 2197 2827
2197 2381 0
2197 2381 1882
2197 2381 2197
2197 2381 2381
2197 2381 2512
2197 2381 2613
2197 2381 2696
2197 2381 2766
2197 2381 2827
2197 2512 0
2197 2512 1882
2197 2512 2197
2197 2512 2381
2197 2512 2512
2197 2512 2613
2197 2512 2696
2197 2512 2766
2197 2512 2827
2197 2613 0
2197 2613 1882
2197 2613 2197
2197 2613 2381
2197 2613 2512
2197 2613 2613
2197 2613 2696
2197 2613 2766
2197 2613 2827
2197 2696 0
2197 2696 1882
2197 2696 2197
2197 2696 2381
2197 2696 2512
2197 2696 2613
2197 2696 2696
2197 2696 2766
2197 2696 2827
2197 2766 0
2197 2766 1882
2197 2766 2197
2197 2766 2381
2197 2766 2512
2197 2766 2613
2197 2766 2696
2197 2766 2766
2197 2766 2827
2197 2827 0
2197 2827 1882
2197 2827 2197
2197 2827 2381
2197 2827 2512
2197 2827 2613
2197 2827 2696
2197 2827 2766
2197 2827 2827
2381 0 0
2381 0 1882
2381 0 2197
2381 0 2381
2381 0 2512
2381 0 2613
2381 0 2696
2381 0 2766
2381 0 2827
2381 1882 0
2381 1882 1882
2381 1882 2197
2381 1882 2381
2381 1882 2512
2381 1882 2613
2381 1882 2696
2381 1882 2766
2381 1882 2827
2381 2197 0
2381 2197 1882
2381 2197 2197
2381 2197 2381
2381 2197 2512
2381 2197 2613
2381 2197 2696
2381 2197 2766
2381 2197 2827
2381 2381 0
2381 2381 1882
2381 2381 2197
2381 2381 2381
2381 2381 2512
2381 2381 2613
2381 2381 2696
2381 2381 2766
2381 2381 2827
2381 2512 0
2381 2512 1882
2381 2512 2197
2381 2512 2381
2381 2512 2512
2381 2512 2613
2381 2512 2696
2381 2512 2766
2381 2512 2827
2381 2613 0
2381 2613 1882
2381 2613 2197
2381 2613 2381
2381 2613 2512
2381 2613 2613
2381 2613 2696
2381 2613 2766
2381 2613 2827
2381 2696 0
2381 2696 1882
2381 2696 2197
2381 2696 2381
2381 2696 2512
2381 2696 2613
2381 2696 2696
2381 2696 2766
2381 2696 2827
2381 2766 0
2381 2766 1882
2381 2766 2197
2381 2766 2381
2381 2766 2512
2381 2766 2613
2381 2766 2696
2381 2766 2766
2381 2766 2827
2381 2827 0
2381 2827 1882
2381 2827 2197
2381 2827 2381
2381 2827 2512
2381 2827 2613
2381 2827 2696
2381 2827 2766
2381 2827 2827
2512 0 0
2512 0 1882
2512 0 2197
2512 0 2381
2512 0 2512
2512 0 2613
2512 0 2696
2512 0 2766
2512 0 2827
2512 1882 0
2512 1882 1882
2512 1882 2197
2512 1882 2381
2512 1882 2512
2512 1882 2613
2512 1882 2696
2512 1882 2766
2512 1882 2827
2512 2197 0
2512 2197 1882
2512 2197 2197
2512 2197 2381
2512 2197 2512
2512 2197 2613
2512 2197 2696
2512 2197 2766
2512 2197 2827
2512 2381 0
2512 2381 1882
2512 2381 2197
2512 2381 2381
2512 2381 2512
2512 2381 2613
2512 2381 2696
2512 2381 2766
2512 2381 2827
2512 2512 0
2512 2512 1882
2512 2512 2197
2512 2512 2381
2512 2512 2512
2512 2512 2613
2512 2512 2696
2512 2512 2766
2512 2512 2827
2512 2613 0
2512 2613 1882
2512 2613 2197
2512 2613 2381
2512 2613 2512
2512 2613 2613
2512 2613 2696
2512 2613 2766
2512 2613 2827
2512 2696 0
2512 2696 1882
2512 2696 2197
2512 2696 2381
2512 2696 2512
2512 2696 2613
2512 2696 2696
2512 2696 2766
2512 2696 2827
2512 2766 0
2512 2766 1882
2512 2766 2197
2512 2766 2381
2512 2766 2512
2512 2766 2613
2512 2766 2696
2512 2766 2766
2512 2766 2827
2512 2827 0
2512 2827 1882
2512 2827 2197
2512 2827 2381
2512 2827 2512
2512 2827 2613
2512 2827 2696
2512 2827 2766
2512 2827 2827
2613 0 0
2613 0 1882
2613 0 2197
2613 0 2381
2613 0 2512
2613 0 2613
2613 0 2696
2613 0 2766
2613 0 2827
2613 1882 0
2613 1882 1882
2613 1882 2197
2613 1882 2381
2613 1882 2512
2613 1882 2613
2613 1882 2696
2613 1882 2766
2613 1882 2827
2613 2197 0
2613 2197 1882
2613 2197 2197
2613 2197 2381
2613 2197 2512
2613 2197 2613
2613 2197 2696
2613 2197 2766
2613 2197 2827
2613 2381 0
2613 2381 1882
2613 2381 2197
2613 2381 2381
2613 2381 2512
2613 2381 2613
2613 2381 2696
2613 2381 2766
2613 2381 2827
2613 2512 0
2613 2512 1882
2613 2512 2197
2613 2512 2381
2613 2512 2512
2613 2512 2613
2613 2512 2696
2613 2512 2766
2613 2512 2827
2613 2613 0
2613 2613 1882
2613 2613 2197
2613 2613 2381
2613 2613 2512
2613 2613 2613
2613 2613 2696
2613 2613 2766
2613 2613 2827
2613 2696 0
2613 2696 1882
2613 2696 2197
2613 2696 2381
2613 2696 2512
2613 2696 2613
2613 2696 2696
2613 2696 2766
2613 2696 2827
2613 2766 0
2613 2766 1882
2613 2766 2197
2613 2766 2381
2613 2766 2512
2613 2766 2613
2613 2766 2696
2613 2766 2766
2613 2766 2827
2613 2827 0
2613 2827 1882
2613 2827 2197
2613 2827 2381
2613 2827 2512
2613 2827 2613
2613 2827 2696
2613 2827 2766
2613 2827 2827
2696 0 0
2696 0 1882
2696 0 2197
2696 0 2381
2696 0 2512
2696 0 2613
2696 0 2696
2696 0 2766
2696 0 2827
2696 1882 0
2696 1882 1882
2696 1882 2197
2696 1882 2381
2696 1882 2512
2696 1882 2613
2696 1882 2696
2696 1882 2766
2696 1882 2827
2696 2197 0
2696 2197 1882
2696 2197 2197
2696 2197 2381
2696 2197 2512
2696 2197 2613
2696 2197 2696
2696 2197 2766
2696 2197 2827
2696 2381 0
2696 2381 1882
2696 2381 2197
2696 2381 2381
2696 2381 2512
2696 2381 2613
2696 2381 2696
2696 2381 2766
2696 2381 2827
2696 2512 0
2696 2512 1882
2696 2512 2197
2696 2512 2381
2696 2512 2512
2696 2512 2613
2696 2512 2696
2696 2512 2766
2696 2512 2827
2696 2613 0
2696 2613 1882
2696 2613 2197
2696 2613 2381
2696 2613 2512
2696 2613 2613
2696 2613 2696
2696 2613 2766
2696 2613 2827
2696 2696 0
2696 2696 1882
2696 2696 2197
2696 2696 2381
2696 2696 2512
2696 2696 2613
2696 2696 2696
2696 2696 2766
2696 2696 2827
2696 2766 0
2696 2766 1882
2696 2766 2197
2696 2766 2381
2696 2766 2512
2696 2766 2613
2696 2766 2696
2696 2766 2766
2696 2766 2827
2696 2827 0
2696 2827 1882
2696 2827 2197
2696 2827 2381
2696 2827 2512
2696 2827 2613
2696 2827 2696
2696 2827 2766
2696 2827 2827
2766 0 0
2766 0 1882
2766 0 2197
2766 0 2381
2766 0 2512
2766 0 2613
2766 0 2696
2766 0 2766
2766 0 2827
2766 1882 0
2766 1882 1882
2766 1882 2197
2766 1882 2381
2766 1882 2512
2766 1882 2613
2766 1882 2696
2766 1882 2766
2766 1882 2827
2766 2197 0
2766 2197 1882
2766 2197 2197
2766 2197 2381
2766 2197 2512
2766 2197 2613
2766 2197 2696
2766 2197 2766
2766 2197 2827
2766 2381 0
2766 2381 1882
2766 2381 2197
2766 2381 2381
2766 2381 2512
2766 2381 2613
2766 2381 2696
2766 2381 2766
2766 2381 2827
2766 2512 0
2766 2512 1882
2766 2512 2197
2766 2512 2381
2766 2512 2512
2766 2512 2613
2766 2512 2696
2766 2512 2766
2766 2512 2827
2766 2613 0
2766 2613 1882
2766 2613 2197
2766 2613 2381
2766 2613 2512
2766 2613 2613
2766 2613 2696
2766 2613 2766
2766 2613 2827
2766 2696 0
2766 2696 1882
2766 2696 2197
2766 2696 2381
2766 2696 2512
2766 2696 2613
2766 2696 2696
2766 2696 2766
2766 2696 2827
2766 2766 0
2766 2766 1882
2766 2766 2197
2766 2766 2381
2766 2766 2512
2766 2766 2613
2766 2766 2696
2766 2766 2766
2766 2766 2827
2766 2827 0
2766 2827 1882
2766 2827 2197
2766 2827 2381
2766 2827 2512
2766 2827 2613
2766 2827 2696
2766 2827 2766
2766 2827 2827
2827 0 0
2827 0 1882
2827 0 2197
2827 0 2381
2827 0 2512
2827 0 2613
2827 0 2696
2827 0 2766
2827 0 2827
2827 1882 0
2827 1882 1882
2827 1882 2197
2827 1882 2381
2827 1882 2512
2827 1882 2613
2827 1882 2696
2827 1882 2766
2827 1882 2827
2827 2197 0
2827 2197 1882
2827 2197 2197
2827 2197 2381
2827 2197 2512
2827 2197 2613
2827 2197 2696
2827 2197 2766
2827 2197 2827
2827 2381 0
2827 2381 1882
2827 2381 2197
2827 2381 2381
2827 2381 2512
2827 2381 2613
2827 2381 2696
2827 2381 2766
2827 2381 2827
2827 2512 0
2827 2512 1882
2827 2512 2197
2827 2512 2381
2827 2512 2512
2827 2512 2613
2827 2512 2696
2827 2512 2766
2827 2512 2827
2827 2613 0
2827 2613 1882
2827 2613 2197
2827 2613 2381
2827 2613 2512
2827 2613 2613
2827 2613 2696
2827 2613 2766
2827 2613 2827
2827 2696 0
2827 2696 1882
2827 2696 2197
2827 2696 2381
2827 2696 2512
2827 2696 2613
2827 2696 2696
2827 2696 2766
2827 2696 2827
2827 2766 0
2827 2766 1882
2827 2766 2197
2827 2766 2381
2827 2766 2512
2827 2766 2613
2827 2766 2696
2827 2766 2766
2827 2766 2827
2827 2827 0
2827 2827 1882
2827 2827 2197
2827 2827 2381
2827 2827 2512
2827 2827 2613
2827 2827 2696
2827 2827 2766
2827 2827 2827
