Gems/AtomLyIntegration/CommonFeatures/Tools/ColorGrading/LUTs/Log2_48_nits_Shaper_to_linear.3dl
0 64 128 192 256 320 384 448 512 575 639 703 767 831 895 959 1023
8 8 8
8 8 14
8 8 25
8 8 44
8 8 77
8 8 136
8 8 239
8 8 420
8 8 737
8 8 1295
8 8 2274
8 8 3993
8 8 4095
8 8 4095
8 8 4095
8 8 4095
8 8 4095
8 14 8
8 14 14
8 14 25
8 14 44
8 14 77
8 14 136
8 14 239
8 14 420
8 14 737
8 14 1295
8 14 2274
8 14 3993
8 14 4095
8 14 4095
8 14 4095
8 14 4095
8 14 4095
8 25 8
8 25 14
8 25 25
8 25 44
8 25 77
8 25 136
8 25 239
8 25 420
8 25 737
8 25 1295
8 25 2274
8 25 3993
8 25 4095
8 25 4095
8 25 4095
8 25 4095
8 25 4095
8 44 8
8 44 14
8 44 25
8 44 44
8 44 77
8 44 136
8 44 239
8 44 420
8 44 737
8 44 1295
8 44 2274
8 44 3993
8 44 4095
8 44 4095
8 44 4095
8 44 4095
8 44 4095
8 77 8
8 77 14
8 77 25
8 77 44
8 77 77
8 77 136
8 77 239
8 77 420
8 77 737
8 77 1295
8 77 2274
8 77 3993
8 77 4095
8 77 4095
8 77 4095
8 77 4095
8 77 4095
8 136 8
8 136 14
8 136 25
8 136 44
8 136 77
8 136 136
8 136 239
8 136 420
8 136 737
8 136 1295
8 136 2274
8 136 3993
8 136 4095
8 136 4095
8 136 4095
8 136 4095
8 136 4095
8 239 8
8 239 14
8 239 25
8 239 44
8 239 77
8 239 136
8 239 239
8 239 420
8 239 737
8 239 1295
8 239 2274
8 239 3993
8 239 4095
8 239 4095
8 239 4095
8 239 4095
8 239 4095
8 420 8
8 420 14
8 420 25
8 420 44
8 420 77
8 420 136
8 420 239
8 420 420
8 420 737
8 420 1295
8 420 2274
8 420 3993
8 420 4095
8 420 4095
8 420 4095
8 420 4095
8 420 4095
8 737 8
8 737 14
8 737 25
8 737 44
8 737 77
8 737 136
8 737 239
8 737 420
8 737 737
8 737 1295
8 737 2274
8 737 3993
8 737 4095
8 737 4095
8 737 4095
8 737 4095
8 737 4095
8 1295 8
8 1295 14
8 1295 25
8 1295 44
8 1295 77
8 1295 136
8 1295 239
8 1295 420
8 1295 737
8 1295 1295
8 1295 2274
8 1295 3993
8 1295 4095
8 1295 4095
8 1295 4095
8 1295 4095
8 1295 4095
8 2274 8
8 2274 14
8 2274 25
8 2274 44
8 2274 77
8 2274 136
8 2274 239
8 2274 420
8 2274 737
8 2274 1295
8 2274 2274
8 2274 3993
8 2274 4095
8 2274 4095
8 2274 4095
8 2274 4095
8 2274 4095
8 3993 8
8 3993 14
8 3993 25
8 3993 44
8 3993 77
8 3993 136
8 3993 239
8 3993 420
8 3993 737
8 3993 1295
8 3993 2274
8 3993 3993
8 3993 4095
8 3993 4095
8 3993 4095
8 3993 4095
8 3993 4095
8 4095 8
8 4095 14
8 4095 25
8 4095 44
8 4095 77
8 4095 136
8 4095 239
8 4095 420
8 4095 737
8 4095 1295
8 4095 2274
8 4095 3993
8 4095 4095
8 4095 4095
8 4095 4095
8 4095 4095
8 4095 4095
8 4095 8
8 4095 14
8 4095 25
8 4095 44
8 4095 77
8 4095 136
8 4095 239
8 4095 420
8 4095 737
8 4095 1295
8 4095 2274
8 4095 3993
8 4095 4095
8 4095 4095
8 4095 4095
8 4095 4095
8 4095 4095
8 4095 8
8 4095 14
8 4095 25
8 4095 44
8 4095 77
8 4095 136
8 4095 239
8 4095 420
8 4095 737
8 4095 1295
8 4095 2274
8 4095 3993
8 4095 4095
8 4095 4095
8 4095 4095
8 4095 4095
8 4095 4095
8 4095 8
8 4095 14
8 4095 25
8 4095 44
8 4095 77
8 4095 136
8 4095 239
8 4095 420
8 4095 737
8 4095 1295
8 4095 2274
8 4095 3993
8 4095 4095
8 4095 4095
8 4095 4095
8 4095 4095
8 4095 4095
8 4095 8
8 4095 14
8 4095 25
8 4095 44
8 4095 77
8 4095 136
8 4095 239
8 4095 420
8 4095 737
8 4095 1295
8 4095 2274
8 4095 3993
8 4095 4095
8 4095 4095
8 4095 4095
8 4095 4095
8 4095 4095
14 8 8
14 8 14
14 8 25
14 8 44
14 8 77
14 8 136
14 8 239
14 8 420
14 8 737
14 8 1295
14 8 2274
14 8 3993
14 8 4095
14 8 4095
14 8 4095
14 8 4095
14 8 4095
14 14 8
14 14 14
14 14 25
14 14 44
14 14 77
14 14 136
14 14 239
14 14 420
14 14 737
14 14 1295
14 14 2274
14 14 3993
14 14 4095
14 14 4095
14 14 4095
14 14 4095
14 14 4095
14 25 8
14 25 14
14 25 25
14 25 44
14 25 77
14 25 136
14 25 239
14 25 420
14 25 737
14 25 1295
14 25 2274
14 25 3993
14 25 4095
14 25 4095
14 25 4095
14 25 4095
14 25 4095
14 44 8
14 44 14
14 44 25
14 44 44
14 44 77
14 44 136
14 44 239
14 44 420
14 44 737
14 44 1295
14 44 2274
14 44 3993
14 44 4095
14 44 4095
14 44 4095
14 44 4095
14 44 4095
14 77 8
14 77 14
14 77 25
14 77 44
14 77 77
14 77 136
14 77 239
14 77 420
14 77 737
14 77 1295
14 77 2274
14 77 3993
14 77 4095
14 77 4095
14 77 4095
14 77 4095
14 77 4095
14 136 8
14 136 14
14 136 25
14 136 44
14 136 77
14 136 136
14 136 239
14 136 420
14 136 737
14 136 1295
14 136 2274
14 136 3993
14 136 4095
14 136 4095
14 136 4095
14 136 4095
14 136 4095
14 239 8
14 239 14
14 239 25
14 239 44
14 239 77
14 239 136
14 239 239
14 239 420
14 239 737
14 239 1295
14 239 2274
14 239 3993
14 239 4095
14 239 4095
14 239 4095
14 239 4095
14 239 4095
14 420 8
14 420 14
14 420 25
14 420 44
14 420 77
14 420 136
14 420 239
14 420 420
14 420 737
14 420 1295
14 420 2274
14 420 3993
14 420 4095
14 420 4095
14 420 4095
14 420 4095
14 420 4095
14 737 8
14 737 14
14 737 25
14 737 44
14 737 77
14 737 136
14 737 239
14 737 420
14 737 737
14 737 1295
14 737 2274
14 737 3993
14 737 4095
14 737 4095
14 737 4095
14 737 4095
14 737 4095
14 1295 8
14 1295 14
14 1295 25
14 1295 44
14 1295 77
14 1295 136
14 1295 239
14 1295 420
14 1295 737
14 1295 1295
14 1295 2274
14 1295 3993
14 1295 4095
14 1295 4095
14 1295 4095
14 1295 4095
14 1295 4095
14 2274 8
14 2274 14
14 2274 25
14 2274 44
14 2274 77
14 2274 136
14 2274 239
14 2274 420
14 2274 737
14 2274 1295
14 2274 2274
14 2274 3993
14 2274 4095
14 2274 4095
14 2274 4095
14 2274 4095
14 2274 4095
14 3993 8
14 3993 14
14 3993 25
14 3993 44
14 3993 77
14 3993 136
14 3993 239
14 3993 420
14 3993 737
14 3993 1295
14 3993 2274
14 3993 3993
14 3993 4095
14 3993 4095
14 3993 4095
14 3993 4095
14 3993 4095
14 4095 8
14 4095 14
14 4095 25
14 4095 44
14 4095 77
14 4095 136
14 4095 239
14 4095 420
14 4095 737
14 4095 1295
14 4095 2274
14 4095 3993
14 4095 4095
14 4095 4095
14 4095 4095
14 4095 4095
14 4095 4095
14 4095 8
14 4095 14
14 4095 25
14 4095 44
14 4095 77
14 4095 136
14 4095 239
14 4095 420
14 4095 737
14 4095 1295
14 4095 2274
14 4095 3993
14 4095 4095
14 4095 4095
14 4095 4095
14 4095 4095
14 4095 4095
14 4095 8
14 4095 14
14 4095 25
14 4095 44
14 4095 77
14 4095 136
14 4095 239
14 4095 420
14 4095 737
14 4095 1295
14 4095 2274
14 4095 3993
14 4095 4095
14 4095 4095
14 4095 4095
14 4095 4095
14 4095 4095
14 4095 8
14 4095 14
14 4095 25
14 4095 44
14 4095 77
14 4095 136
14 4095 239
14 4095 420
14 4095 737
14 4095 1295
14 4095 2274
14 4095 3993
14 4095 4095
14 4095 4095
14 4095 4095
14 4095 4095
14 4095 4095
14 4095 8
14 4095 14
14 4095 25
14 4095 44
14 4095 77
14 4095 136
14 4095 239
14 4095 420
14 4095 737
14 4095 1295
14 4095 2274
14 4095 3993
14 4095 4095
14 4095 4095
14 4095 4095
14 4095 4095
14 4095 4095
25 8 8
25 8 14
25 8 25
25 8 44
25 8 77
25 8 136
25 8 239
25 8 420
25 8 737
25 8 1295
25 8 2274
25 8 3993
25 8 4095
25 8 4095
25 8 4095
25 8 4095
25 8 4095
25 14 8
25 14 14
25 14 25
25 14 44
25 14 77
25 14 136
25 14 239
25 14 420
25 14 737
25 14 1295
25 14 2274
25 14 3993
25 14 4095
25 14 4095
25 14 4095
25 14 4095
25 14 4095
25 25 8
25 25 14
25 25 25
25 25 44
25 25 77
25 25 136
25 25 239
25 25 420
25 25 737
25 25 1295
25 25 2274
25 25 3993
25 25 4095
25 25 4095
25 25 4095
25 25 4095
25 25 4095
25 44 8
25 44 14
25 44 25
25 44 44
25 44 77
25 44 136
25 44 239
25 44 420
25 44 737
25 44 1295
25 44 2274
25 44 3993
25 44 4095
25 44 4095
25 44 4095
25 44 4095
25 44 4095
25 77 8
25 77 14
25 77 25
25 77 44
25 77 77
25 77 136
25 77 239
25 77 420
25 77 737
25 77 1295
25 77 2274
25 77 3993
25 77 4095
25 77 4095
25 77 4095
25 77 4095
25 77 4095
25 136 8
25 136 14
25 136 25
25 136 44
25 136 77
25 136 136
25 136 239
25 136 420
25 136 737
25 136 1295
25 136 2274
25 136 3993
25 136 4095
25 136 4095
25 136 4095
25 136 4095
25 136 4095
25 239 8
25 239 14
25 239 25
25 239 44
25 239 77
25 239 136
25 239 239
25 239 420
25 239 737
25 239 1295
25 239 2274
25 239 3993
25 239 4095
25 239 4095
25 239 4095
25 239 4095
25 239 4095
25 420 8
25 420 14
25 420 25
25 420 44
25 420 77
25 420 136
25 420 239
25 420 420
25 420 737
25 420 1295
25 420 2274
25 420 3993
25 420 4095
25 420 4095
25 420 4095
25 420 4095
25 420 4095
25 737 8
25 737 14
25 737 25
25 737 44
25 737 77
25 737 136
25 737 239
25 737 420
25 737 737
25 737 1295
25 737 2274
25 737 3993
25 737 4095
25 737 4095
25 737 4095
25 737 4095
25 737 4095
25 1295 8
25 1295 14
25 1295 25
25 1295 44
25 1295 77
25 1295 136
25 1295 239
25 1295 420
25 1295 737
25 1295 1295
25 1295 2274
25 1295 3993
25 1295 4095
25 1295 4095
25 1295 4095
25 1295 4095
25 1295 4095
25 2274 8
25 2274 14
25 2274 25
25 2274 44
25 2274 77
25 2274 136
25 2274 239
25 2274 420
25 2274 737
25 2274 1295
25 2274 2274
25 2274 3993
25 2274 4095
25 2274 4095
25 2274 4095
25 2274 4095
25 2274 4095
25 3993 8
25 3993 14
25 3993 25
25 3993 44
25 3993 77
25 3993 136
25 3993 239
25 3993 420
25 3993 737
25 3993 1295
25 3993 2274
25 3993 3993
25 3993 4095
25 3993 4095
25 3993 4095
25 3993 4095
25 3993 4095
25 4095 8
25 4095 14
25 4095 25
25 4095 44
25 4095 77
25 4095 136
25 4095 239
25 4095 420
25 4095 737
25 4095 1295
25 4095 2274
25 4095 3993
25 4095 4095
25 4095 4095
25 4095 4095
25 4095 4095
25 4095 4095
25 4095 8
25 4095 14
25 4095 25
25 4095 44
25 4095 77
25 4095 136
25 4095 239
25 4095 420
25 4095 737
25 4095 1295
25 4095 2274
25 4095 3993
25 4095 4095
25 4095 4095
25 4095 4095
25 4095 4095
25 4095 4095
25 4095 8
25 4095 14
25 4095 25
25 4095 44
25 4095 77
25 4095 136
25 4095 239
25 4095 420
25 4095 737
25 4095 1295
25 4095 2274
25 4095 3993
25 4095 4095
25 4095 4095
25 4095 4095
25 4095 4095
25 4095 4095
25 4095 8
25 4095 14
25 4095 25
25 4095 44
25 4095 77
25 4095 136
25 4095 239
25 4095 420
25 4095 737
25 4095 1295
25 4095 2274
25 4095 3993
25 4095 4095
25 4095 4095
25 4095 4095
25 4095 4095
25 4095 4095
25 4095 8
25 4095 14
25 4095 25
25 4095 44
25 4095 77
25 4095 136
25 4095 239
25 4095 420
25 4095 737
25 4095 1295
25 4095 2274
25 4095 3993
25 4095 4095
25 4095 4095
25 4095 4095
25 4095 4095
25 4095 4095
44 8 8
44 8 14
44 8 25
44 8 44
44 8 77
44 8 136
44 8 239
44 8 420
44 8 737
44 8 1295
44 8 2274
44 8 3993
44 8 4095
44 8 4095
44 8 4095
44 8 4095
44 8 4095
44 14 8
44 14 14
44 14 25
44 14 44
44 14 77
44 14 136
44 14 239
44 14 420
44 14 737
44 14 1295
44 14 2274
44 14 3993
44 14 4095
44 14 4095
44 14 4095
44 14 4095
