Gems/AtomLyIntegration/CommonFeatures/Tools/ColorGrading/LUTs/Log2_48_nits_Shaper_to_linear.3dl
0 128 256 384 512 639 767 895 1023
8 8 8
8 8 25
8 8 77
8 8 239
8 8 737
8 8 2274
8 8 4095
8 8 4095
8 8 4095
8 25 8
8 25 25
8 25 77
8 25 239
8 25 737
8 25 2274
8 25 4095
8 25 4095
8 25 4095
8 77 8
8 77 25
8 77 77
8 77 239
8 77 737
8 77 2274
8 77 4095
8 77 4095
8 77 4095
8 239 8
8 239 25
8 239 77
8 239 239
8 239 737
8 239 2274
8 239 4095
8 239 4095
8 239 4095
8 737 8
8 737 25
8 737 77
8 737 239
8 737 737
8 737 2274
8 737 4095
8 737 4095
8 737 4095
8 2274 8
8 2274 25
8 2274 77
8 2274 239
8 2274 737
8 2274 2274
8 2274 4095
8 2274 4095
8 2274 4095
8 4095 8
8 4095 25
8 4095 77
8 4095 239
8 4095 737
8 4095 2274
8 4095 4095
8 4095 4095
8 4095 4095
8 4095 8
8 4095 25
8 4095 77
8 4095 239
8 4095 737
8 4095 2274
8 4095 4095
8 4095 4095
8 4095 4095
8 4095 8
8 4095 25
8 4095 77
8 4095 239
8 4095 737
8 4095 2274
8 4095 4095
8 4095 4095
8 4095 4095
25 8 8
25 8 25
25 8 77
25 8 239
25 8 737
25 8 2274
25 8 4095
25 8 4095
25 8 4095
25 25 8
25 25 25
25 25 77
25 25 239
25 25 737
25 25 2274
25 25 4095
25 25 4095
25 25 4095
25 77 8
25 77 25
25 77 77
25 77 239
25 77 737
25 77 2274
25 77 4095
25 77 4095
25 77 4095
25 239 8
25 239 25
25 239 77
25 239 239
25 239 737
25 239 2274
25 239 4095
25 239 4095
25 239 4095
25 737 8
25 737 25
25 737 77
25 737 239
25 737 737
25 737 2274
25 737 4095
25 737 4095
25 737 4095
25 2274 8
25 2274 25
25 2274 77
25 2274 239
25 2274 737
25 2274 2274
25 2274 4095
25 2274 4095
25 2274 4095
25 4095 8
25 4095 25
25 4095 77
25 4095 239
25 4095 737
25 4095 2274
25 4095 4095
25 4095 4095
25 4095 4095
25 4095 8
25 4095 25
25 4095 77
25 4095 239
25 4095 737
25 4095 2274
25 4095 4095
25 4095 4095
25 4095 4095
25 4095 8
25 4095 25
25 4095 77
25 4095 239
25 4095 737
25 4095 2274
25 4095 4095
25 4095 4095
25 4095 4095
77 8 8
77 8 25
77 8 77
77 8 239
77 8 737
77 8 2274
77 8 4095
77 8 4095
77 8 4095
77 25 8
77 25 25
77 25 77
77 25 239
77 25 737
77 25 2274
77 25 4095
77 25 4095
77 25 4095
77 77 8
77 77 25
77 77 77
77 77 239
77 77 737
77 77 2274
77 77 4095
77 77 4095
77 77 4095
77 239 8
77 239 25
77 239 77
77 239 239
77 239 737
77 239 2274
77 239 4095
77 239 4095
77 239 4095
77 737 8
77 737 25
77 737 77
77 737 239
77 737 737
77 737 2274
77 737 4095
77 737 4095
77 737 4095
77 2274 8
77 2274 25
77 2274 77
77 2274 239
77 2274 737
77 2274 2274
77 2274 4095
77 2274 4095
77 2274 4095
77 4095 8
77 4095 25
77 4095 77
77 4095 239
77 4095 737
77 4095 2274
77 4095 4095
77 4095 4095
77 4095 4095
77 4095 8
77 4095 25
77 4095 77
77 4095 239
77 4095 737
77 4095 2274
77 4095 4095
77 4095 4095
77 4095 4095
77 4095 8
77 4095 25
77 4095 77
77 4095 239
77 4095 737
77 4095 2274
77 4095 4095
77 4095 4095
77 4095 4095
239 8 8
239 8 25
239 8 77
239 8 239
239 8 737
239 8 2274
239 8 4095
239 8 4095
239 8 4095
239 25 8
239 25 25
239 25 77
239 25 239
239 25 737
239 25 2274
239 25 4095
239 25 4095
239 25 4095
239 77 8
239 77 25
239 77 77
239 77 239
239 77 737
239 77 2274
239 77 4095
239 77 4095
239 77 4095
239 239 8
239 239 25
239 239 77
239 239 239
239 239 737
239 239 2274
239 239 4095
239 239 4095
239 239 4095
239 737 8
239 737 25
239 737 77
239 737 239
239 737 737
239 737 2274
239 737 4095
239 737 4095
239 737 4095
239 2274 8
239 2274 25
239 2274 77
239 2274 239
239 2274 737
239 2274 2274
239 2274 4095
239 2274 4095
239 2274 4095
239 4095 8
239 4095 25
239 4095 77
239 4095 239
239 4095 737
239 4095 2274
239 4095 4095
239 4095 4095
239 4095 4095
239 4095 8
239 4095 25
239 4095 77
239 4095 239
239 4095 737
239 4095 2274
239 4095 4095
239 4095 4095
239 4095 4095
239 4095 8
239 4095 25
239 4095 77
239 4095 239
239 4095 737
239 4095 2274
239 4095 4095
239 4095 4095
239 4095 4095
737 8 8
737 8 25
737 8 77
737 8 239
737 8 737
737 8 2274
737 8 4095
737 8 4095
737 8 4095
737 25 8
737 25 25
737 25 77
737 25 239
737 25 737
737 25 2274
737 25 4095
737 25 4095
737 25 4095
737 77 8
737 77 25
737 77 77
737 77 239
737 77 737
737 77 2274
737 77 4095
737 77 4095
737 77 4095
737 239 8
737 239 25
737 239 77
737 239 239
737 239 737
737 239 2274
737 239 4095
737 239 4095
737 239 4095
737 737 8
737 737 25
737 737 77
737 737 239
737 737 737
737 737 2274
737 737 4095
737 737 4095
737 737 4095
737 2274 8
737 2274 25
737 2274 77
737 2274 239
737 2274 737
737 2274 2274
737 2274 4095
737 2274 4095
737 2274 4095
737 4095 8
737 4095 25
737 4095 77
737 4095 239
737 4095 737
737 4095 2274
737 4095 4095
737 4095 4095
737 4095 4095
737 4095 8
737 4095 25
737 4095 77
737 4095 239
737 4095 737
737 4095 2274
737 4095 4095
737 4095 4095
737 4095 4095
737 4095 8
737 4095 25
737 4095 77
737 4095 239
737 4095 737
737 4095 2274
737 4095 4095
737 4095 4095
737 4095 4095
2274 8 8
2274 8 25
2274 8 77
2274 8 239
2274 8 737
2274 8 2274
2274 8 4095
2274 8 4095
2274 8 4095
2274 25 8
2274 25 25
2274 25 77
2274 25 239
2274 25 737
2274 25 2274
2274 25 4095
2274 25 4095
2274 25 4095
2274 77 8
2274 77 25
2274 77 77
2274 77 239
2274 77 737
2274 77 2274
2274 77 4095
2274 77 4095
2274 77 4095
2274 239 8
2274 239 25
2274 239 77
2274 239 239
2274 239 737
2274 239 2274
2274 239 4095
2274 239 4095
2274 239 4095
2274 737 8
2274 737 25
2274 737 77
2274 737 239
2274 737 737
2274 737 2274
2274 737 4095
2274 737 4095
2274 737 4095
2274 2274 8
2274 2274 25
2274 2274 77
2274 2274 239
2274 2274 737
2274 2274 2274
2274 2274 4095
2274 2274 4095
2274 2274 4095
2274 4095 8
2274 4095 25
2274 4095 77
2274 4095 239
2274 4095 737
2274 4095 2274
2274 4095 4095
2274 4095 4095
2274 4095 4095
2274 4095 8
2274 4095 25
2274 4095 77
2274 4095 239
2274 4095 737
2274 4095 2274
2274 4095 4095
2274 4095 4095
2274 4095 4095
2274 4095 8
2274 4095 25
2274 4095 77
2274 4095 239
2274 4095 737
2274 4095 2274
2274 4095 4095
2274 4095 4095
2274 4095 4095
4095 8 8
4095 8 25
4095 8 77
4095 8 239
4095 8 737
4095 8 2274
4095 8 4095
4095 8 4095
4095 8 4095
4095 25 8
4095 25 25
4095 25 77
4095 25 239
4095 25 737
4095 25 2274
4095 25 4095
4095 25 4095
4095 25 4095
4095 77 8
4095 77 25
4095 77 77
4095 77 239
4095 77 737
4095 77 2274
4095 77 4095
4095 77 4095
4095 77 4095
4095 239 8
4095 239 25
4095 239 77
4095 239 239
4095 239 737
4095 239 2274
4095 239 4095
4095 239 4095
4095 239 4095
4095 737 8
4095 737 25
4095 737 77
4095 737 239
4095 737 737
4095 737 2274
4095 737 4095
4095 737 4095
4095 737 4095
4095 2274 8
4095 2274 25
4095 2274 77
4095 2274 239
4095 2274 737
4095 2274 2274
4095 2274 4095
4095 2274 4095
4095 2274 4095
4095 4095 8
4095 4095 25
4095 4095 77
4095 4095 239
4095 4095 737
4095 4095 2274
4095 4095 4095
4095 4095 4095
4095 4095 4095
4095 4095 8
4095 4095 25
4095 4095 77
4095 4095 239
4095 4095 737
4095 4095 2274
4095 4095 4095
4095 4095 4095
4095 4095 4095
4095 4095 8
4095 4095 25
4095 4095 77
4095 4095 239
4095 4095 737
4095 4095 2274
4095 4095 4095
4095 4095 4095
4095 4095 4095
4095 8 8
4095 8 25
4095 8 77
4095 8 239
4095 8 737
4095 8 2274
4095 8 4095
4095 8 4095
4095 8 4095
4095 25 8
4095 25 25
4095 25 77
4095 25 239
4095 25 737
4095 25 2274
4095 25 4095
4095 25 4095
4095 25 4095
4095 77 8
4095 77 25
4095 77 77
4095 77 239
4095 77 737
4095 77 2274
4095 77 4095
4095 77 4095
4095 77 4095
4095 239 8
4095 239 25
4095 239 77
4095 239 239
4095 239 737
4095 239 2274
4095 239 4095
4095 239 4095
4095 239 4095
4095 737 8
4095 737 25
4095 737 77
4095 737 239
4095 737 737
4095 737 2274
4095 737 4095
4095 737 4095
4095 737 4095
4095 2274 8
4095 2274 25
4095 2274 77
4095 2274 239
4095 2274 737
4095 2274 2274
4095 2274 4095
4095 2274 4095
4095 2274 4095
4095 4095 8
4095 4095 25
4095 4095 77
4095 4095 239
4095 4095 737
4095 4095 2274
4095 4095 4095
4095 4095 4095
4095 4095 4095
4095 4095 8
4095 4095 25
4095 4095 77
4095 4095 239
4095 4095 737
4095 4095 2274
4095 4095 4095
4095 4095 4095
4095 4095 4095
4095 4095 8
4095 4095 25
4095 4095 77
4095 4095 239
4095 4095 737
4095 4095 2274
4095 4095 4095
4095 4095 4095
4095 4095 4095
4095 8 8
4095 8 25
4095 8 77
4095 8 239
4095 8 737
4095 8 2274
4095 8 4095
4095 8 4095
4095 8 4095
4095 25 8
4095 25 25
4095 25 77
4095 25 239
4095 25 737
4095 25 2274
4095 25 4095
4095 25 4095
4095 25 4095
4095 77 8
4095 77 25
4095 77 77
4095 77 239
4095 77 737
4095 77 2274
4095 77 4095
4095 77 4095
4095 77 4095
4095 239 8
4095 239 25
4095 239 77
4095 239 239
4095 239 737
4095 239 2274
4095 239 4095
4095 239 4095
4095 239 4095
4095 737 8
4095 737 25
4095 737 77
4095 737 239
4095 737 737
4095 737 2274
4095 737 4095
4095 737 4095
4095 737 4095
4095 2274 8
4095 2274 25
4095 2274 77
4095 2274 239
4095 2274 737
4095 2274 2274
4095 2274 4095
4095 2274 4095
4095 2274 4095
4095 4095 8
4095 4095 25
4095 4095 77
4095 4095 239
4095 4095 737
4095 4095 2274
4095 4095 4095
4095 4095 4095
4095 4095 4095
4095 4095 8
4095 4095 25
4095 4095 77
4095 4095 239
4095 4095 737
4095 4095 2274
4095 4095 4095
4095 4095 4095
4095 4095 4095
4095 4095 8
4095 4095 25
4095 4095 77
4095 4095 239
4095 4095 737
4095 4095 2274
4095 4095 4095
4095 4095 4095
4095 4095 4095
