Gems/AtomLyIntegration/CommonFeatures/Tools/ColorGrading/LUTs/Log2_48_nits_Shaper_to_linear.3dl
0 256 512 767 1023
8 8 8
8 8 77
8 8 737
8 8 4095
8 8 4095
8 77 8
8 77 77
8 77 737
8 77 4095
8 77 4095
8 737 8
8 737 77
8 737 737
8 737 4095
8 737 4095
8 4095 8
8 4095 77
8 4095 737
8 4095 4095
8 4095 4095
8 4095 8
8 4095 77
8 4095 737
8 4095 4095
8 4095 4095
77 8 8
77 8 77
77 8 737
77 8 4095
77 8 4095
77 77 8
77 77 77
77 77 737
77 77 4095
77 77 4095
77 737 8
77 737 77
77 737 737
77 737 4095
77 737 4095
77 4095 8
77 4095 77
77 4095 737
77 4095 4095
77 4095 4095
77 4095 8
77 4095 77
77 4095 737
77 4095 4095
77 4095 4095
737 8 8
737 8 77
737 8 737
737 8 4095
737 8 4095
737 77 8
737 77 77
737 77 737
737 77 4095
737 77 4095
737 737 8
737 737 77
737 737 737
737 737 4095
737 737 4095
737 4095 8
737 4095 77
737 4095 737
737 4095 4095
737 4095 4095
737 4095 8
737 4095 77
737 4095 737
737 4095 4095
737 4095 4095
4095 8 8
4095 8 77
4095 8 737
4095 8 4095
4095 8 4095
4095 77 8
4095 77 77
4095 77 737
4095 77 4095
4095 77 4095
4095 737 8
4095 737 77
4095 737 737
4095 737 4095
4095 737 4095
4095 4095 8
4095 4095 77
4095 4095 737
4095 4095 4095
4095 4095 4095
4095 4095 8
4095 4095 77
4095 4095 737
4095 4095 4095
4095 4095 4095
4095 8 8
4095 8 77
4095 8 737
4095 8 4095
4095 8 4095
4095 77 8
4095 77 77
4095 77 737
4095 77 4095
4095 77 4095
4095 737 8
4095 737 77
4095 737 737
4095 737 4095
4095 737 4095
4095 4095 8
4095 4095 77
4095 4095 737
4095 4095 4095
4095 4095 4095
4095 4095 8
4095 4095 77
4095 4095 737
4095 4095 4095
4095 4095 4095
