Gems/AtomLyIntegration/CommonFeatures/Tools/ColorGrading/LUTs/sRGB_invLog2-48nits-AP1_ACEScg.3dl
0 64 128 192 256 320 384 448 512 575 639 703 767 831 895 959 1023
0 0 0
0 0 96
0 0 193
0 0 303
0 0 440
0 0 591
0 0 756
0 0 949
0 0 1171
0 0 1436
0 0 1753
0 0 2144
0 0 2649
0 0 3388
282 53 4095
350 194 4095
448 276 4095
0 95 0
0 97 102
0 97 198
0 98 309
0 99 444
0 100 595
0 100 760
0 102 953
0 102 1176
0 103 1442
0 104 1760
0 105 2153
0 107 2660
0 108 3407
277 171 4095
366 270 4095
487 339 4095
0 190 0
0 192 102
0 194 203
0 195 316
0 198 449
0 200 600
0 201 764
0 203 958
0 204 1181
0 206 1448
0 208 1767
0 210 2161
0 213 2672
0 216 3426
285 270 4095
406 363 4095
515 456 4095
0 298 0
0 299 105
0 302 208
0 305 323
0 309 456
0 312 606
0 315 769
0 317 964
0 319 1188
0 322 1456
0 324 1776
0 327 2173
0 331 2690
0 334 3454
302 391 4095
433 483 4095
526 532 4095
0 433 0
0 434 111
0 435 219
0 438 336
0 441 464
0 443 614
0 444 777
0 446 971
0 448 1197
0 449 1466
0 451 1788
0 454 2189
0 456 2711
0 458 3487
316 512 4095
513 565 4095
541 632 4095
0 581 0
0 581 119
0 582 230
0 583 348
0 586 475
0 588 623
0 589 786
0 591 979
0 592 1207
0 593 1477
0 595 1802
0 597 2206
0 599 2735
0 601 3525
428 652 4095
528 722 4095
569 774 4095
0 746 0
0 746 125
0 746 247
0 747 366
0 748 485
0 749 634
0 750 796
0 750 988
0 751 1218
0 752 1489
0 754 1818
0 756 2225
0 757 2761
0 758 3566
514 797 4095
560 830 4095
626 864 4095
0 938 0
0 938 145
0 938 271
0 938 381
0 939 497
0 940 645
0 941 808
0 942 999
0 943 1230
0 943 1504
0 945 1837
0 947 2246
0 948 2790
0 949 3616
524 990 4095
593 1023 4095
683 1034 4095
0 1159 0
0 1159 171
0 1159 298
0 1159 399
0 1160 509
0 1160 658
0 1161 820
0 1162 1010
0 1163 1243
0 1165 1519
0 1166 1856
0 1167 2268
0 1169 2823
0 1171 3675
626 1193 4095
746 1189 4095
781 1183 4095
0 1423 0
0 1423 220
0 1423 329
0 1423 421
0 1424 526
0 1424 672
0 1425 835
0 1426 1023
0 1427 1257
0 1429 1535
0 1430 1876
0 1432 2290
0 1433 2861
0 1435 3735
644 1423 4095
777 1372 4095
802 1322 4095
0 1740 0
0 1740 285
0 1740 365
0 1741 445
0 1741 546
0 1742 688
0 1742 850
0 1744 1038
0 1745 1272
0 1746 1554
0 1748 1898
0 1749 2317
0 1751 2903
0 1753 3802
780 1708 4095
793 1590 4095
809 1554 4095
0 2130 0
0 2132 318
0 2132 392
0 2132 467
0 2133 566
0 2134 703
0 2135 866
0 2136 1056
0 2138 1288
0 2140 1574
0 2142 1921
0 2143 2347
0 2146 2945
0 2148 3874
849 2033 4095
921 1856 4095
953 1797 4095
0 2644 0
0 2644 331
0 2644 406
0 2644 480
0 2644 586
0 2644 718
0 2646 881
0 2649 1072
0 2651 1307
0 2655 1594
0 2656 1943
0 2662 2378
0 2664 2988
0 2667 3958
1024 2415 4095
1005 2172 4095
1030 2049 4095
0 3408 0
0 3411 334
0 3411 411
0 3411 489
0 3412 601
0 3414 729
0 3416 892
0 3417 1084
0 3421 1320
0 3423 1609
0 3429 1961
0 3434 2406
0 3440 3031
0 3445 4038
1037 2918 4095
1090 2563 4095
1054 2317 4095
1060 4095 294
1051 4095 371
1043 4095 447
1039 4095 517
1039 4095 632
1034 4095 759
1063 4095 909
1078 4095 1081
1081 4095 1291
1094 4095 1549
1087 4095 1867
1106 4095 2254
1169 4095 2748
1132 4095 3471
1219 3650 4095
1098 3021 4095
1157 2615 4095
1123 4095 361
1114 4095 437
1107 4095 513
1124 4095 568
1129 4095 695
1140 4095 787
1173 4095 951
1177 4095 1085
1178 4095 1291
1231 4095 1528
1193 4095 1782
1200 4095 2059
1243 4095 2414
1294 4095 2871
1284 4095 3585
1296 3647 4095
1203 3089 4095
1186 4095 427
1178 4095 504
1192 4095 541
1210 4095 631
1219 4095 758
1249 4095 811
1280 4095 992
1275 4095 1090
1275 4095 1293
1290 4095 1486
1287 4095 1683
1284 4095 1925
1294 4095 2225
1297 4095 2576
1319 4095 3042
1304 4095 3623
1319 3636 4095
83 0 0
81 0 98
81 0 195
85 0 305
88 0 442
94 0 592
96 0 757
107 0 950
126 0 1173
150 0 1439
227 0 1758
285 0 2152
284 0 2660
309 0 3409
357 59 4095
435 207 4095
518 279 4095
98 101 0
104 104 104
104 104 201
108 104 311
111 104 445
121 105 595
125 106 760
144 107 954
181 108 1178
198 109 1445
271 112 1765
293 116 2161
301 119 2672
319 123 3428
362 184 4095
456 273 4095
527 348 4095
98 196 0
104 199 104
104 201 206
109 201 318
114 204 450
126 206 601
132 207 764
163 210 958
225 215 1183
251 217 1451
299 225 1772
307 229 2169
318 233 2684
326 238 3447
374 282 4095
495 376 4095
536 462 4095
137 307 0
143 310 107
147 313 210
161 316 326
171 318 457
183 322 606
201 325 770
227 329 964
265 333 1190
284 337 1459
320 342 1780
329 345 2180
350 350 2701
360 354 3474
414 399 4095
517 491 4095
545 534 4095
241 445 0
244 446 111
248 448 220
262 451 338
275 453 465
282 454 614
292 457 777
292 458 971
301 460 1198
313 462 1468
327 466 1790
336 468 2194
353 471 2720
367 474 3503
438 515 4095
530 570 4095
577 637 4095
299 594 0
300 594 119
302 596 230
305 596 347
322 599 474
333 601 622
343 603 785
351 604 978
361 606 1207
363 608 1478
377 611 1804
397 615 2210
418 618 2745
435 621 3541
517 661 4095
572 728 4095
637 776 4095
329 758 0
331 758 123
331 758 246
334 759 365
334 759 484
341 760 633
345 761 795
354 762 987
370 764 1218
369 765 1490
403 769 1820
456 774 2229
498 778 2771
523 782 3584
566 802 4095
630 836 4095
693 870 4095
413 954 0
451 955 141
458 956 269
452 956 381
449 956 495
460 958 644
476 959 806
515 962 998
492 962 1229
527 965 1504
538 968 1839
540 969 2249
554 972 2800
567 974 3638
602 995 4095
674 1025 4095
764 1036 4095
535 1184 0
529 1183 170
541 1183 296
547 1184 398
544 1184 508
545 1185 656
553 1186 818
564 1188 1009
569 1190 1242
573 1191 1518
589 1194 1857
598 1196 2271
598 1197 2832
636 1202 3695
737 1201 4095
780 1195 4095
798 1188 4095
596 1453 0
588 1452 215
593 1453 327
594 1453 419
602 1454 524
616 1456 670
614 1456 832
609 1457 1021
611 1458 1256
644 1462 1534
673 1466 1878
661 1467 2294
732 1474 2872
682 1472 3758
773 1434 4095
803 1379 4095
844 1323 4095
706 1780 0
720 1782 282
685 1779 364
665 1778 446
669 1779 543
686 1781 686
736 1786 847
793 1792 1036
780 1792 1270
723 1788 1553
783 1796 1899
815 1801 2322
794 1801 2912
839 1807 3826
854 1715 4095
865 1597 4095
886 1556 4095
807 2192 0
825 2195 318
832 2196 391
837 2197 465
842 2198 562
838 2198 700
826 2198 862
827 2199 1052
834 2202 1286
866 2207 1573
873 2209 1921
839 2207 2352
936 2219 2954
897 2219 3902
947 2042 4095
996 1863 4095
1025 1799 4095
951 2742 0
891 2735 330
885 2735 404
885 2735 477
899 2737 582
914 2739 714
966 2748 876
1001 2755 1067
992 2755 1303
938 2750 1592
943 2754 1943
1053 2773 2382
1035 2776 2999
1045 2779 3984
1048 2422 4095
1040 2180 4095
1050 2051 4095
1031 3574 0
1052 3583 332
1066 3587 408
1079 3592 484
1091 3596 594
1089 3595 723
1092 3598 885
1095 3601 1077
1075 3604 1314
1082 3607 1605
1111 3619 1959
1122 3624 2408
1118 3627 3039
1182 3648 4068
1121 2930 4095
1156 2566 4095
1082 2320 4095
1137 4095 295
1135 4095 371
1126 4095 448
1122 4095 517
1139 4095 633
1134 4095 760
1165 4095 909
1179 4095 1080
1179 4095 1289
1215 4095 1546
1191 4095 1863
1232 4095 2248
1284 4095 2738
1282 4095 3448
1291 3672 4095
1189 3033 4095
1223 2624 4095
1200 4095 362
1198 4095 438
1190 4095 513
1208 4095 568
1225 4095 696
1241 4095 788
1274 4095 951
1278 4095 1085
1276 4095 1291
1290 4095 1527
1284 4095 1780
1285 4095 2058
1295 4095 2408
1328 4095 2864
1303 4095 3578
1317 3661 4095
1284 3092 4095
1263 4095 428
1261 4095 505
1276 4095 541
1283 4095 631
1288 4095 759
1293 4095 811
1299 4095 992
1300 4095 1090
1298 4095 1293
1309 4095 1485
1308 4095 1681
1306 4095 1922
1313 4095 2221
1318 4095 2574
1379 4095 3035
1333 4095 3619
1359 3651 4095
166 0 0
164 0 99
162 0 196
166 0 308
175 0 443
182 0 594
192 0 759
211 0 952
237 0 1175
270 0 1441
315 0 1760
350 0 2156
354 0 2664
378 0 3415
425 60 4095
510 212 4095
539 281 4095
182 101 0
187 104 104
185 104 202
189 104 314
198 104 447
208 105 597
221 106 762
244 107 956
278 110 1180
296 113 1447
334 119 1766
361 125 2163
370 128 2676
395 132 3435
447 197 4095
520 276 4095
547 354 4095
197 202 0
202 205 104
208 208 208
213 208 322
221 209 451
233 210 602
250 211 765
274 215 959
307 221 1185
327 225 1452
362 233 1773
376 238 2171
388 242 2688
404 249 3454
464 295 4095
529 383 4095
573 469 4095
242 316 0
247 318 108
256 323 212
266 326 330
273 326 459
281 328 607
295 331 770
308 334 964
332 337 1191
355 342 1460
387 349 1782
401 353 2182
421 359 2706
439 365 3482
503 412 4095
544 498 4095
608 536 4095
316 451 0
317 451 111
320 453 220
325 455 339
339 457 466
346 459 614
355 461 777
358 463 971
369 464 1198
384 467 1468
401 470 1791
418 473 2195
447 478 2724
479 481 3511
519 517 4095
581 575 4095
645 642 4095
371 599 0
374 599 119
375 601 230
378 601 347
389 604 474
399 606 622
407 608 785
417 610 979
430 612 1208
434 614 1479
454 617 1806
478 621 2212
511 625 2749
535 628 3548
575 666 4095
639 733 4095
704 778 4095
405 762 0
408 762 123
409 762 246
413 763 365
415 763 484
423 765 633
430 766 794
451 767 987
480 770 1218
487 772 1491
526 778 1822
563 782 2230
574 784 2774
590 787 3589
633 808 4095
697 842 4095
760 877 4095
506 959 0
526 960 141
534 961 270
530 961 381
528 962 495
537 963 643
546 964 806
574 966 998
564 967 1229
587 970 1505
599 972 1839
609 974 2250
625 977 2802
637 979 3642
680 1001 4095
756 1027 4095
784 1038 4095
595 1188 0
591 1187 170
604 1188 296
608 1188 398
605 1189 508
610 1190 656
618 1191 818
632 1193 1009
643 1195 1242
644 1196 1519
664 1199 1858
693 1203 2272
690 1204 2834
729 1209 3699
778 1207 4095
799 1200 4095
823 1193 4095
680 1459 0
668 1458 215
673 1459 327
682 1460 420
690 1461 523
707 1463 670
710 1464 832
706 1465 1021
708 1466 1256
741 1470 1535
768 1474 1878
771 1476 2296
810 1480 2873
796 1481 3762
834 1441 4095
883 1385 4095
908 1329 4095
809 1790 0
817 1790 282
810 1790 365
798 1789 447
791 1789 543
799 1791 685
813 1793 847
850 1798 1036
843 1798 1270
825 1798 1553
846 1802 1899
877 1807 2322
868 1809 2914
911 1815 3829
932 1721 4095
951 1605 4095
972 1558 4095
875 2200 0
900 2203 317
904 2204 391
909 2204 465
915 2205 562
915 2206 700
901 2206 862
901 2207 1052
919 2211 1286
952 2216 1573
963 2218 1921
935 2217 2352
1030 2229 2956
1007 2231 3906
1028 2048 4095
1037 1871 4095
1046 1801 4095
1037 2754 0
999 2750 330
993 2750 404
994 2750 477
1006 2752 581
1027 2755 713
1058 2761 876
1076 2765 1067
1074 2766 1303
1053 2765 1591
1063 2770 1943
1121 2782 2383
1112 2786 3000
1121 2789 3987
1117 2430 4095
1076 2188 4095
1070 2053 4095
1108 3591 0
1122 3598 332
1132 3602 408
1146 3607 484
1160 3611 594
1165 3613 722
1167 3616 885
1167 3618 1077
1153 3621 1314
1168 3626 1605
1203 3639 1959
1240 3651 2407
1211 3648 3040
1307 3677 4072
1202 2941 4095
1222 2568 4095
1163 2322 4095
1214 4095 296
1212 4095 372
1209 4095 449
1205 4095 517
1223 4095 633
1234 4095 761
1265 4095 909
1280 4095 1079
1276 4095 1289
1289 4095 1545
1283 4095 1859
1291 4095 2244
1333 4095 2732
1333 4095 3438
1349 3687 4095
1275 3045 4095
1283 2633 4095
1277 4095 363
1275 4095 439
1274 4095 513
1283 4095 568
1287 4095 696
1291 4095 788
1298 4095 951
1300 4095 1084
1298 4095 1291
1317 4095 1526
1305 4095 1778
1306 4095 2057
1347 4095 2402
1398 4095 2857
1369 4095 3567
1389 3676 4095
1304 3096 4095
1299 4095 429
1298 4095 505
1301 4095 541
1305 4095 632
1310 4095 760
1312 4095 811
1319 4095 992
1321 4095 1089
1319 4095 1292
1342 4095 1484
1350 4095 1679
1343 4095 1919
1363 4095 2218
1392 4095 2572
1451 4095 3028
1410 4095 3616
1428 3666 4095
248 0 0
246 0 99
244 0 197
247 0 310
258 0 445
272 0 596
289 0 760
307 0 954
329 0 1177
353 0 1443
387 0 1763
415 0 2158
425 0 2669
447 0 3421
493 61 4095
540 240 4095
600 286 4095
267 103 0
274 106 104
272 105 203
273 106 316
284 108 449
297 110 599
312 112 763
329 115 957
350 119 1181
369 122 1448
400 125 1768
427 128 2166
441 130 2680
465 132 3441
514 201 4095
562 280 4095
