Gems/AtomLyIntegration/CommonFeatures/Tools/ColorGrading/LUTs/sRGB_invLog2-48nits-AP1_ACEScg.3dl
0 256 512 767 1023
0 0 0
0 0 440
0 0 1171
0 0 2649
448 276 4095
0 433 0
0 441 464
0 448 1197
0 456 2711
541 632 4095
0 1159 0
0 1160 509
0 1163 1243
0 1169 2823
781 1183 4095
0 2644 0
0 2644 586
0 2651 1307
0 2664 2988
1030 2049 4095
1186 4095 427
1219 4095 758
1275 4095 1293
1294 4095 2225
1319 3636 4095
377 0 0
365 0 447
418 0 1180
495 0 2673
695 291 4095
455 462 0
466 466 466
512 476 1200
609 492 2731
782 660 4095
722 1198 0
733 1199 507
776 1206 1243
846 1217 2839
956 1203 4095
1167 2773 0
1164 2774 581
1200 2782 1303
1262 2806 3001
1231 2057 4095
1427 4095 430
1448 4095 761
1476 4095 1292
1525 4095 2210
1550 3700 4095
1040 0 0
935 0 454
932 0 1189
991 0 2701
1047 361 4095
1002 513 0
1063 511 469
1017 524 1205
1087 540 2751
1125 706 4095
1204 1238 0
1215 1238 507
1244 1244 1244
1317 1256 2852
1305 1248 4095
1639 2839 0
1660 2843 579
1698 2853 1301
1765 2878 3008
1561 2071 4095
1809 4095 435
1816 4095 764
1827 4095 1291
1861 4095 2183
1882 3809 4095
2155 0 0
2083 0 454
1867 0 1194
1917 0 2731
1612 431 4095
2149 603 0
2217 602 472
2091 619 1211
2068 640 2782
1739 770 4095
2252 1314 0
2301 1312 507
2451 1314 1245
2351 1335 2871
1886 1290 4095
2817 2980 0
2850 2986 571
2909 2998 1295
3018 3018 3018
2174 2092 4095
2469 4095 441
2497 4095 767
2540 4095 1289
2577 4095 2138
2583 3878 4095
4095 324 65
4095 325 503
4095 328 1187
4095 336 2628
2583 523 4095
4095 725 95
4095 728 521
4095 736 1201
4095 756 2562
2708 797 4095
4095 1338 208
4095 1329 571
4095 1323 1232
4095 1361 2416
2936 1315 4095
4095 2434 336
4095 2416 656
4095 2368 1272
4095 2323 2265
3356 2194 4095
3801 4095 443
3840 4095 765
3863 4095 1285
3930 4095 2092
4095 4095 4095
