Gems/AtomLyIntegration/CommonFeatures/Tools/ColorGrading/LUTs/sRGB_invLog2-48nits-AP1_ACEScg.3dl
0 128 256 384 512 639 767 895 1023
0 0 0
0 0 193
0 0 440
0 0 756
0 0 1171
0 0 1753
0 0 2649
282 53 4095
448 276 4095
0 190 0
0 194 203
0 198 449
0 201 764
0 204 1181
0 208 1767
0 213 2672
285 270 4095
515 456 4095
0 433 0
0 435 219
0 441 464
0 444 777
0 448 1197
0 451 1788
0 456 2711
316 512 4095
541 632 4095
0 746 0
0 746 247
0 748 485
0 750 796
0 751 1218
0 754 1818
0 757 2761
514 797 4095
626 864 4095
0 1159 0
0 1159 298
0 1160 509
0 1161 820
0 1163 1243
0 1166 1856
0 1169 2823
626 1193 4095
781 1183 4095
0 1740 0
0 1740 365
0 1741 546
0 1742 850
0 1745 1272
0 1748 1898
0 1751 2903
780 1708 4095
809 1554 4095
0 2644 0
0 2644 406
0 2644 586
0 2646 881
0 2651 1307
0 2656 1943
0 2664 2988
1024 2415 4095
1030 2049 4095
1060 4095 294
1043 4095 447
1039 4095 632
1063 4095 909
1081 4095 1291
1087 4095 1867
1169 4095 2748
1219 3650 4095
1157 2615 4095
1186 4095 427
1192 4095 541
1219 4095 758
1280 4095 992
1275 4095 1293
1287 4095 1683
1294 4095 2225
1319 4095 3042
1319 3636 4095
166 0 0
162 0 196
175 0 443
192 0 759
237 0 1175
315 0 1760
354 0 2664
425 60 4095
539 281 4095
197 202 0
208 208 208
221 209 451
250 211 765
307 221 1185
362 233 1773
388 242 2688
464 295 4095
573 469 4095
316 451 0
320 453 220
339 457 466
355 461 777
369 464 1198
401 470 1791
447 478 2724
519 517 4095
645 642 4095
405 762 0
409 762 246
415 763 484
430 766 794
480 770 1218
526 778 1822
574 784 2774
633 808 4095
760 877 4095
595 1188 0
604 1188 296
605 1189 508
618 1191 818
643 1195 1242
664 1199 1858
690 1204 2834
778 1207 4095
823 1193 4095
809 1790 0
810 1790 365
791 1789 543
813 1793 847
843 1798 1270
846 1802 1899
868 1809 2914
932 1721 4095
972 1558 4095
1037 2754 0
993 2750 404
1006 2752 581
1058 2761 876
1074 2766 1303
1063 2770 1943
1112 2786 3000
1117 2430 4095
1070 2053 4095
1214 4095 296
1209 4095 449
1223 4095 633
1265 4095 909
1276 4095 1289
1283 4095 1859
1333 4095 2732
1349 3687 4095
1283 2633 4095
1299 4095 429
1301 4095 541
1310 4095 760
1319 4095 992
1319 4095 1292
1350 4095 1679
1363 4095 2218
1451 4095 3028
1428 3666 4095
377 0 0
357 0 199
365 0 447
391 0 762
418 0 1180
460 0 1765
495 0 2673
564 82 4095
695 291 4095
394 218 0
412 221 207
407 226 454
429 231 767
455 238 1187
488 248 1777
532 262 2697
618 318 4095
736 483 4095
455 462 0
457 463 220
466 466 466
487 471 777
512 476 1200
553 483 1795
609 492 2731
680 526 4095
782 660 4095
572 774 0
578 774 246
587 776 485
605 779 794
641 784 1219
672 790 1824
705 796 2778
767 820 4095
821 890 4095
722 1198 0
729 1198 297
733 1199 507
748 1201 818
776 1206 1243
800 1211 1859
846 1217 2839
906 1217 4095
956 1203 4095
935 1803 0
941 1803 364
932 1803 542
943 1806 847
970 1812 1270
987 1817 1900
1015 1823 2917
1064 1736 4095
1056 1562 4095
1167 2773 0
1161 2773 403
1164 2774 581
1188 2779 875
1200 2782 1303
1225 2793 1943
1262 2806 3001
1272 2447 4095
1231 2057 4095
1359 4095 298
1356 4095 450
1365 4095 634
1391 4095 910
1407 4095 1289
1432 4095 1853
1477 4095 2721
1489 3717 4095
1348 2657 4095
1427 4095 430
1429 4095 542
1448 4095 761
1461 4095 993
1476 4095 1292
1506 4095 1676
1525 4095 2210
1557 4095 3011
1550 3700 4095
675 0 0
637 0 202
607 0 451
621 0 765
643 0 1184
674 0 1772
710 0 2687
768 100 4095
813 308 4095
659 250 0
682 250 207
655 258 457
655 266 768
678 274 1191
710 286 1784
747 301 2712
800 353 4095
866 507 4095
689 485 0
696 484 221
722 484 467
708 490 778
728 494 1202
754 500 1799
795 508 2739
857 547 4095
937 678 4095
772 791 0
775 791 247
783 793 485
795 795 795
821 800 1220
855 806 1826
893 813 2783
950 839 4095
1028 909 4095
917 1214 0
920 1213 298
929 1215 508
941 1217 818
957 1220 1243
986 1226 1862
1023 1232 2843
1054 1232 4095
1070 1223 4095
1099 1820 0
1106 1820 363
1112 1822 542
1123 1825 846
1154 1831 1270
1185 1837 1901
1214 1843 2920
1239 1750 4095
1242 1567 4095
1332 2796 0
1348 2798 403
1356 2800 580
1372 2804 875
1387 2806 1302
1424 2820 1943
1472 2836 3005
1433 2469 4095
1331 2063 4095
1539 4095 300
1541 4095 452
1543 4095 635
1547 4095 910
1570 4095 1289
1607 4095 1846
1658 4095 2703
1657 3758 4095
1542 2684 4095
1568 4095 433
1570 4095 543
1574 4095 762
1577 4095 993
1596 4095 1292
1627 4095 1670
1658 4095 2197
1707 4095 2991
1698 3747 4095
1040 0 0
1007 0 204
935 0 454
914 0 766
932 0 1189
958 0 1780
991 0 2701
1032 253 4095
1047 361 4095
1011 305 0
1031 303 211
1013 311 460
962 324 772
977 335 1196
1003 343 1793
1041 361 2730
1071 399 4095
1059 519 4095
1002 513 0
1026 511 221
1063 511 469
1012 518 779
1017 524 1205
1046 530 1806
1087 540 2751
1122 579 4095
1125 706 4095
1068 818 0
1074 818 249
1093 819 485
1136 820 796
1113 827 1222
1144 832 1830
1181 839 2792
1216 865 4095
1233 934 4095
1204 1238 0
1209 1238 299
1215 1238 507
1227 1241 818
1244 1244 1244
1273 1249 1864
1317 1256 2852
1321 1256 4095
1305 1248 4095
1393 1850 0
1399 1850 362
1406 1851 542
1420 1854 845
1444 1859 1270
1474 1866 1903
1508 1873 2925
1498 1775 4095
1424 1574 4095
1639 2839 0
1651 2841 402
1660 2843 579
1675 2848 874
1698 2853 1301
1725 2864 1944
1765 2878 3008
1696 2499 4095
1561 2071 4095
1803 4095 303
1810 4095 454
1821 4095 636
1837 4095 910
1860 4095 1288
1889 4095 1835
1925 4095 2680
1923 3816 4095
1746 2723 4095
1809 4095 435
1812 4095 544
1816 4095 764
1820 4095 994
1827 4095 1291
1834 4095 1663
1861 4095 2183
1905 4095 2959
1882 3809 4095
1511 0 0
1489 0 204
1415 0 455
1315 0 768
1315 0 1192
1343 0 1786
1381 0 2717
1403 275 4095
1305 402 4095
1486 372 0
1508 373 215
1513 381 462
1439 386 774
1381 388 1200
1409 399 1801
1443 398 2746
1437 437 4095
1317 531 4095
1473 554 0
1509 552 224
1539 553 470
1517 558 781
1433 570 1208
1457 576 1812
1493 585 2767
1493 622 4095
1388 739 4095
1506 855 0
1525 853 252
1566 852 486
1616 852 797
1550 862 1223
1550 869 1835
1590 875 2803
1562 900 4095
1498 965 4095
1625 1270 0
1633 1269 300
1645 1270 507
1676 1272 818
1734 1273 1244
1699 1281 1866
1738 1288 2859
1701 1282 4095
1564 1278 4095
1821 1890 0
1829 1891 361
1837 1892 541
1852 1895 844
1875 1899 1270
1903 1903 1903
1951 1913 2932
1856 1797 4095
1702 1588 4095
2094 2900 0
2105 2903 402
2113 2904 576
2129 2910 871
2157 2916 1299
2194 2927 1944
2242 2940 3013
2061 2542 4095
1823 2081 4095
2222 4095 307
2227 4095 457
2237 4095 637
2255 4095 910
2279 4095 1288
2304 4095 1820
2316 4095 2645
2316 3855 4095
2030 2768 4095
2076 4095 438
2078 4095 545
2083 4095 766
2088 4095 994
2100 4095 1291
2129 4095 1653
2165 4095 2162
2209 4095 2917
2191 3852 4095
2155 0 0
2135 0 203
2083 0 454
1961 0 768
1867 0 1194
1877 0 1791
1917 0 2731
1879 301 4095
1612 431 4095
2152 414 0
2176 413 216
2179 414 462
2132 414 775
1982 424 1202
1960 431 1806
2001 434 2760
1918 475 4095
1666 544 4095
2149 603 0
2188 601 227
2217 602 472
2212 606 783
2091 619 1211
2025 632 1819
2068 640 2782
1982 670 4095
1739 770 4095
2161 894 0
2206 891 255
2257 890 487
2302 892 797
2271 899 1225
2139 912 1839
2178 918 2815
2056 941 4095
1808 1000 4095
2252 1314 0
2272 1313 300
2301 1312 507
2371 1312 817
2451 1314 1245
2336 1326 1868
2351 1335 2871
2203 1298 4095
1886 1290 4095
2468 1940 0
2479 1940 362
2490 1941 539
2514 1944 842
2563 1947 1269
2677 1950 1904
2624 1963 2938
2379 1818 4095
2053 1627 4095
2817 2980 0
2837 2984 400
2850 2986 571
2874 2990 866
2909 2998 1295
2960 3005 1941
3018 3018 3018
2623 2571 4095
2174 2092 4095
2816 4095 312
2818 4095 460
2822 4095 637
2828 4095 908
2858 4095 1286
2898 4095 1805
2954 4095 2601
2960 3960 4095
2343 2818 4095
2469 4095 441
2480 4095 546
2497 4095 767
2517 4095 993
2540 4095 1289
2563 4095 1640
2577 4095 2138
2590 4095 2869
2583 3878 4095
3079 0 0
3059 0 201
3035 0 451
2958 0 765
2784 0 1194
2683 0 1794
2716 0 2742
2561 320 4095
2057 478 4095
3143 447 0
3160 446 216
3162 447 461
3145 449 773
3050 462 1203
2855 486 1809
2869 506 2774
2603 520 4095
2075 576 4095
3188 658 0
3221 655 230
3248 656 471
3253 659 781
3209 667 1211
3001 687 1823
2974 697 2795
2679 720 4095
2117 783 4095
3256 937 0
3304 933 256
3358 932 485
3405 933 794
3405 939 1224
3241 954 1842
3141 968 2826
2803 986 4095
2235 1029 4095
3392 1362 0
3454 1358 298
3513 1356 505
3606 1355 813
3687 1357 1242
3660 1367 1869
3442 1389 2877
2970 1350 4095
2329 1302 4095
3704 1995 0
3747 1992 358
3783 1992 532
3868 1993 835
4021 1993 1264
4095 1985 1893
4003 2013 2942
3224 1872 4095
2481 1673 4095
4095 2978 260
4095 2971 403
4095 2963 571
4095 2947 863
4095 2920 1281
4095 2865 1866
4095 2799 2731
3585 2631 4095
2625 2137 4095
3801 4095 317
3811 4095 461
3830 4095 633
3845 4095 902
3860 4095 1284
3931 4095 1799
4016 4095 2568
4095 4095 4095
2854 2837 4095
2998 4095 443
3011 4095 547
3031 4095 768
3058 4095 992
3076 4095 1288
3088 4095 1623
3104 4095 2109
3122 4095 2850
3119 3958 4095
4095 324 65
4095 324 259
4095 325 503
4095 332 780
4095 328 1187
4095 329 1750
4095 336 2628
3794 463 4095
2583 523 4095
4095 522 77
4095 522 266
4095 527 515
4095 538 791
4095 544 1194
4095 567 1740
4095 605 2577
3870 619 4095
2608 635 4095
4095 725 95
4095 725 294
4095 728 521
4095 732 804
4095 736 1201
4095 743 1733
4095 756 2562
3964 768 4095
2708 797 4095
4095 991 130
4095 990 332
4095 991 537
4095 993 824
4095 998 1214
4095 1006 1723
4095 1022 2514
4095 1027 4018
2826 1043 4095
4095 1338 208
4095 1333 378
4095 1329 571
4095 1324 851
4095 1323 1232
4095 1331 1707
4095 1361 2416
4095 1385 3786
2936 1315 4095
4095 1811 271
4095 1810 433
4095 1808 612
4095 1805 881
4095 1801 1252
4095 1799 1693
4095 1803 2317
4095 1822 3525
3106 1724 4095
4095 2434 336
4095 2428 483
4095 2416 656
4095 2396 913
4095 2368 1272
4095 2332 1685
4095 2323 2265
4095 2356 3239
3356 2194 4095
4095 3251 382
4095 3243 518
4095 3231 702
4095 3210 945
4095 3177 1282
4095 3128 1670
4095 3096 2216
4095 3055 2972
3632 2858 4095
3801 4095 443
3819 4095 547
3840 4095 765
3850 4095 985
3863 4095 1285
3880 4095 1601
3930 4095 2092
4014 4095 2834
4095 4095 4095
