Gems/Atom/Feature/Common/Tools/ColorGrading/Resources/TestData/Photoshop/Log2-48nits/o_invShaped/test_hue-sat_32_LUT.3dl
0 33 66 99 132 165 198 231 264 297 330 363 396 429 462 495 528 561 594 627 660 693 726 759 792 825 858 891 924 957 990 1023 
0 0 0
97 163 18446744073709551571
201 318 18446744073709551501
312 466 18446744073709551387
427 609 18446744073709551169
545 750 18446744073709550380
667 888 2
792 1025 2
918 1160 2
1046 1295 2
1174 1429 2
1304 1563 2
1434 1696 2
1565 1828 2
1696 1961 2
1827 2094 2
1959 2226 2
2090 2358 2
2222 2491 2
2354 2623 2
2486 2755 2
2618 2887 2
2750 3019 2
2882 3152 2
3014 3284 2
3146 3416 2
3278 3548 2
3410 3680 2
3542 3812 2
3674 3944 2
3806 4076 2
3939 4209 2
163 18446744073709551571 97
163 42 18446744073709551571
318 300 18446744073709551501
419 466 18446744073709551387
512 609 18446744073709551169
613 750 18446744073709550380
719 888 2
832 1025 2
949 1160 2
1069 1295 2
1192 1429 2
1318 1563 2
1444 1696 2
1572 1828 2
1702 1961 2
1831 2094 2
1962 2226 2
2093 2358 2
2224 2491 2
2355 2623 2
2487 2755 2
2619 2887 2
2750 3019 2
2883 3152 2
3014 3284 2
3146 3416 2
3278 3548 2
3410 3680 2
3542 3812 2
3674 3944 2
3806 4076 2
3939 4209 2
318 18446744073709551501 201
318 18446744073709551501 13
318 93 18446744073709551501
466 388 18446744073709551387
606 609 18446744073709551169
689 750 18446744073709550380
781 888 2
881 1025 2
987 1160 2
1099 1295 2
1215 1429 2
1335 1563 2
1457 1696 2
1582 1828 2
1709 1961 2
1837 2094 2
1966 2226 2
2096 2358 2
2226 2491 2
2357 2623 2
2488 2755 2
2620 2887 2
2751 3019 2
2883 3152 2
3014 3284 2
3147 3416 2
3279 3548 2
3410 3680 2
3543 3812 2
3674 3944 2
3806 4076 2
3939 4209 2
466 18446744073709551387 312
466 18446744073709551387 171
466 18446744073709551387 18446744073709551485
466 154 18446744073709551387
609 485 18446744073709551169
750 723 18446744073709550380
852 888 2
939 1025 2
1033 1160 2
1135 1295 2
1244 1429 2
1357 1563 2
1475 1696 2
1596 1828 2
1719 1961 2
1845 2094 2
1972 2226 2
2100 2358 2
2230 2491 2
2359 2623 2
2490 2755 2
2621 2887 2
2752 3019 2
2884 3152 2
3015 3284 2
3147 3416 2
3279 3548 2
3411 3680 2
3543 3812 2
3674 3944 2
3806 4076 2
3939 4209 2
609 18446744073709551169 427
609 18446744073709551169 322
609 18446744073709551169 127
609 18446744073709551169 18446744073709551171
609 224 18446744073709551169
750 587 18446744073709550380
888 838 2
1006 1025 2
1089 1160 2
1181 1295 2
1280 1429 2
1385 1563 2
1496 1696 2
1612 1828 2
1732 1961 2
1855 2094 2
1979 2226 2
2106 2358 2
2234 2491 2
2363 2623 2
2493 2755 2
2623 2887 2
2754 3019 2
2885 3152 2
3016 3284 2
3147 3416 2
3279 3548 2
3411 3680 2
3543 3812 2
3675 3944 2
3807 4076 2
3939 4209 2
750 18446744073709550380 545
750 18446744073709550380 467
750 18446744073709550380 334
750 18446744073709550380 59
750 18446744073709551005 18446744073709550380
750 304 18446744073709550380
888 697 2
1025 957 2
1154 1160 2
1234 1295 2
1323 1429 2
1421 1563 2
1524 1696 2
1634 1828 2
1749 1961 2
1867 2094 2
1989 2226 2
2113 2358 2
2239 2491 2
2367 2623 2
2496 2755 2
2625 2887 2
2755 3019 2
2886 3152 2
3017 3284 2
3148 3416 2
3280 3548 2
3411 3680 2
3543 3812 2
3675 3944 2
3807 4076 2
3939 4209 2
888 2 667
888 2 608
888 2 515
888 2 350
888 2 18446744073709551566
888 18446744073709550601 2
888 392 2
1025 811 2
1160 1079 2
1295 1292 2
1376 1429 2
1463 1563 2
1559 1696 2
1661 1828 2
1770 1961 2
1884 2094 2
2002 2226 2
2123 2358 2
2247 2491 2
2372 2623 2
2500 2755 2
2628 2887 2
2758 3019 2
2888 3152 2
3018 3284 2
3149 3416 2
3280 3548 2
3412 3680 2
3544 3812 2
3675 3944 2
3807 4076 2
3939 4209 2
1025 2 792
1025 2 748
1025 2 681
1025 2 573
1025 2 371
1025 2 18446744073709551362
1025 2 2
1025 488 2
1160 929 2
1295 1204 2
1429 1419 2
1515 1563 2
1601 1696 2
1696 1828 2
1797 1961 2
1905 2094 2
2018 2226 2
2136 2358 2
2256 2491 2
2380 2623 2
2505 2755 2
2633 2887 2
2761 3019 2
2890 3152 2
3020 3284 2
3151 3416 2
3281 3548 2
3413 3680 2
3544 3812 2
3676 3944 2
3808 4076 2
3939 4209 2
1160 2 918
1160 2 885
1160 2 836
1160 2 762
1160 2 640
1160 2 397
1160 2 18446744073709550704
1160 2 2
1160 592 2
1295 1051 2
1429 1330 2
1563 1548 2
1653 1696 2
1738 1828 2
1831 1961 2
1932 2094 2
2039 2226 2
2152 2358 2
2269 2491 2
2390 2623 2
2513 2755 2
2638 2887 2
2765 3019 2
2893 3152 2
3022 3284 2
3152 3416 2
3283 3548 2
3414 3680 2
3545 3812 2
3676 3944 2
3808 4076 2
3940 4209 2
1295 2 1046
1295 2 1021
1295 2 985
1295 2 934
1295 2 853
1295 2 717
1295 2 431
1295 2 2
1295 2 2
1295 702 2
1429 1174 2
1563 1458 2
1696 1677 2
1789 1828 2
1873 1961 2
1966 2094 2
2066 2226 2
2173 2358 2
2285 2491 2
2402 2623 2
2523 2755 2
2646 2887 2
2771 3019 2
2898 3152 2
3025 3284 2
3155 3416 2
3285 3548 2
3415 3680 2
3546 3812 2
3677 3944 2
3808 4076 2
3940 4209 2
1429 2 1174
1429 2 1156
1429 2 1130
1429 2 1092
1429 2 1037
1429 2 951
1429 2 803
1429 2 471
1429 2 2
1429 2 2
1429 816 2
1563 1301 2
1696 1587 2
1828 1807 2
1923 1961 2
2007 2094 2
2100 2226 2
2200 2358 2
2306 2491 2
2419 2623 2
2535 2755 2
2655 2887 2
2778 3019 2
2903 3152 2
3030 3284 2
3158 3416 2
3287 3548 2
3417 3680 2
3547 3812 2
3678 3944 2
3809 4076 2
3941 4209 2
1563 2 1304
1563 2 1290
1563 2 1271
1563 2 1244
1563 2 1205
1563 2 1148
1563 2 1057
1563 2 897
1563 2 523
1563 2 2
1563 2 2
1563 934 2
1696 1427 2
1828 1716 2
1961 1938 2
2058 2094 2
2141 2226 2
2233 2358 2
2333 2491 2
2440 2623 2
2552 2755 2
2668 2887 2
2788 3019 2
2911 3152 2
3035 3284 2
3162 3416 2
3290 3548 2
3419 3680 2
3549 3812 2
3679 3944 2
3810 4076 2
3941 4209 2
1696 2 1434
1696 2 1424
1696 2 1410
1696 2 1390
1696 2 1362
1696 2 1322
1696 2 1262
1696 2 1167
1696 2 998
1696 2 580
1696 2 2
1696 2 2
1696 1056 2
1828 1557 2
1961 1847 2
2094 2069 2
2191 2226 2
2275 2358 2
2367 2491 2
2466 2623 2
2573 2755 2
2684 2887 2
2800 3019 2
2920 3152 2
3043 3284 2
3168 3416 2
3294 3548 2
3422 3680 2
3552 3812 2
3681 3944 2
3812 4076 2
3942 4209 2
1828 2 1565
1828 2 1557
1828 2 1547
1828 2 1532
1828 2 1512
1828 2 1484
1828 2 1442
1828 2 1381
1828 2 1283
1828 2 1106
1828 2 650
1828 2 2
1828 2 2
1828 1180 2
1961 1686 2
2094 1977 2
2226 2200 2
2325 2358 2
2408 2491 2
2500 2623 2
2599 2755 2
2705 2887 2
2816 3019 2
2933 3152 2
3052 3284 2
3175 3416 2
3300 3548 2
3427 3680 2
3554 3812 2
3683 3944 2
3813 4076 2
3944 4209 2
1961 2 1696
1961 2 1690
1961 2 1682
1961 2 1672
1961 2 1657
1961 2 1636
1961 2 1607
1961 2 1565
1961 2 1503
1961 2 1402
1961 2 1220
1961 2 726
1961 2 2
1961 2 2
1961 1306 2
2094 1816 2
2226 2108 2
2358 2332 2
2458 2491 2
2541 2623 2
2632 2755 2
2732 2887 2
2837 3019 2
2949 3152 2
3065 3284 2
3184 3416 2
3307 3548 2
3432 3680 2
3559 3812 2
3687 3944 2
3816 4076 2
3946 4209 2
2094 2 1827
2094 2 1823
2094 2 1817
2094 2 1809
2094 2 1798
2094 2 1783
2094 2 1763
2094 2 1733
2094 2 1691
2094 2 1626
2094 2 1524
2094 2 1336
2094 2 814
2094 2 2
2094 2 2
2094 1433 2
2226 1946 2
2358 2239 2
2491 2463 2
2590 2623 2
2673 2755 2
2765 2887 2
2864 3019 2
2970 3152 2
3081 3284 2
3197 3416 2
3317 3548 2
3440 3680 2
3564 3812 2
3691 3944 2
3819 4076 2
3948 4209 2
2226 2 1959
2226 2 1956
2226 2 1951
2226 2 1945
2226 2 1937
2226 2 1926
2226 2 1911
2226 2 1890
2226 2 1860
2226 2 1817
2226 2 1753
2226 2 1648
2226 2 1457
2226 2 907
2226 2 2
2226 2 2
2226 1562 2
2358 2078 2
2491 2371 2
2623 2595 2
2723 2755 2
2806 2887 2
2897 3019 2
2996 3152 2
3102 3284 2
3213 3416 2
3329 3548 2
3449 3680 2
3572 3812 2
3696 3944 2
3823 4076 2
3951 4209 2
2358 2 2090
2358 2 2088
2358 2 2085
2358 2 2080
2358 2 2074
2358 2 2066
2358 2 2055
2358 2 2040
2358 2 2019
2358 2 1989
2358 2 1946
2358 2 1880
2358 2 1775
2358 2 1580
2358 2 1009
2358 2 2
2358 2 2
2358 1692 2
2491 2209 2
2623 2503 2
2755 2727 2
2856 2887 2
2938 3019 2
3030 3152 2
3128 3284 2
3234 3416 2
3346 3548 2
3462 3680 2
3581 3812 2
3704 3944 2
3828 4076 2
3955 4209 2
2491 2 2222
2491 2 2220
2491 2 2218
2491 2 2215
2491 2 2210
2491 2 2204
2491 2 2196
2491 2 2185
2491 2 2170
2491 2 2149
2491 2 2119
2491 2 2075
2491 2 2009
2491 2 1903
2491 2 1706
2491 2 1120
2491 2 2
2491 2 2
2491 1822 2
2623 2340 2
2755 2635 2
2887 2859 2
2988 3019 2
3071 3152 2
3162 3284 2
3261 3416 2
3367 3548 2
3478 3680 2
3594 3812 2
3713 3944 2
3836 4076 2
3961 4209 2
2623 2 2354
2623 2 2352
2623 2 2351
2623 2 2348
2623 2 2345
2623 2 2341
2623 2 2335
2623 2 2327
2623 2 2315
2623 2 2300
2623 2 2278
2623 2 2248
2623 2 2205
2623 2 2138
2623 2 2032
2623 2 1833
2623 2 1232
2623 2 2
2623 2 2
2623 1952 2
2755 2473 2
2887 2767 2
3019 2991 2
3120 3152 2
3203 3284 2
3294 3416 2
3393 3548 2
3499 3680 2
3610 3812 2
3726 3944 2
3846 4076 2
3968 4209 2
2755 2 2486
2755 2 2485
2755 2 2484
2755 2 2482
2755 2 2479
2755 2 2476
2755 2 2472
2755 2 2466
2755 2 2457
2755 2 2446
2755 2 2431
2755 2 2409
2755 2 2379
2755 2 2335
2755 2 2269
2755 2 2162
2755 2 1962
2755 2 1353
2755 2 2
2755 2 2
2755 2083 2
2887 2604 2
3019 2898 2
3152 3123 2
3252 3284 2
3335 3416 2
3426 3548 2
3525 3680 2
3631 3812 2
3742 3944 2
3858 4076 2
3978 4209 2
2887 2 2618
2887 2 2617
2887 2 2616
2887 2 2615
2887 2 2613
2887 2 2611
2887 2 2607
2887 2 2603
2887 2 2597
2887 2 2589
2887 2 2577
2887 2 2562
2887 2 2541
2887 2 2510
2887 2 2466
2887 2 2400
2887 2 2292
2887 2 2091
2887 2 1472
2887 2 2
2887 2 2
2887 2215 2
3019 2735 2
3152 3031 2
3284 3254 2
3385 3416 2
3467 3548 2
3558 3680 2
3657 3812 2
3763 3944 2
3874 4076 2
3990 4209 2
3019 2 2750
3019 2 2749
3019 2 2748
3019 2 2747
3019 2 2746
3019 2 2744
3019 2 2742
3019 2 2738
3019 2 2734
3019 2 2728
3019 2 2720
3019 2 2708
3019 2 2693
3019 2 2672
3019 2 2641
3019 2 2597
3019 2 2530
3019 2 2422
3019 2 2220
3019 2 1594
3019 2 2
3019 2 2
3019 2346 2
3152 2868 2
3284 3162 2
3416 3387 2
3516 3548 2
3599 3680 2
3691 3812 2
3790 3944 2
3895 4076 2
4007 4209 2
3152 2 2882
3152 2 2881
3152 2 2881
3152 2 2880
3152 2 2879
3152 2 2878
3152 2 2876
3152 2 2873
3152 2 2870
3152 2 2866
3152 2 2860
3152 2 2851
3152 2 2840
3152 2 2825
3152 2 2803
3152 2 2773
3152 2 2729
3152 2 2662
3152 2 2554
3152 2 2352
3152 2 1720
3152 2 2
3152 2 2
3152 2478 2
3284 2999 2
3416 3294 2
3548 3519 2
3649 3680 2
3732 3812 2
3823 3944 2
3922 4076 2
4027 4209 2
3284 2 3014
3284 2 3014
3284 2 3013
3284 2 3012
3284 2 3012
3284 2 3011
3284 2 3009
3284 2 3008
3284 2 3005
3284 2 3002
3284 2 2997
3284 2 2991
3284 2 2983
3284 2 2972
3284 2 2956
3284 2 2935
3284 2 2904
3284 2 2860
3284 2 2793
3284 2 2684
3284 2 2481
3284 2 1844
3284 2 2
3284 2 2
3284 2609 2
3416 3132 2
3548 3426 2
3680 3651 2
3781 3812 2
3864 3944 2
3955 4076 2
4054 4209 2
3416 2 3146
3416 2 3146
3416 2 3145
3416 2 3145
3416 2 3144
3416 2 3144
3416 2 3143
3416 2 3141
3416 2 3139
3416 2 3137
3416 2 3134
3416 2 3129
3416 2 3123
3416 2 3115
3416 2 3104
3416 2 3088
3416 2 3067
3416 2 3036
3416 2 2992
3416 2 2925
3416 2 2816
3416 2 2613
3416 2 1977
3416 2 2
3416 2 2
3416 2741 2
3548 3264 2
3680 3558 2
3812 3783 2
3913 3944 2
3996 4076 2
4087 4209 2
3548 2 3278
3548 2 3278
3548 2 3278
3548 2 3277
3548 2 3277
3548 2 3276
3548 2 3276
3548 2 3275
3548 2 3273
3548 2 3271
3548 2 3269
3548 2 3266
3548 2 3261
3548 2 3255
3548 2 3247
3548 2 3236
3548 2 3220
3548 2 3198
3548 2 3168
3548 2 3124
3548 2 3056
3548 2 2948
3548 2 2745
3548 2 2104
3548 2 2
3548 2 2
3548 2873 2
3680 3396 2
3812 3691 2
3944 3915 2
4045 4076 2
4128 4209 2
3680 2 3410
3680 2 3410
3680 2 3410
3680 2 3410
3680 2 3409
3680 2 3409
3680 2 3408
3680 2 3408
3680 2 3406
3680 2 3405
3680 2 3403
3680 2 3401
3680 2 3398
3680 2 3393
3680 2 3387
3680 2 3379
3680 2 3367
3680 2 3352
3680 2 3330
3680 2 3300
3680 2 3255
3680 2 3188
3680 2 3080
3680 2 2876
3680 2 2237
3680 2 2
3680 2 2
3680 3005 2
3812 3528 2
3944 3822 2
4076 4047 2
4178 4209 2
3812 2 3542
3812 2 3542
3812 2 3542
3812 2 3542
