Gems/Atom/Feature/Common/Tools/ColorGrading/Resources/TestData/Photoshop/Log2-48nits/o_invShaped/test_clt_32_LUT.3dl
0 33 66 99 132 165 198 231 264 297 330 363 396 429 462 495 528 561 594 627 660 693 726 759 792 825 858 891 924 957 990 1023 
171990 171990 171990
171990 171990 171990
171990 171990 171990
171990 171990 171990
171990 171990 171990
171990 171990 171990
171990 171990 171990
171990 171990 171990
171990 171990 171990
171990 171990 171990
171990 171990 171990
171990 171990 171990
171990 171990 171990
171990 171990 171990
171990 171990 171990
171990 171990 171990
171990 171990 171990
171990 171990 171990
171990 171990 171990
171990 171990 171990
171990 171990 171990
171990 171990 171990
171990 171990 171990
171990 171990 171990
171990 171990 171990
171990 171990 171990
171990 171990 171990
171990 171990 171990
171990 171990 171990
171990 171990 171990
171990 171990 171990
171990 171990 171990
171990 171990 171990
171990 171990 171990
171990 171990 171990
171990 171990 171990
171990 171990 171990
171990 171990 171990
171990 171990 171990
171990 171990 171990
171990 171990 171990
171990 171990 171990
171990 171990 171990
171990 171990 171990
171990 171990 171990
171990 171990 171990
171990 171990 171990
171990 171990 171990
171990 171990 171990
171990 171990 171990
171990 171990 171990
171990 171990 171990
171990 171990 171990
171990 171990 171990
171990 171990 171990
171990 171990 171990
171990 171990 171990
171990 171990 171990
171990 171990 171990
171990 171990 171990
171990 171990 171990
171990 171990 171990
171990 171990 171990
171990 171990 171990
171990 171990 171990
171990 171990 171990
171990 171990 171990
171990 171990 171990
171990 171990 171990
171990 171990 171990
171990 171990 171990
171990 171990 171990
171990 171990 171990
171990 171990 171990
171990 171990 171990
171990 171990 171990
171990 171990 171990
171990 171990 171990
171990 171990 171990
171990 171990 171990
171990 171990 171990
171990 171990 171990
171990 171990 171990
171990 171990 171990
171990 171990 171990
171990 171990 171990
171990 171990 171990
171990 171990 171990
171990 171990 171990
171990 171990 171990
171990 171990 171990
171990 171990 171990
171990 171990 171990
171990 171990 171990
171990 171990 171990
171990 171990 171990
171990 171990 171990
171990 171990 171990
171990 171990 171990
171990 171990 171990
171990 171990 171990
171990 171990 171990
171990 171990 171990
171990 171990 171990
171990 171990 171990
171990 171990 171990
171990 171990 171990
171990 171990 171990
171990 171990 171990
171990 171990 171990
171990 171990 171990
171990 171990 171990
171990 171990 171990
171990 171990 171990
171990 171990 171990
171990 171990 171990
171990 171990 171990
171990 171990 171990
171990 171990 171990
171990 171990 171990
171990 171990 171990
171990 171990 171990
171990 171990 171990
171990 171990 171990
171990 171990 171990
171990 171990 171990
171990 171990 171990
171990 171990 171990
171990 171990 171990
171990 171990 171990
171990 171990 171990
171990 171990 171990
171990 171990 171990
171990 171990 171990
171990 171990 171990
171990 171990 171990
171990 171990 171990
171990 171990 171990
171990 171990 171990
171990 171990 171990
171990 171990 171990
171990 171990 171990
171990 171990 171990
171990 171990 171990
171990 171990 171990
171990 171990 171990
171990 171990 171990
171990 171990 171990
171990 171990 171990
171990 171990 171990
171990 171990 171990
171990 171990 171990
171990 171990 171990
171990 171990 171990
171990 171990 171990
171990 171990 171990
171990 171990 171990
171990 171990 171990
171990 171990 171990
171990 171990 171990
171990 171990 171990
171990 171990 171990
171990 171990 171990
171990 171990 171990
171990 171990 171990
171990 171990 171990
171990 171990 171990
171990 171990 171990
171990 171990 171990
171990 171990 171990
171990 171990 171990
171990 171990 171990
171990 171990 171990
171990 171990 171990
171990 171990 171990
171990 171990 171990
171990 171990 171990
171990 171990 171990
171990 171990 171990
171990 171990 171990
171990 171990 171990
171990 171990 171990
171990 171990 171990
171990 171990 171990
171990 171990 171990
171990 171990 171990
171990 171990 171990
171990 171990 171990
171990 171990 171990
171990 171990 171990
171990 171990 171990
171990 171990 171990
171990 171990 171990
171990 171990 171990
171990 171990 171990
171990 171990 171990
171990 171990 171990
171990 171990 171990
171990 171990 171990
171990 171990 171990
171990 171990 171990
171990 171990 171990
171990 171990 171990
171990 171990 171990
171990 171990 171990
171990 171990 171990
171990 171990 171990
171990 171990 171990
171990 171990 171990
171990 171990 171990
171990 171990 171990
171990 171990 171990
171990 171990 171990
171990 171990 171990
171990 171990 171990
171990 171990 171990
171990 171990 171990
171990 171990 171990
171990 171990 171990
171990 171990 171990
171990 171990 171990
171990 171990 171990
171990 171990 171990
171990 171990 171990
171990 171990 171990
171990 171990 171990
171990 171990 171990
171990 171990 171990
171990 171990 171990
171990 171990 171990
171990 171990 171990
171990 171990 171990
171990 171990 171990
171990 171990 171990
171990 171990 171990
171990 171990 171990
171990 171990 171990
171990 171990 171990
171990 171990 171990
171990 171990 171990
171990 171990 171990
171990 171990 171990
171990 171990 171990
171990 171990 171990
171990 171990 171990
171990 171990 171990
171990 171990 171990
171990 171990 171990
171990 171990 171990
171990 171990 171990
171990 171990 171990
171990 171990 171990
171990 171990 171990
171990 171990 171990
171990 171990 171990
171990 171990 171990
171990 171990 171990
171990 171990 171990
171990 171990 171990
171990 171990 171990
171990 171990 171990
171990 171990 171990
171990 171990 171990
171990 171990 171990
171990 171990 171990
171990 171990 171990
171990 171990 171990
171990 171990 171990
171990 171990 171990
171990 171990 171990
171990 171990 171990
171990 171990 171990
171990 171990 171990
171990 171990 171990
171990 171990 171990
171990 171990 171990
171990 171990 171990
171990 171990 171990
171990 171990 171990
171990 171990 171990
171990 171990 171990
171990 171990 171990
171990 171990 171990
171990 171990 171990
171990 171990 171990
171990 171990 171990
171990 171990 171990
171990 171990 171990
171990 171990 171990
171990 171990 171990
171990 171990 171990
171990 171990 171990
171990 171990 171990
171990 171990 171990
171990 171990 171990
171990 171990 171990
171990 171990 171990
171990 171990 171990
171990 171990 171990
171990 171990 171990
171990 171990 171990
171990 171990 171990
171990 171990 171990
171990 171990 171990
171990 171990 171990
171990 171990 171990
171990 171990 171990
171990 171990 171990
171990 171990 171990
171990 171990 171990
171990 171990 171990
171990 171990 171990
171990 171990 171990
171990 171990 171990
171990 171990 171990
171990 171990 171990
171990 171990 171990
171990 171990 171990
171990 171990 171990
171990 171990 171990
171990 171990 171990
171990 171990 171990
171990 171990 171990
171990 171990 171990
171990 171990 171990
171990 171990 171990
171990 171990 171990
171990 171990 171990
171990 171990 171990
171990 171990 171990
171990 171990 171990
171990 171990 171990
171990 171990 171990
171990 171990 171990
171990 171990 171990
171990 171990 171990
171990 171990 171990
171990 171990 171990
171990 171990 171990
171990 171990 171990
171990 171990 171990
171990 171990 171990
171990 171990 171990
171990 171990 171990
171990 171990 171990
171990 171990 171990
171990 171990 171990
171990 171990 171990
171990 171990 171990
171990 171990 171990
171990 171990 171990
171990 171990 171990
171990 171990 171990
171990 171990 171990
171990 171990 171990
171990 171990 171990
171990 171990 171990
171990 171990 171990
171990 171990 171990
171990 171990 171990
171990 171990 171990
171990 171990 171990
171990 171990 171990
171990 171990 171990
171990 171990 171990
171990 171990 171990
171990 171990 171990
171990 171990 171990
171990 171990 171990
171990 171990 171990
171990 171990 171990
171990 171990 171990
171990 171990 171990
171990 171990 171990
171990 171990 171990
171990 171990 171990
171990 171990 171990
171990 171990 171990
171990 171990 171990
171990 171990 171990
171990 171990 171990
171990 171990 171990
171990 171990 171990
171990 171990 171990
171990 171990 171990
171990 171990 171990
171990 171990 171990
171990 171990 171990
171990 171990 171990
171990 171990 171990
171990 171990 171990
171990 171990 171990
171990 171990 171990
171990 171990 171990
171990 171990 171990
171990 171990 171990
171990 171990 171990
171990 171990 171990
171990 171990 171990
171990 171990 171990
171990 171990 171990
171990 171990 171990
171990 171990 171990
171990 171990 171990
171990 171990 171990
171990 171990 171990
171990 171990 171990
171990 171990 171990
171990 171990 171990
171990 171990 171990
171990 171990 171990
171990 171990 171990
171990 171990 171990
171990 171990 171990
171990 171990 171990
171990 171990 171990
171990 171990 171990
171990 171990 171990
171990 171990 171990
171990 171990 171990
171990 171990 171990
171990 171990 171990
171990 171990 171990
171990 171990 171990
171990 171990 171990
171990 171990 171990
171990 171990 171990
171990 171990 171990
171990 171990 171990
171990 171990 171990
171990 171990 171990
171990 171990 171990
171990 171990 171990
171990 171990 171990
171990 171990 171990
171990 171990 171990
171990 171990 171990
171990 171990 171990
171990 171990 171990
171990 171990 171990
171990 171990 171990
171990 171990 171990
171990 171990 171990
171990 171990 171990
171990 171990 171990
171990 171990 171990
171990 171990 171990
171990 171990 171990
171990 171990 171990
171990 171990 171990
171990 171990 171990
171990 171990 171990
171990 171990 171990
171990 171990 171990
171990 171990 171990
171990 171990 171990
171990 171990 171990
171990 171990 171990
171990 171990 171990
171990 171990 171990
171990 171990 171990
171990 171990 171990
171990 171990 171990
171990 171990 171990
171990 171990 171990
171990 171990 171990
171990 171990 171990
171990 171990 171990
171990 171990 171990
171990 171990 171990
171990 171990 171990
171990 171990 171990
171990 171990 171990
171990 171990 171990
171990 171990 171990
171990 171990 171990
171990 171990 171990
171990 171990 171990
171990 171990 171990
171990 171990 171990
171990 171990 171990
171990 171990 171990
171990 171990 171990
171990 171990 171990
171990 171990 171990
171990 171990 171990
171990 171990 171990
171990 171990 171990
171990 171990 171990
171990 171990 171990
171990 171990 171990
171990 171990 171990
171990 171990 171990
171990 171990 171990
171990 171990 171990
171990 171990 171990
171990 171990 171990
171990 171990 171990
171990 171990 171990
171990 171990 171990
171990 171990 171990
171990 171990 171990
171990 171990 171990
171990 171990 171990
171990 171990 171990
171990 171990 171990
171990 171990 171990
171990 171990 171990
171990 171990 171990
171990 171990 171990
171990 171990 171990
171990 171990 171990
171990 171990 171990
171990 171990 171990
171990 171990 171990
171990 171990 171990
171990 171990 171990
171990 171990 171990
171990 171990 171990
171990 171990 171990
171990 171990 171990
171990 171990 171990
171990 171990 171990
171990 171990 171990
171990 171990 171990
171990 171990 171990
171990 171990 171990
171990 171990 171990
171990 171990 171990
171990 171990 171990
171990 171990 171990
171990 171990 171990
171990 171990 171990
171990 171990 171990
171990 171990 171990
171990 171990 171990
171990 171990 171990
171990 171990 171990
171990 171990 171990
171990 171990 171990
171990 171990 171990
171990 171990 171990
171990 171990 171990
171990 171990 171990
171990 171990 171990
171990 171990 171990
171990 171990 171990
171990 171990 171990
171990 171990 171990
171990 171990 171990
171990 171990 171990
171990 171990 171990
171990 171990 171990
171990 171990 171990
171990 171990 171990
171990 171990 171990
171990 171990 171990
171990 171990 171990
171990 171990 171990
171990 171990 171990
171990 171990 171990
171990 171990 171990
171990 171990 171990
171990 171990 171990
171990 171990 171990
171990 171990 171990
171990 171990 171990
171990 171990 171990
171990 171990 171990
171990 171990 171990
171990 171990 171990
171990 171990 171990
171990 171990 171990
171990 171990 171990
171990 171990 171990
171990 171990 171990
171990 171990 171990
171990 171990 171990
171990 171990 171990
171990 171990 171990
171990 171990 171990
171990 171990 171990
171990 171990 171990
171990 171990 171990
171990 171990 171990
171990 171990 171990
171990 171990 171990
171990 171990 171990
171990 171990 171990
171990 171990 171990
171990 171990 171990
171990 171990 171990
171990 171990 171990
171990 171990 171990
171990 171990 171990
171990 171990 171990
171990 171990 171990
171990 171990 171990
171990 171990 171990
171990 171990 171990
171990 171990 171990
171990 171990 171990
171990 171990 171990
171990 171990 171990
171990 171990 171990
171990 171990 171990
171990 171990 171990
171990 171990 171990
171990 171990 171990
171990 171990 171990
171990 171990 171990
171990 171990 171990
171990 171990 171990
171990 171990 171990
171990 171990 171990
171990 171990 171990
171990 171990 171990
171990 171990 171990
171990 171990 171990
171990 171990 171990
171990 171990 171990
171990 171990 171990
171990 171990 171990
171990 171990 171990
171990 171990 171990
171990 171990 171990
171990 171990 171990
171990 171990 171990
171990 171990 171990
171990 171990 171990
171990 171990 171990
171990 171990 171990
171990 171990 171990
171990 171990 171990
171990 171990 171990
171990 171990 171990
171990 171990 171990
171990 171990 171990
171990 171990 171990
171990 171990 171990
171990 171990 171990
171990 171990 171990
171990 171990 171990
171990 171990 171990
171990 171990 171990
171990 171990 171990
171990 171990 171990
171990 171990 171990
171990 171990 171990
171990 171990 171990
171990 171990 171990
171990 171990 171990
171990 171990 171990
171990 171990 171990
171990 171990 171990
171990 171990 171990
171990 171990 171990
171990 171990 171990
171990 171990 171990
171990 171990 171990
171990 171990 171990
171990 171990 171990
171990 171990 171990
171990 171990 171990
171990 171990 171990
171990 171990 171990
171990 171990 171990
171990 171990 171990
171990 171990 171990
171990 171990 171990
171990 171990 171990
171990 171990 171990
171990 171990 171990
171990 171990 171990
171990 171990 171990
171990 171990 171990
171990 171990 171990
171990 171990 171990
171990 171990 171990
171990 171990 171990
171990 171990 171990
171990 171990 171990
171990 171990 171990
171990 171990 171990
171990 171990 171990
171990 171990 171990
171990 171990 171990
171990 171990 171990
171990 171990 171990
171990 171990 171990
171990 171990 171990
171990 171990 171990
171990 171990 171990
171990 171990 171990
171990 171990 171990
171990 171990 171990
171990 171990 171990
171990 171990 171990
171990 171990 171990
171990 171990 171990
171990 171990 171990
171990 171990 171990
171990 171990 171990
171990 171990 171990
171990 171990 171990
171990 171990 171990
171990 171990 171990
171990 171990 171990
171990 171990 171990
171990 171990 171990
171990 171990 171990
171990 171990 171990
171990 171990 171990
171990 171990 171990
171990 171990 171990
171990 171990 171990
171990 171990 171990
171990 171990 171990
171990 171990 171990
171990 171990 171990
171990 171990 171990
171990 171990 171990
171990 171990 171990
171990 171990 171990
171990 171990 171990
171990 171990 171990
171990 171990 171990
171990 171990 171990
171990 171990 171990
171990 171990 171990
171990 171990 171990
171990 171990 171990
171990 171990 171990
171990 171990 171990
171990 171990 171990
171990 171990 171990
171990 171990 171990
171990 171990 171990
171990 171990 171990
171990 171990 171990
171990 171990 171990
171990 171990 171990
171990 171990 171990
171990 171990 171990
171990 171990 171990
171990 171990 171990
171990 171990 171990
171990 171990 171990
171990 171990 171990
171990 171990 171990
171990 171990 171990
171990 171990 171990
171990 171990 171990
171990 171990 171990
171990 171990 171990
171990 171990 171990
171990 171990 171990
171990 171990 171990
171990 171990 171990
171990 171990 171990
171990 171990 171990
171990 171990 171990
171990 171990 171990
171990 171990 171990
171990 171990 171990
171990 171990 171990
171990 171990 171990
171990 171990 171990
171990 171990 171990
171990 171990 171990
171990 171990 171990
171990 171990 171990
171990 171990 171990
171990 171990 171990
171990 171990 171990
171990 171990 171990
171990 171990 171990
171990 171990 171990
171990 171990 171990
171990 171990 171990
171990 171990 171990
171990 171990 171990
171990 171990 171990
171990 171990 171990
171990 171990 171990
171990 171990 171990
171990 171990 171990
171990 171990 171990
171990 171990 171990
171990 171990 171990
171990 171990 171990
171990 171990 171990
171990 171990 171990
171990 171990 171990
171990 171990 171990
171990 171990 171990
171990 171990 171990
171990 171990 171990
171990 171990 171990
171990 171990 171990
171990 171990 171990
171990 171990 171990
171990 171990 171990
171990 171990 171990
171990 171990 171990
171990 171990 171990
171990 171990 171990
171990 171990 171990
171990 171990 171990
171990 171990 171990
171990 171990 171990
171990 171990 171990
171990 171990 171990
171990 171990 171990
171990 171990 171990
171990 171990 171990
171990 171990 171990
171990 171990 171990
171990 171990 171990
171990 171990 171990
171990 171990 171990
171990 171990 171990
171990 171990 171990
171990 171990 171990
171990 171990 171990
171990 171990 171990
171990 171990 171990
171990 171990 171990
171990 171990 171990
171990 171990 171990
171990 171990 171990
171990 171990 171990
171990 171990 171990
171990 171990 171990
171990 171990 171990
171990 171990 171990
171990 171990 171990
171990 171990 171990
171990 171990 171990
171990 171990 171990
171990 171990 171990
171990 171990 171990
171990 171990 171990
171990 171990 171990
171990 171990 171990
171990 171990 171990
171990 171990 171990
171990 171990 171990
171990 171990 171990
171990 171990 171990
171990 171990 171990
171990 171990 171990
171990 171990 171990
171990 171990 171990
171990 171990 171990
171990 171990 171990
171990 171990 171990
171990 171990 171990
171990 171990 171990
171990 171990 171990
171990 171990 171990
171990 171990 171990
171990 171990 171990
171990 171990 171990
171990 171990 171990
171990 171990 171990
171990 171990 171990
171990 171990 171990
171990 171990 171990
171990 171990 171990
171990 171990 171990
171990 171990 171990
171990 171990 171990
171990 171990 171990
171990 171990 171990
171990 171990 171990
171990 171990 171990
171990 171990 171990
171990 171990 171990
171990 171990 171990
171990 171990 171990
171990 171990 171990
171990 171990 171990
171990 171990 171990
171990 171990 171990
171990 171990 171990
171990 171990 171990
171990 171990 171990
171990 171990 171990
171990 171990 171990
171990 171990 171990
171990 171990 171990
171990 171990 171990
171990 171990 171990
171990 171990 171990
171990 171990 171990
171990 171990 171990
171990 171990 171990
171990 171990 171990
171990 171990 171990
