AutomatedTesting/LutGeneration/SavedLut_{5249456B-306E-46E9-9576-586BDB5F63E3}.3dl
0 146 292 438 584 730 876 1023
0 0 0
1 1 584
0 1 1169
0 2 1754
0 5 2339
0 12 2924
0 29 3499
0 65 3499
0 584 1
0 584 584
0 585 1169
0 585 1754
0 585 2340
0 585 2924
0 585 3499
0 586 3499
0 1169 1
0 1170 585
0 1170 1170
0 1170 1754
0 1170 2339
0 1170 2924
0 1170 3499
0 1170 3499
0 1755 1
0 1755 585
0 1755 1169
0 1755 1754
0 1755 2339
0 1755 2924
0 1755 3499
0 1755 3499
0 2340 0
0 2340 584
0 2339 1169
0 2340 1755
0 2340 2339
0 2340 2924
0 2340 3499
0 2340 3499
0 2924 0
0 2924 584
0 2924 1170
0 2924 1754
0 2924 2339
0 2924 2924
0 2924 3499
0 2924 3499
0 3499 0
0 3499 584
0 3499 1169
0 3499 1754
0 3499 2340
0 3499 2924
0 3499 3499
0 3499 3499
0 3499 0
0 3499 585
0 3499 1169
0 3499 1755
0 3499 2339
0 3499 2924
0 3499 3499
0 3499 3499
584 1 1
584 1 584
584 1 1169
584 2 1754
584 5 2339
584 13 2924
583 28 3499
579 65 3499
584 585 1
584 584 584
584 585 1169
584 585 1754
584 585 2339
584 585 2924
583 585 3499
579 586 3499
584 1169 1
584 1169 585
584 1170 1169
584 1169 1754
584 1170 2339
584 1170 2924
583 1170 3499
579 1170 3499
584 1755 1
584 1755 585
584 1755 1170
584 1755 1754
584 1755 2340
584 1755 2924
583 1755 3499
579 1755 3499
584 2340 1
584 2339 585
584 2340 1169
584 2339 1755
584 2340 2339
584 2339 2924
583 2340 3499
579 2340 3499
584 2924 0
584 2924 585
584 2924 1170
584 2924 1755
584 2925 2339
583 2924 2924
582 2924 3499
578 2924 3499
582 3499 2
581 3499 585
581 3499 1169
581 3499 1755
581 3499 2339
581 3499 2924
580 3499 3499
576 3499 3499
571 3499 0
574 3499 585
573 3499 1169
572 3499 1754
575 3499 2340
572 3499 2925
572 3499 3499
567 3499 3499
1169 1 1
1169 1 585
1170 2 1170
1169 3 1754
1169 6 2339
1169 12 2924
1169 27 3499
1169 62 3499
1170 585 1
1169 585 585
1169 585 1169
1169 585 1754
1169 585 2339
1169 585 2924
1169 585 3499
1169 586 3499
1169 1169 1
1169 1169 585
1170 1170 1169
1169 1170 1754
1169 1170 2340
1169 1170 2924
1169 1170 3499
1169 1170 3499
1169 1755 0
1169 1755 585
1169 1755 1170
1169 1755 1754
1169 1755 2340
1169 1755 2924
1169 1755 3499
1169 1755 3499
1169 2339 1
1169 2340 584
1169 2340 1170
1169 2340 1755
1169 2340 2339
1169 2340 2924
1169 2340 3499
1168 2340 3499
1169 2924 0
1169 2924 584
1169 2924 1169
1169 2924 1754
1169 2924 2339
1169 2924 2924
1169 2924 3499
1168 2925 3499
1169 3499 4
1169 3499 585
1169 3499 1169
1169 3499 1755
1169 3499 2339
1169 3499 2924
1169 3499 3499
1168 3499 3499
1168 3499 0
1168 3499 584
1168 3499 1170
1168 3499 1754
1168 3499 2339
1168 3499 2924
1167 3499 3499
1167 3499 3499
1755 3 0
1754 3 584
1755 4 1169
1755 4 1754
1754 7 2339
1754 13 2924
1754 29 3499
1754 66 3499
1754 585 0
1754 585 584
1755 585 1169
1755 585 1754
1754 585 2340
1754 585 2924
1754 585 3499
1754 586 3499
1755 1170 0
1755 1170 585
1755 1170 1169
1755 1170 1754
1754 1170 2339
1754 1170 2924
1754 1170 3499
1754 1170 3499
1755 1755 0
1755 1755 585
1754 1755 1169
1754 1755 1754
1754 1755 2340
1754 1755 2924
1754 1755 3499
1754 1755 3499
1754 2339 1
1754 2340 584
1755 2339 1170
1754 2340 1754
1754 2340 2340
1754 2340 2924
1754 2340 3499
1754 2340 3499
1754 2925 0
1754 2924 584
1754 2924 1169
1754 2924 1755
1754 2924 2339
1754 2924 2924
1754 2924 3499
1754 2925 3499
1754 3499 0
1754 3499 585
1754 3499 1169
1754 3499 1754
1754 3499 2339
1754 3499 2924
1754 3499 3499
1754 3499 3499
1754 3499 0
1754 3499 584
1754 3499 1170
1754 3499 1755
1754 3499 2340
1754 3499 2924
1754 3499 3499
1754 3499 3499
2339 9 0
2339 9 584
2339 9 1170
2339 9 1755
2339 11 2339
2339 17 2924
2339 32 3499
2339 62 3499
2339 585 0
2339 585 584
2339 585 1169
2339 585 1755
2339 585 2339
2339 585 2924
2339 585 3499
2339 586 3499
2339 1170 0
2339 1170 584
2339 1170 1170
2339 1170 1755
2339 1170 2340
2339 1170 2924
2339 1170 3499
2339 1170 3499
2339 1755 0
2339 1755 585
2339 1755 1169
2339 1755 1754
2339 1755 2340
2339 1755 2924
2339 1755 3499
2339 1755 3499
2339 2339 0
2339 2340 585
2339 2339 1169
2339 2339 1755
2339 2339 2340
2339 2339 2924
2339 2340 3499
2339 2340 3499
2339 2925 0
2339 2924 584
2339 2924 1169
2339 2924 1755
2339 2924 2339
2339 2924 2924
2339 2924 3499
2339 2925 3499
2339 3499 0
2339 3499 584
2339 3499 1169
2339 3499 1755
2339 3499 2339
2339 3499 2924
2339 3499 3499
2339 3499 3499
2339 3499 0
2339 3499 584
2339 3499 1170
2339 3499 1755
2339 3499 2339
2339 3499 2924
2339 3499 3499
2339 3499 3499
2924 22 0
2924 23 584
2924 21 1170
2924 21 1755
2924 23 2339
2924 26 2924
2924 38 3499
2924 70 3499
2924 585 0
2924 585 584
2924 585 1170
2924 585 1755
2924 585 2339
2924 585 2924
2924 585 3499
2924 586 3499
2924 1170 0
2924 1170 584
2924 1170 1169
2924 1170 1754
2924 1170 2339
2924 1170 2924
2924 1170 3499
2924 1170 3499
2924 1755 0
2924 1755 584
2924 1755 1170
2924 1755 1755
2924 1755 2339
2924 1755 2924
2924 1755 3499
2924 1755 3499
2924 2340 0
2924 2340 584
2924 2339 1169
2924 2340 1755
2924 2340 2339
2924 2340 2924
2924 2340 3499
2924 2340 3499
2924 2925 0
2924 2924 584
2924 2924 1169
2924 2924 1755
2924 2924 2340
2924 2924 2924
2924 2925 3499
2924 2924 3499
2924 3499 0
2924 3499 584
2924 3499 1170
2924 3499 1755
2924 3499 2339
2924 3499 2924
2924 3499 3499
2924 3499 3499
2924 3499 8
2924 3499 584
2924 3499 1169
2924 3499 1755
2924 3499 2339
2924 3499 2925
2924 3499 3499
2924 3499 3499
3499 47 0
3499 48 584
3499 47 1169
3499 49 1755
3499 47 2339
3499 49 2924
3499 58 3499
3499 82 3499
3499 586 0
3499 586 584
3499 586 1169
3499 586 1754
3499 586 2339
3499 586 2924
3499 586 3499
3499 587 3499
3499 1170 0
3499 1170 584
3499 1170 1169
3499 1170 1755
3499 1170 2339
3499 1170 2924
3499 1170 3499
3499 1170 3499
3499 1755 0
3499 1755 584
3499 1755 1169
3499 1755 1755
3499 1755 2340
3499 1755 2924
3499 1755 3499
3499 1755 3499
3499 2340 0
3499 2340 584
3499 2340 1169
3499 2340 1755
3499 2340 2339
3499 2340 2924
3499 2340 3499
3499 2340 3499
3499 2925 0
3499 2925 584
3499 2925 1169
3499 2925 1755
3499 2925 2339
3499 2925 2924
3499 2925 3499
3499 2925 3499
3499 3499 0
3499 3499 584
3499 3499 1169
3499 3499 1754
3499 3499 2339
3499 3499 2924
3499 3499 3499
3499 3499 3499
3499 3499 0
3499 3499 584
3499 3499 1169
3499 3499 1754
3499 3499 2339
3499 3499 2924
3499 3499 3499
3499 3499 3499
3499 101 0
3499 99 584
3499 103 1169
3499 97 1754
3499 105 2339
3499 101 2924
3499 105 3499
3499 117 3499
3499 589 0
3499 589 584
3499 589 1169
3499 589 1754
3499 589 2339
3499 588 2924
3499 589 3499
3499 590 3499
3499 1170 0
3499 1170 584
3499 1170 1169
3499 1170 1754
3499 1170 2339
3499 1170 2924
3499 1170 3499
3499 1170 3499
3499 1755 0
3499 1755 584
3499 1755 1169
3499 1755 1754
3499 1755 2339
3499 1755 2924
3499 1755 3499
3499 1755 3499
3499 2340 0
3499 2340 584
3499 2340 1169
3499 2340 1755
3499 2340 2339
3499 2340 2924
3499 2340 3499
3499 2340 3499
3499 2925 0
3499 2925 584
3499 2925 1169
3499 2924 1754
3499 2924 2339
3499 2925 2924
3499 2925 3499
3499 2925 3499
3499 3499 0
3499 3499 584
3499 3499 1169
3499 3499 1754
3499 3499 2339
3499 3499 2924
3499 3499 3499
3499 3499 3499
3499 3499 0
3499 3499 584
3499 3499 1169
3499 3499 1754
3499 3499 2339
3499 3499 2925
3499 3499 3499
3499 3499 3499
