AutomatedTesting/LutGeneration/SavedLut_{5249456B-306E-46E9-9576-586BDB5F63E3}.3dl
0 341 682 1023
0 0 0
0 1 1365
0 9 2730
0 65 3499
0 1365 1
0 1365 1365
0 1365 2730
0 1365 3499
0 2730 2
0 2730 1365
0 2730 2730
0 2730 3499
0 3499 0
0 3499 1364
0 3499 2729
0 3499 3499
1365 2 1
1364 2 1364
1364 10 2730
1364 62 3499
1364 1364 1
1365 1365 1365
1364 1365 2730
1364 1365 3499
1364 2730 1
1364 2730 1364
1364 2730 2730
1364 2730 3499
1363 3499 17
1363 3499 1364
1363 3499 2730
1363 3499 3499
2729 16 0
2729 16 1365
2730 20 2730
2729 66 3499
2729 1365 0
2730 1365 1365
2730 1365 2730
2729 1365 3499
2729 2730 0
2730 2730 1365
2729 2730 2730
2729 2730 3499
2729 3499 0
2729 3499 1364
2729 3499 2730
2729 3499 3499
3499 101 0
3499 103 1364
3499 101 2730
3499 117 3499
3499 1365 0
3499 1365 1364
3499 1365 2730
3499 1365 3499
3499 2730 0
3499 2730 1364
3499 2730 2730
3499 2730 3499
3499 3499 0
3499 3499 1364
3499 3499 2730
3499 3499 3499
