AutomatedTesting/LutGeneration/SavedLut_{5249456B-306E-46E9-9576-586BDB5F63E3}.3dl
0 16 32 48 64 81 97 113 129 146 162 178 194 211 227 243 259 276 292 308 324 341 357 373 389 405 422 438 454 470 487 503 519 535 552 568 584 600 617 633 649 665 682 698 714 730 746 763 779 795 811 828 844 860 876 893 909 925 941 958 974 990 1006 1023 
0 0 0
1 1 64
1 1 129
1 1 194
1 1 259
1 1 324
1 1 389
1 1 455
1 1 519
1 1 584
1 1 649
0 1 715
0 1 780
0 1 845
0 1 910
0 1 974
0 1 1039
0 1 1105
0 1 1169
0 1 1235
0 1 1300
0 1 1365
0 1 1429
0 1 1494
0 2 1559
0 2 1624
0 2 1690
0 2 1754
0 2 1820
0 3 1885
0 3 1950
0 3 2015
0 3 2080
0 4 2145
0 4 2210
0 5 2275
0 5 2339
0 5 2404
0 6 2469
0 7 2535
0 7 2599
0 8 2665
0 9 2730
0 10 2795
0 11 2859
0 12 2924
0 13 2990
0 15 3055
0 16 3120
0 18 3185
0 19 3249
0 22 3315
0 23 3379
0 27 3444
0 29 3499
0 30 3499
0 34 3499
0 38 3499
0 41 3499
0 43 3499
0 48 3499
0 53 3499
0 58 3499
0 65 3499
1 64 1
1 64 64
1 65 129
1 65 194
1 65 259
1 65 324
1 65 390
1 65 455
1 65 519
1 65 584
1 65 649
0 65 715
0 65 780
0 65 845
0 65 910
0 65 974
0 65 1039
0 65 1105
0 65 1170
0 65 1235
0 65 1300
0 65 1365
0 65 1429
0 65 1494
0 65 1560
0 65 1624
0 65 1690
0 65 1754
0 65 1820
0 65 1885
0 65 1950
0 65 2015
0 65 2080
0 65 2144
0 65 2209
0 65 2274
0 65 2340
0 65 2404
0 66 2469
0 66 2535
0 66 2599
0 66 2665
0 66 2730
0 66 2794
0 67 2860
0 67 2924
0 68 2990
0 68 3055
0 68 3120
0 69 3184
0 70 3249
0 71 3314
0 72 3379
0 73 3445
0 73 3499
0 75 3499
0 76 3499
0 77 3499
0 81 3499
0 83 3499
0 83 3499
0 87 3499
0 91 3499
0 96 3499
1 129 1
1 129 65
1 129 129
1 130 194
1 130 259
1 130 324
1 130 390
1 130 455
1 130 519
1 130 584
1 130 649
0 130 715
0 130 780
0 130 845
0 130 910
0 130 974
0 130 1039
0 130 1105
0 130 1170
0 130 1235
0 130 1300
0 130 1364
0 130 1429
0 130 1495
0 130 1559
0 130 1624
0 130 1690
0 130 1754
0 130 1820
0 130 1885
0 130 1950
0 130 2015
0 130 2080
0 130 2145
0 130 2209
0 130 2274
0 130 2340
0 130 2405
0 130 2469
0 130 2534
0 130 2599
0 130 2665
0 130 2730
0 130 2795
0 131 2860
0 131 2924
0 131 2990
0 131 3054
0 131 3120
0 132 3184
0 132 3249
0 133 3314
0 133 3379
0 133 3445
0 134 3499
0 135 3499
0 136 3499
0 136 3499
0 137 3499
0 138 3499
0 141 3499
0 141 3499
0 144 3499
0 147 3499
1 194 1
1 194 65
1 194 130
1 194 194
1 195 259
1 195 324
1 195 389
1 195 455
1 195 520
1 195 584
1 195 649
1 195 715
0 195 780
0 195 845
0 195 910
0 195 974
0 195 1039
0 195 1105
0 195 1170
0 195 1235
0 195 1300
0 195 1364
0 195 1429
0 195 1494
0 195 1559
0 195 1624
0 195 1690
0 195 1754
0 195 1819
0 195 1885
0 195 1950
0 195 2015
0 195 2080
0 195 2145
0 195 2209
0 195 2275
0 195 2340
0 195 2404
0 195 2469
0 195 2535
0 195 2600
0 195 2665
0 195 2730
0 195 2795
0 195 2860
0 195 2924
0 195 2990
0 195 3055
0 196 3120
0 196 3185
0 196 3250
0 197 3315
0 197 3379
0 197 3444
0 198 3499
0 198 3499
0 198 3499
0 199 3499
0 200 3499
0 201 3499
0 202 3499
0 202 3499
0 203 3499
0 205 3499
1 260 1
1 260 65
1 260 130
1 259 195
1 259 260
1 260 324
1 260 389
1 260 455
1 260 520
1 260 584
1 260 650
0 260 715
0 260 780
0 260 845
0 260 910
0 260 974
0 260 1039
0 260 1105
0 260 1169
0 260 1235
0 260 1300
0 260 1365
0 260 1429
0 260 1494
0 260 1559
0 260 1624
0 260 1690
0 260 1754
0 260 1819
0 260 1885
0 260 1950
0 260 2015
0 260 2080
0 260 2145
0 260 2210
0 260 2274
0 260 2339
0 260 2404
0 260 2469
0 260 2535
0 260 2599
0 260 2664
0 260 2730
0 260 2795
0 260 2859
0 260 2924
0 260 2990
0 260 3055
0 260 3120
0 260 3184
0 261 3249
0 261 3315
0 261 3379
0 261 3445
0 262 3499
0 262 3499
0 262 3499
0 262 3499
0 263 3499
0 264 3499
0 264 3499
0 265 3499
0 266 3499
0 267 3499
1 324 1
1 324 65
1 324 130
1 324 195
1 324 260
1 324 324
1 325 389
1 325 455
1 325 519
1 325 584
1 325 650
0 325 715
0 325 780
0 325 845
0 325 910
0 325 974
0 325 1039
0 325 1105
0 325 1170
0 325 1235
0 325 1300
0 325 1365
0 325 1429
0 325 1494
0 325 1559
0 325 1624
0 325 1690
0 325 1755
0 325 1820
0 325 1885
0 325 1950
0 325 2015
0 325 2080
0 325 2145
0 325 2209
0 325 2274
0 325 2339
0 325 2405
0 325 2469
0 325 2534
0 325 2599
0 325 2665
0 325 2730
0 325 2795
0 325 2860
0 325 2924
0 325 2990
0 325 3054
0 325 3120
0 325 3185
0 325 3249
0 325 3315
0 325 3379
0 326 3444
0 326 3499
0 326 3499
0 327 3499
0 327 3499
0 327 3499
0 327 3499
0 328 3499
0 328 3499
0 329 3499
0 330 3499
1 389 1
1 389 65
1 389 130
1 389 195
1 389 260
1 390 325
1 390 390
1 390 454
1 390 519
1 390 584
0 390 650
0 390 715
0 390 780
0 390 845
0 390 910
0 390 974
0 390 1039
0 390 1105
0 390 1169
0 390 1235
0 390 1300
0 390 1365
0 390 1429
0 390 1494
0 390 1559
0 390 1625
0 390 1690
0 390 1754
0 390 1819
0 390 1885
0 390 1950
0 390 2015
0 390 2080
0 390 2144
0 390 2210
0 390 2275
0 390 2339
0 390 2404
0 390 2469
0 390 2535
0 390 2600
0 390 2665
0 390 2730
0 390 2794
0 390 2860
0 390 2924
0 390 2990
0 390 3054
0 390 3120
0 390 3185
0 390 3249
0 390 3315
0 390 3379
0 390 3444
0 391 3499
0 391 3499
0 391 3499
0 391 3499
0 391 3499
0 392 3499
0 392 3499
0 392 3499
0 393 3499
0 393 3499
1 455 1
1 455 65
1 455 130
1 455 195
1 455 260
1 454 325
1 454 390
1 455 454
1 455 519
1 455 584
0 455 650
0 455 715
0 455 780
0 455 845
0 455 910
0 455 974
0 455 1039
0 455 1105
0 455 1170
0 455 1235
0 455 1300
0 455 1365
0 455 1429
0 455 1494
0 455 1560
0 455 1624
0 455 1690
0 455 1754
0 455 1819
0 455 1885
0 455 1950
0 455 2015
0 455 2080
0 455 2145
0 455 2209
0 455 2275
0 455 2340
0 455 2404
0 455 2469
0 455 2535
0 455 2599
0 455 2665
0 455 2730
0 455 2795
0 455 2860
0 455 2924
0 455 2989
0 455 3054
0 455 3120
0 455 3185
0 455 3249
0 455 3314
0 455 3379
0 455 3445
0 455 3499
0 455 3499
0 456 3499
0 456 3499
0 456 3499
0 456 3499
0 456 3499
0 457 3499
0 457 3499
0 457 3499
0 519 1
0 519 65
0 519 130
0 519 195
1 519 260
1 519 325
1 520 390
0 520 455
1 519 520
0 519 584
0 520 650
0 520 715
0 520 780
0 520 845
0 520 910
0 520 974
0 520 1039
0 520 1105
0 520 1169
0 520 1235
0 520 1300
0 520 1364
0 520 1429
0 520 1495
0 520 1559
0 520 1625
0 520 1690
0 520 1754
0 520 1820
0 520 1885
0 520 1950
0 520 2015
0 520 2080
0 520 2144
0 520 2210
0 520 2274
0 520 2339
0 520 2405
0 520 2469
0 520 2535
0 520 2599
0 520 2665
0 520 2730
0 520 2795
0 520 2860
0 520 2924
0 520 2990
0 520 3055
0 520 3120
0 520 3184
0 520 3250
0 520 3315
0 520 3379
0 520 3445
0 520 3499
0 520 3499
0 520 3499
0 520 3499
0 520 3499
0 521 3499
0 521 3499
0 521 3499
0 522 3499
0 522 3499
0 584 1
0 584 65
0 584 130
0 584 195
0 584 260
0 584 325
0 584 390
0 584 455
0 584 519
0 584 584
0 584 649
0 585 715
0 585 780
0 584 845
0 585 910
0 585 974
0 585 1039
0 585 1105
0 585 1169
0 585 1235
0 585 1300
0 585 1365
0 585 1429
0 585 1494
0 585 1559
0 585 1624
0 585 1690
0 585 1754
0 585 1820
0 585 1885
0 585 1950
0 585 2015
0 585 2080
0 585 2144
0 585 2209
0 585 2274
0 585 2340
0 585 2405
0 585 2469
0 585 2534
0 585 2599
0 585 2665
0 585 2730
0 585 2795
0 585 2860
0 585 2924
0 585 2989
0 585 3054
0 585 3120
0 585 3184
0 585 3249
0 585 3314
0 585 3379
0 585 3445
0 585 3499
0 585 3499
0 585 3499
0 585 3499
0 585 3499
0 585 3499
0 586 3499
0 586 3499
0 586 3499
0 586 3499
0 649 1
0 649 65
0 649 130
0 649 195
0 649 260
0 649 325
0 649 390
0 649 455
0 649 520
0 649 584
0 650 649
0 650 715
0 650 780
0 650 845
0 650 910
0 650 974
0 650 1039
0 650 1105
0 650 1169
0 650 1235
0 650 1300
0 650 1365
0 650 1429
0 650 1494
0 650 1560
0 650 1624
0 650 1690
0 650 1755
0 650 1819
0 650 1885
0 650 1950
0 650 2015
0 650 2080
0 650 2145
0 650 2210
0 650 2274
0 650 2340
0 650 2404
0 650 2469
0 650 2535
0 650 2600
0 650 2665
0 650 2730
0 650 2795
0 650 2859
0 650 2924
0 650 2990
0 650 3054
0 650 3120
0 650 3185
0 650 3249
0 650 3315
0 650 3379
0 650 3445
0 650 3499
0 650 3499
0 650 3499
0 650 3499
0 650 3499
0 650 3499
0 650 3499
0 651 3499
0 651 3499
0 651 3499
0 715 1
0 715 65
0 715 130
0 715 195
0 715 260
0 715 325
0 715 390
0 715 455
0 715 520
0 715 585
0 715 649
0 715 715
0 715 780
0 714 845
0 715 910
0 714 974
0 715 1039
0 715 1105
0 715 1169
0 715 1235
0 715 1300
0 715 1364
0 715 1429
0 715 1494
0 715 1559
0 715 1624
0 715 1690
0 715 1754
0 715 1819
0 715 1885
0 715 1950
0 715 2015
0 715 2080
0 715 2145
0 715 2210
0 715 2274
0 715 2339
0 715 2405
0 715 2469
0 715 2535
0 715 2599
0 715 2665
0 715 2730
0 715 2795
0 715 2859
0 715 2924
0 715 2989
0 715 3055
0 715 3120
0 715 3185
0 715 3249
0 715 3314
0 715 3379
0 715 3445
0 715 3499
0 715 3499
0 715 3499
0 715 3499
0 715 3499
0 715 3499
0 715 3499
0 715 3499
0 716 3499
0 716 3499
0 780 1
0 780 65
0 780 130
0 780 195
0 780 260
0 780 325
0 780 390
0 780 455
0 780 520
0 780 585
0 780 650
0 780 715
0 780 780
0 780 845
0 780 910
0 780 974
0 780 1039
0 780 1105
0 780 1170
0 780 1235
0 780 1300
0 780 1365
0 780 1429
0 780 1494
0 780 1559
0 780 1624
0 780 1690
0 780 1754
0 780 1819
0 780 1885
0 780 1950
0 780 2015
0 780 2080
0 780 2145
0 780 2209
0 780 2274
0 780 2339
0 780 2404
0 780 2469
0 780 2535
0 780 2599
0 780 2665
0 780 2730
0 780 2795
0 780 2859
0 780 2924
0 780 2989
0 780 3054
0 780 3120
0 780 3184
0 780 3249
0 780 3315
0 780 3379
0 780 3445
0 780 3499
0 780 3499
0 780 3499
0 780 3499
0 780 3499
0 780 3499
0 780 3499
0 780 3499
0 780 3499
0 780 3499
0 845 1
0 845 65
0 845 130
0 845 195
0 845 260
0 845 325
0 845 390
0 845 455
0 845 520
0 845 585
0 845 650
0 845 715
0 845 780
0 844 844
0 845 910
0 845 974
0 845 1039
0 845 1105
0 845 1170
0 845 1235
0 845 1300
0 845 1365
0 845 1429
0 845 1494
0 845 1559
0 845 1624
0 845 1690
0 845 1754
0 845 1819
0 845 1885
0 845 1950
0 845 2015
0 845 2080
0 845 2145
0 845 2209
0 845 2274
0 845 2339
0 845 2404
0 845 2469
0 845 2535
0 845 2600
0 845 2665
0 845 2730
0 845 2794
0 845 2860
0 845 2924
0 845 2990
0 845 3055
0 845 3120
0 845 3184
0 845 3249
0 845 3315
0 845 3379
0 845 3445
0 845 3499
0 845 3499
0 845 3499
0 845 3499
0 845 3499
0 845 3499
0 845 3499
0 845 3499
0 845 3499
0 845 3499
0 909 1
0 909 65
0 909 130
0 910 195
