Gems/AtomLyIntegration/CommonFeatures/Resources/ColorGrading/LUTs/from_ACEScg_to_Log2-48nits.3dl
3DMESH
Mesh 5 12
0 32 64 96 128 160 192 224 256 288 320 352 384 416 448 480 512 543 575 607 639 671 703 735 767 799 831 863 895 927 959 991 1023
0 0 0
430 185 1252
745 500 1567
929 684 1752
1060 815 1882
1161 916 1984
1244 999 2067
1314 1069 2137
1375 1130 2197
1428 1183 2251
1476 1231 2299
1520 1274 2342
1559 1314 2382
1595 1350 2418
1629 1384 2452
1661 1415 2483
1690 1445 2512
1717 1472 2540
1743 1498 2566
1768 1523 2591
1791 1546 2614
1813 1568 2636
1835 1589 2657
1855 1610 2677
1874 1629 2697
1893 1647 2715
1910 1665 2733
1928 1682 2750
1944 1699 2767
1960 1715 2783
1976 1730 2798
1990 1745 2813
2005 1760 2827
360 1183 0
711 1231 1254
907 1274 1568
1043 1314 1752
1148 1350 1883
1233 1384 1984
1305 1415 2067
1367 1445 2137
1421 1472 2198
1470 1498 2251
1514 1523 2299
1554 1546 2342
1590 1568 2382
1625 1589 2418
1656 1610 2452
1686 1629 2483
1714 1647 2513
1740 1665 2540
1765 1682 2566
1788 1699 2591
1810 1715 2614
1832 1730 2636
1852 1745 2657
1871 1760 2677
1890 1774 2697
1908 1787 2715
1925 1800 2733
1942 1813 2750
1958 1826 2767
1973 1838 2783
1988 1850 2798
2003 1861 2813
2017 1872 2828
675 1498 0
884 1523 1256
1026 1546 1569
1135 1568 1753
1222 1589 1883
1295 1609 1985
1358 1629 2067
1414 1647 2137
1463 1665 2198
1508 1682 2251
1548 1699 2299
1585 1715 2343
1620 1730 2382
1652 1745 2418
1682 1760 2452
1710 1774 2483
1736 1787 2513
1761 1800 2540
1785 1813 2566
1807 1826 2591
1829 1838 2614
1849 1849 2636
1869 1861 2657
1887 1872 2678
1905 1883 2697
1923 1894 2715
1940 1904 2733
1956 1915 2750
1971 1925 2767
1986 1934 2783
2001 1944 2798
2015 1953 2813
2029 1962 2828
860 1682 0
1009 1699 1258
1121 1715 1570
1211 1730 1754
1286 1745 1884
1350 1760 1985
1406 1774 2068
1457 1787 2138
1502 1800 2198
1543 1813 2252
1580 1826 2299
1615 1838 2343
1647 1849 2382
1678 1861 2419
1706 1872 2452
1733 1883 2484
1758 1894 2513
1781 1904 2540
1804 1915 2566
1826 1924 2591
1846 1934 2614
1866 1944 2636
1885 1953 2657
1903 1962 2678
1920 1971 2697
1937 1980 2716
1953 1989 2733
1969 1997 2750
1984 2006 2767
1999 2014 2783
2013 2022 2798
2027 2030 2813
2040 2038 2828
990 1813 0
1107 1826 1260
1199 1838 1571
1276 1849 1754
1341 1861 1884
1399 1872 1985
1450 1883 2068
1496 1894 2138
1537 1904 2198
1575 1914 2252
1610 1924 2300
1643 1934 2343
1673 1944 2382
1702 1953 2419
1729 1962 2452
1754 1971 2484
1778 1980 2513
1801 1989 2540
1823 1997 2566
1843 2006 2591
1863 2014 2614
1882 2022 2636
1900 2030 2658
1918 2038 2678
1935 2045 2697
1951 2053 2716
1967 2060 2733
1982 2067 2751
1997 2075 2767
2011 2082 2783
2025 2089 2798
2038 2095 2813
2051 2102 2828
1092 1914 0
1187 1924 1262
1266 1934 1572
1333 1944 1755
1391 1953 1885
1443 1962 1986
1489 1971 2068
1531 1980 2138
1570 1989 2199
1606 1997 2252
1639 2006 2300
1669 2014 2343
1698 2022 2382
1725 2030 2419
1751 2038 2452
1775 2045 2484
1798 2053 2513
1820 2060 2541
1841 2067 2567
1860 2075 2591
1880 2082 2614
1898 2089 2636
1916 2095 2658
1933 2102 2678
1949 2109 2697
1965 2115 2716
1980 2122 2733
1995 2128 2751
2009 2134 2767
2023 2141 2783
2036 2147 2798
2049 2153 2813
2062 2159 2828
1175 1997 0
1255 2006 1263
1324 2014 1573
1383 2022 1755
1436 2030 1885
1483 2038 1986
1526 2045 2069
1565 2053 2138
1601 2060 2199
1634 2067 2252
1665 2075 2300
1694 2082 2343
1721 2089 2383
1747 2095 2419
1772 2102 2453
1795 2109 2484
1817 2115 2513
1838 2122 2541
1858 2128 2567
1877 2134 2591
1895 2141 2614
1913 2147 2637
1930 2153 2658
1947 2159 2678
1962 2164 2697
1978 2170 2716
1993 2176 2734
2007 2182 2751
2021 2187 2767
2034 2193 2783
2048 2198 2799
2060 2204 2813
2073 2209 2828
1245 2067 0
1315 2075 1265
1375 2082 1574
1429 2089 1756
1477 2095 1886
1520 2102 1986
1559 2109 2069
1596 2115 2139
1629 2122 2199
1661 2128 2252
1690 2134 2300
1718 2141 2343
1744 2147 2383
1768 2153 2419
1791 2159 2453
1814 2164 2484
1835 2170 2513
1855 2176 2541
1874 2182 2567
1893 2187 2591
1911 2193 2615
1928 2198 2637
1944 2204 2658
1960 2209 2678
1976 2214 2697
1991 2219 2716
2005 2224 2734
2019 2230 2751
2033 2235 2767
2046 2239 2783
2058 2244 2799
2071 2249 2813
2083 2254 2828
1305 2128 0
1367 2134 1267
1422 2141 1575
1470 2147 1757
1514 2153 1886
1554 2159 1987
1591 2164 2069
1625 2170 2139
1656 2176 2199
1686 2182 2253
1714 2187 2300
1740 2193 2344
1765 2198 2383
1788 2204 2419
1811 2209 2453
1832 2214 2484
1852 2219 2513
1872 2224 2541
1890 2229 2567
1908 2235 2591
1925 2239 2615
1942 2244 2637
1958 2249 2658
1973 2254 2678
1988 2259 2697
2003 2264 2716
2017 2268 2734
2031 2273 2751
2044 2277 2767
2057 2282 2783
2069 2286 2799
2081 2291 2814
2093 2295 2828
1359 2182 0
1414 2187 1269
1464 2193 1576
1508 2198 1757
1549 2204 1887
1586 2209 1987
1620 2214 2069
1652 2219 2139
1682 2224 2200
1710 2229 2253
1736 2235 2301
1761 2239 2344
1785 2244 2383
1807 2249 2419
1829 2254 2453
1849 2259 2484
1869 2264 2513
1888 2268 2541
1906 2273 2567
1923 2277 2591
1940 2282 2615
1956 2286 2637
1971 2291 2658
1986 2295 2678
2001 2300 2697
2015 2304 2716
2029 2308 2734
2042 2312 2751
2055 2317 2767
2067 2321 2783
2080 2325 2799
2092 2329 2814
2103 2333 2828
1407 2229 0
1457 2235 1270
1502 2239 1577
1543 2244 1758
1581 2249 1887
1615 2254 1988
1648 2259 2070
1678 2264 2139
1706 2268 2200
1733 2273 2253
1758 2277 2301
1782 2282 2344
1804 2286 2383
1826 2291 2420
1846 2295 2453
1866 2300 2484
1885 2304 2514
1903 2308 2541
1921 2312 2567
1937 2317 2592
1954 2321 2615
1969 2325 2637
1984 2329 2658
1999 2333 2678
2013 2337 2697
2027 2341 2716
2040 2345 2734
2053 2349 2751
2066 2353 2767
2078 2356 2783
2090 2360 2799
2101 2364 2814
2113 2368 2828
1450 2273 0
1496 2277 1272
1538 2282 1577
1576 2286 1758
1611 2291 1887
1643 2295 1988
1674 2300 2070
1702 2304 2140
1729 2308 2200
1754 2312 2253
1778 2317 2301
1801 2321 2344
1823 2325 2383
1844 2329 2420
1863 2333 2453
1882 2337 2484
1901 2341 2514
1918 2345 2541
1935 2349 2567
1951 2353 2592
1967 2356 2615
1982 2360 2637
1997 2364 2658
2011 2368 2678
2025 2371 2698
2038 2375 2716
2051 2379 2734
2064 2382 2751
2076 2386 2768
2088 2390 2783
2100 2393 2799
2111 2397 2814
2122 2400 2828
1490 2312 0
1532 2317 1274
1570 2321 1578
1606 2325 1759
1639 2329 1888
1670 2333 1988
1698 2337 2070
1725 2341 2140
1751 2345 2200
1775 2349 2253
1798 2353 2301
1820 2356 2344
1841 2360 2384
1861 2364 2420
1880 2368 2453
1898 2371 2485
1916 2375 2514
1933 2379 2541
1949 2382 2567
1965 2386 2592
1980 2390 2615
1995 2393 2637
2009 2397 2658
2023 2400 2678
2036 2404 2698
2049 2407 2716
2062 2410 2734
2075 2414 2751
2087 2417 2768
2098 2420 2783
2110 2424 2799
2121 2427 2814
2132 2430 2828
1526 2349 0
1565 2353 1276
1601 2356 1579
1634 2360 1760
1665 2364 1888
1694 2368 1989
1722 2371 2071
1747 2375 2140
1772 2379 2200
1795 2382 2254
1817 2386 2301
1838 2390 2344
1858 2393 2384
1877 2397 2420
1896 2400 2453
1913 2404 2485
1930 2407 2514
1947 2410 2541
1963 2414 2567
1978 2417 2592
1993 2420 2615
2007 2424 2637
2021 2427 2658
2035 2430 2678
2048 2434 2698
2060 2437 2716
2073 2440 2734
2085 2443 2751
2097 2446 2768
2108 2449 2784
2119 2452 2799
2130 2456 2814
2141 2459 2828
1560 2382 0
1596 2386 1277
1630 2390 1580
1661 2393 1760
1690 2397 1889
1718 2400 1989
1744 2404 2071
1768 2407 2140
1792 2410 2201
1814 2414 2254
1835 2417 2301
1855 2420 2345
1874 2424 2384
1893 2427 2420
1911 2430 2454
1928 2434 2485
1944 2437 2514
1960 2440 2542
1976 2443 2567
1991 2446 2592
2005 2449 2615
2019 2452 2637
2033 2456 2658
2046 2459 2679
2059 2462 2698
2071 2465 2716
2083 2468 2734
2095 2471 2751
2106 2474 2768
2118 2477 2784
2129 2479 2799
2139 2482 2814
2150 2485 2828
1591 2414 0
1625 2417 1279
1657 2420 1581
1686 2424 1761
1714 2427 1889
1740 2430 1989
1765 2434 2071
1788 2437 2141
1811 2440 2201
1832 2443 2254
1852 2446 2302
1872 2449 2345
1890 2452 2384
1908 2456 2420
1926 2459 2454
1942 2462 2485
1958 2465 2514
1974 2468 2542
1989 2471 2568
2003 2474 2592
2017 2477 2615
2031 2479 2637
2044 2482 2658
2057 2485 2679
2069 2488 2698
2081 2491 2716
2093 2494 2734
2105 2497 2751
2116 2499 2768
2127 2502 2784
2138 2505 2799
2148 2508 2814
2159 2510 2828
1620 2443 5
1652 2446 1281
1682 2449 1582
1710 2452 1761
1737 2456 1890
1762 2459 1990
1785 2462 2072
1808 2465 2141
1829 2468 2201
1850 2471 2254
1869 2474 2302
1888 2477 2345
1906 2479 2384
1923 2482 2420
1940 2485 2454
1956 2488 2485
1971 2491 2514
1987 2494 2542
2001 2497 2568
2015 2499 2592
2029 2502 2615
2042 2505 2637
2055 2508 2659
2068 2510 2679
2080 2513 2698
2092 2516 2716
2103 2519 2734
2115 2521 2751
2126 2524 2768
2136 2526 2784
2147 2529 2799
2157 2532 2814
2167 2534 2828
1648 2471 33
1678 2474 1283
1706 2477 1583
1733 2479 1762
1758 2482 1890
1782 2485 1990
1805 2488 2072
1826 2491 2141
1847 2494 2201
1866 2497 2254
1885 2499 2302
1903 2502 2345
1921 2505 2384
1938 2508 2420
1954 2510 2454
1969 2513 2485
1984 2516 2514
1999 2519 2542
2013 2521 2568
2027 2524 2592
2040 2526 2615
2053 2529 2638
2066 2532 2659
2078 2534 2679
2090 2537 2698
2102 2539 2717
2113 2542 2734
2124 2544 2751
2135 2547 2768
2145 2550 2784
2156 2552 2799
2166 2554 2814
2176 2557 2828
1674 2497 59
1703 2499 1284
1729 2502 1584
1755 2505 1763
1779 2508 1891
1801 2510 1990
1823 2513 2072
1844 2516 2141
1864 2519 2202
1883 2521 2255
1901 2524 2302
1918 2526 2345
1935 2529 2384
1951 2532 2421
1967 2534 2454
1982 2537 2485
1997 2539 2515
2011 2542 2542
2025 2544 2568
2038 2547 2592
2051 2550 2616
2064 2552 2638
2076 2554 2659
2088 2557 2679
2100 2559 2698
2111 2562 2717
2122 2564 2734
2133 2567 2751
2144 2569 2768
2154 2571 2784
2164 2574 2799
2174 2576 2814
2184 2579 2828
1699 2521 84
1726 2524 1286
1751 2526 1584
1775 2529 1763
1798 2532 1891
1820 2534 1991
1841 2537 2072
1861 2539 2142
1880 2542 2202
1898 2544 2255
1916 2547 2302
1933 2550 2345
1949 2552 2385
1965 2554 2421
1980 2557 2454
1995 2559 2485
2009 2562 2515
2023 2564 2542
2037 2567 2568
2050 2569 2592
2062 2571 2616
2075 2574 2638
2087 2576 2659
2098 2579 2679
2110 2581 2698
2121 2583 2717
2132 2586 2734
2142 2588 2752
2153 2590 2768
2163 2592 2784
2173 2595 2799
2183 2597 2814
2192 2599 2829
1722 2544 107
1748 2547 1288
1772 2550 1585
1795 2552 1764
1817 2554 1892
1838 2557 1991
1858 2559 2073
1877 2562 2142
1896 2564 2202
1913 2567 2255
1930 2569 2303
1947 2571 2345
1963 2574 2385
1978 2576 2421
1993 2579 2454
2007 2581 2486
2021 2583 2515
2035 2585 2542
2048 2588 2568
2060 2590 2592
2073 2592 2616
2085 2595 2638
2097 2597 2659
2108 2599 2679
2119 2601 2698
2130 2604 2717
2141 2606 2735
2151 2608 2752
2161 2610 2768
2171 2612 2784
2181 2615 2799
2191 2617 2814
2200 2619 2829
1744 2567 129
1769 2569 1289
1792 2571 1586
1814 2574 1764
1835 2576 1892
1855 2579 1991
1875 2581 2073
1893 2583 2142
1911 2585 2202
1928 2588 2255
1945 2590 2303
1961 2592 2346
1976 2595 2385
1991 2597 2421
2005 2599 2455
2019 2601 2486
2033 2604 2515
2046 2606 2542
2059 2608 2568
2071 2610 2593
2083 2612 2616
2095 2615 2638
2107 2617 2659
2118 2619 2679
2129 2621 2698
2139 2623 2717
2150 2625 2735
2160 2627 2752
2170 2629 2768
2180 2632 2784
2189 2634 2799
2199 2636 2814
2208 2638 2829
1765 2588 150
1789 2590 1291
1811 2592 1587
1832 2595 1765
1853 2597 1892
1872 2599 1992
1891 2601 2073
1908 2604 2142
1926 2606 2202
1942 2608 2255
1958 2610 2303
1974 2612 2346
1989 2615 2385
2003 2617 2421
2017 2619 2455
2031 2621 2486
2044 2623 2515
2057 2625 2542
2069 2627 2568
2082 2629 2593
2093 2632 2616
2105 2634 2638
2116 2636 2659
2127 2638 2679
2138 2640 2698
2148 2642 2717
2159 2644 2735
2169 2646 2752
2178 2648 2768
2188 2650 2784
2197 2652 2799
2207 2654 2814
2216 2656 2829
1785 2608 170
1808 2610 1293
1829 2612 1588
1850 2615 1766
1869 2617 1893
1888 2619 1992
1906 2621 2074
1923 2623 2143
1940 2625 2203
1956 2627 2256
1972 2629 2303
1987 2632 2346
2001 2634 2385
2015 2636 2421
2029 2638 2455
2042 2640 2486
2055 2642 2515
2068 2644 2542
2080 2646 2568
2092 2648 2593
2103 2650 2616
2115 2652 2638
2126 2654 2659
2136 2656 2679
2147 2658 2698
2157 2660 2717
2167 2662 2735
2177 2664 2752
2187 2666 2768
2196 2668 2784
2205 2670 2800
2214 2671 2814
2223 2673 2829
1805 2627 190
1826 2629 1294
1847 2632 1589
1867 2634 1766
1885 2636 1893
1903 2638 1993
1921 2640 2074
1938 2642 2143
1954 2644 2203
1969 2646 2256
1985 2648 2303
1999 2650 2346
2013 2652 2385
2027 2654 2421
2040 2656 2455
2053 2658 2486
2066 2660 2515
2078 2662 2543
2090 2664 2568
2102 2666 2593
2113 2668 2616
2124 2670 2638
2135 2671 2659
2145 2673 2679
2156 2675 2699
2166 2677 2717
2176 2679 2735
2185 2681 2752
2195 2683 2768
2204 2685 2784
2213 2686 2800
2222 2688 2814
2231 2690 2829
1823 2646 208
1844 2648 1296
1864 2650 1590
1883 2652 1767
1901 2654 1894
1918 2656 1993
1935 2658 2074
1952 2660 2143
1967 2662 2203
1982 2664 2256
1997 2666 2303
2011 2668 2346
2025 2670 2386
2039 2671 2422
2052 2673 2455
2064 2675 2486
2076 2677 2515
2088 2679 2543
2100 2681 2569
2111 2683 2593
2123 2685 2616
2133 2686 2638
2144 2688 2659
2154 2690 2679
2164 2692 2699
2174 2694 2717
2184 2696 2735
2193 2697 2752
2203 2699 2768
2212 2701 2784
2221 2703 2800
2229 2705 2815
2238 2706 2829
1841 2664 226
1861 2666 1298
1880 2668 1591
1898 2670 1767
1916 2671 1894
1933 2673 1993
1949 2675 2075
1965 2677 2144
1980 2679 2203
1995 2681 2256
2009 2683 2304
2023 2685 2346
2037 2686 2386
2050 2688 2422
2062 2690 2455
2075 2692 2486
2087 2694 2515
2098 2696 2543
2110 2697 2569
2121 2699 2593
2132 2701 2616
2142 2703 2638
2153 2705 2659
2163 2706 2679
2173 2708 2699
2183 2710 2717
2192 2712 2735
2201 2713 2752
2211 2715 2768
2219 2717 2784
2228 2719 2800
2237 2720 2815
2245 2722 2829
1858 2681 243
1877 2683 1299
1896 2685 1591
1914 2686 1768
1931 2688 1895
1947 2690 1994
1963 2692 2075
1978 2694 2144
1993 2696 2204
