Gems/AtomLyIntegration/CommonFeatures/Resources/ColorGrading/LUTs/from_Log2-48nits_to_ACEScg.3dl
3DMESH
Mesh 5 12
0 32 64 96 128 160 192 224 256 288 320 352 384 416 448 480 512 543 575 607 639 671 703 735 767 799 831 863 895 927 959 991 1023
8 8 8
8 8 11
7 8 14
6 7 19
4 6 25
3 6 33
0 5 44
0 3 58
0 1 77
0 0 102
0 0 136
0 0 180
0 0 238
0 0 316
0 0 419
0 0 555
0 0 735
0 0 975
0 0 1292
0 0 1712
0 0 2268
0 0 3006
0 0 3984
0 0 4095
0 0 4095
0 0 4095
0 0 4095
0 0 4095
0 0 4095
0 0 4095
0 0 4095
0 0 4095
0 0 4095
8 11 8
7 11 11
6 11 14
5 10 19
4 10 25
2 9 33
0 8 44
0 6 58
0 4 77
0 2 102
0 0 136
0 0 180
0 0 238
0 0 316
0 0 419
0 0 555
0 0 735
0 0 975
0 0 1292
0 0 1712
0 0 2268
0 0 3006
0 0 3984
0 0 4095
0 0 4095
0 0 4095
0 0 4095
0 0 4095
0 0 4095
0 0 4095
0 0 4095
0 0 4095
0 0 4095
7 15 8
6 15 11
5 15 14
4 14 19
3 14 25
1 13 33
0 12 44
0 10 58
0 8 77
0 6 102
0 3 136
0 0 180
0 0 238
0 0 316
0 0 419
0 0 555
0 0 735
0 0 975
0 0 1292
0 0 1712
0 0 2268
0 0 3006
0 0 3984
0 0 4095
0 0 4095
0 0 4095
0 0 4095
0 0 4095
0 0 4095
0 0 4095
0 0 4095
0 0 4095
0 0 4095
6 21 8
5 21 11
4 20 14
3 20 19
2 19 25
0 18 33
0 17 44
0 16 58
0 14 77
0 11 102
0 8 136
0 4 180
0 0 238
0 0 316
0 0 419
0 0 555
0 0 735
0 0 975
0 0 1292
0 0 1712
0 0 2268
0 0 3006
0 0 3984
0 0 4095
0 0 4095
0 0 4095
0 0 4095
0 0 4095
0 0 4095
0 0 4095
0 0 4095
0 0 4095
0 0 4095
4 28 8
4 28 11
3 27 14
2 27 19
0 26 25
0 26 33
0 25 44
0 23 58
0 21 77
0 19 102
0 15 136
0 11 180
0 5 238
0 0 316
0 0 419
0 0 555
0 0 735
0 0 975
0 0 1291
0 0 1712
0 0 2268
0 0 3006
0 0 3984
0 0 4095
0 0 4095
0 0 4095
0 0 4095
0 0 4095
0 0 4095
0 0 4095
0 0 4095
0 0 4095
0 0 4095
2 38 8
2 37 11
1 37 14
0 37 19
0 36 25
0 35 33
0 34 44
0 33 58
0 31 77
0 28 102
0 25 136
0 21 180
0 15 238
0 7 316
0 0 419
0 0 555
0 0 735
0 0 974
0 0 1291
0 0 1712
0 0 2268
0 0 3006
0 0 3984
0 0 4095
0 0 4095
0 0 4095
0 0 4095
0 0 4095
0 0 4095
0 0 4095
0 0 4095
0 0 4095
0 0 4095
0 50 8
0 50 11
0 50 14
0 49 19
0 49 25
0 48 33
0 47 44
0 45 58
0 44 77
0 41 102
0 38 136
0 33 180
0 27 238
0 20 316
0 9 419
0 0 555
0 0 735
0 0 974
0 0 1291
0 0 1711
0 0 2268
0 0 3006
0 0 3984
0 0 4095
0 0 4095
0 0 4095
0 0 4095
0 0 4095
0 0 4095
0 0 4095
0 0 4095
0 0 4095
0 0 4095
0 67 8
0 67 10
0 67 14
0 66 19
0 66 25
0 65 33
0 64 44
0 62 58
0 60 77
0 58 102
0 55 135
0 50 180
0 44 238
0 37 316
0 26 418
0 13 555
0 0 735
0 0 974
0 0 1291
0 0 1711
0 0 2268
0 0 3006
0 0 3983
0 0 4095
0 0 4095
0 0 4095
0 0 4095
0 0 4095
0 0 4095
0 0 4095
0 0 4095
0 0 4095
0 0 4095
0 90 8
0 89 10
0 89 14
0 89 19
0 88 25
0 87 33
0 86 44
0 85 58
0 83 77
0 80 102
0 77 135
0 73 180
0 67 238
0 59 316
0 49 418
0 35 555
0 17 735
0 0 974
0 0 1291
0 0 1711
0 0 2268
0 0 3006
0 0 3983
0 0 4095
0 0 4095
0 0 4095
0 0 4095
0 0 4095
0 0 4095
0 0 4095
0 0 4095
0 0 4095
0 0 4095
0 119 8
0 119 10
0 119 14
0 118 18
0 118 25
0 117 33
0 116 43
0 114 58
0 112 77
0 110 102
0 107 135
0 102 179
0 96 238
0 89 315
0 78 418
0 65 554
0 47 735
0 23 974
0 0 1291
0 0 1711
0 0 2268
0 0 3006
0 0 3983
0 0 4095
0 0 4095
0 0 4095
0 0 4095
0 0 4095
0 0 4095
0 0 4095
0 0 4095
0 0 4095
0 0 4095
0 159 7
0 158 10
0 158 14
0 158 18
0 157 24
0 156 32
0 155 43
0 154 58
0 152 77
0 149 102
0 146 135
0 141 179
0 136 238
0 128 315
0 118 418
0 104 554
0 86 735
0 62 974
0 30 1291
0 0 1711
0 0 2268
0 0 3005
0 0 3983
0 0 4095
0 0 4095
0 0 4095
0 0 4095
0 0 4095
0 0 4095
0 0 4095
0 0 4095
0 0 4095
0 0 4095
0 211 7
0 210 10
0 210 13
0 210 18
0 209 24
0 208 32
0 207 43
0 206 57
0 204 76
0 201 101
0 198 135
0 194 179
0 188 237
0 180 315
0 170 418
0 156 554
0 138 734
0 114 974
0 82 1291
0 40 1711
0 0 2267
0 0 3005
0 0 3983
0 0 4095
0 0 4095
0 0 4095
0 0 4095
0 0 4095
0 0 4095
0 0 4095
0 0 4095
0 0 4095
0 0 4095
0 280 7
0 279 9
0 279 13
0 279 18
0 278 24
0 277 32
0 276 43
0 275 57
0 273 76
0 270 101
0 267 134
0 262 179
0 257 237
0 249 315
0 239 417
0 225 554
0 207 734
0 183 973
0 151 1290
0 109 1710
0 54 2267
0 0 3005
0 0 3982
0 0 4095
0 0 4095
0 0 4095
0 0 4095
0 0 4095
0 0 4095
0 0 4095
0 0 4095
0 0 4095
0 0 4095
0 371 6
0 371 9
0 370 12
0 370 17
0 369 23
0 369 31
0 367 42
0 366 56
0 364 75
0 362 101
0 358 134
0 354 178
0 348 237
0 340 314
0 330 417
0 316 553
0 298 734
0 275 973
0 243 1290
0 201 1710
0 145 2266
0 72 3004
0 0 3982
0 0 4095
0 0 4095
0 0 4095
0 0 4095
0 0 4095
0 0 4095
0 0 4095
0 0 4095
0 0 4095
0 0 4095
0 492 6
0 492 8
0 492 12
0 491 16
0 491 23
0 490 31
0 489 42
0 487 56
0 485 75
0 483 100
0 479 133
0 475 177
0 469 236
0 461 314
0 451 416
0 438 552
0 420 733
0 396 972
0 364 1289
0 322 1709
0 266 2266
0 193 3004
0 95 3981
0 0 4095
0 0 4095
0 0 4095
0 0 4095
0 0 4095
0 0 4095
0 0 4095
0 0 4095
0 0 4095
0 0 4095
0 653 5
0 653 7
0 652 11
0 652 16
0 651 22
0 650 30
0 649 41
0 648 55
0 646 74
0 643 99
0 640 132
0 636 177
0 630 235
0 622 313
0 612 415
0 598 552
0 580 732
0 556 971
0 525 1288
0 483 1708
0 427 2265
0 353 3003
0 256 3980
0 126 4095
0 0 4095
0 0 4095
0 0 4095
0 0 4095
0 0 4095
0 0 4095
0 0 4095
0 0 4095
0 0 4095
0 866 4
0 865 6
0 865 10
0 864 15
0 864 21
0 863 29
0 862 40
0 861 54
0 859 73
0 856 98
0 853 131
0 848 176
0 843 234
0 835 312
0 825 414
0 811 551
0 793 731
0 769 970
0 737 1287
0 695 1707
0 640 2264
0 566 3002
0 468 3979
0 339 4095
0 167 4095
0 0 4095
0 0 4095
0 0 4095
0 0 4095
0 0 4095
0 0 4095
0 0 4095
0 0 4095
0 1148 2
0 1147 5
0 1147 8
0 1146 13
0 1146 19
0 1145 27
0 1144 38
0 1143 53
0 1141 71
0 1138 97
0 1135 130
0 1130 174
0 1125 233
0 1117 310
0 1107 413
0 1093 549
0 1075 730
0 1051 969
0 1019 1286
0 977 1706
0 922 2263
0 848 3000
0 750 3978
0 621 4095
0 449 4095
0 222 4095
0 0 4095
0 0 4095
0 0 4095
0 0 4095
0 0 4095
0 0 4095
0 0 4095
0 1521 0
0 1521 3
0 1521 7
0 1520 11
0 1520 17
0 1519 25
0 1518 36
0 1516 51
0 1514 70
0 1512 95
0 1508 128
0 1504 172
0 1498 231
0 1490 308
0 1480 411
0 1467 547
0 1449 728
0 1425 967
0 1393 1284
0 1351 1704
0 1295 2261
0 1222 2998
0 1124 3976
0 995 4095
0 823 4095
0 596 4095
0 294 4095
0 0 4095
0 0 4095
0 0 4095
0 0 4095
0 0 4095
0 0 4095
0 2016 0
0 2016 0
0 2016 4
0 2015 9
0 2015 15
0 2014 23
0 2013 34
0 2011 48
0 2010 67
0 2007 92
0 2004 125
0 1999 170
0 1993 228
0 1986 306
0 1975 408
0 1962 545
0 1944 725
0 1920 964
0 1888 1281
0 1846 1701
0 1791 2258
0 1717 2996
0 1619 3973
0 1490 4095
0 1318 4095
0 1091 4095
0 790 4095
0 390 4095
0 0 4095
0 0 4095
0 0 4095
0 0 4095
0 0 4095
0 2673 0
0 2672 0
0 2672 1
0 2672 5
0 2671 11
0 2670 20
0 2669 30
0 2668 45
0 2666 64
0 2663 89
0 2660 122
0 2656 166
0 2650 225
0 2642 302
0 2632 405
0 2618 541
0 2600 722
0 2576 961
0 2545 1278
0 2503 1698
0 2447 2255
0 2373 2992
0 2276 3970
0 2146 4095
0 1975 4095
0 1747 4095
0 1446 4095
0 1047 4095
0 518 4095
0 0 4095
0 0 4095
0 0 4095
0 0 4095
0 3543 0
0 3542 0
0 3542 0
0 3541 1
0 3541 7
0 3540 15
0 3539 26
0 3537 40
0 3536 59
0 3533 84
0 3530 118
0 3525 162
0 3519 220
0 3512 298
0 3501 401
0 3488 537
0 3470 717
0 3446 956
0 3414 1273
0 3372 1694
0 3317 2250
0 3243 2988
0 3145 3966
0 3016 4095
0 2844 4095
0 2617 4095
0 2316 4095
0 1916 4095
0 1387 4095
0 686 4095
0 0 4095
0 0 4095
0 0 4095
0 4095 0
0 4095 0
0 4095 0
0 4095 0
0 4095 1
0 4095 9
0 4095 20
0 4095 34
0 4095 53
0 4095 78
0 4095 112
0 4095 156
0 4095 214
0 4095 292
0 4095 395
0 4095 531
0 4095 711
0 4095 951
0 4095 1268
0 4095 1688
0 4095 2244
0 4095 2982
0 4095 3960
0 4095 4095
0 3997 4095
0 3770 4095
0 3468 4095
0 3069 4095
0 2540 4095
0 1839 4095
0 910 4095
0 0 4095
0 0 4095
0 4095 0
0 4095 0
0 4095 0
0 4095 0
0 4095 0
0 4095 1
0 4095 12
0 4095 26
0 4095 45
0 4095 71
0 4095 104
0 4095 148
0 4095 207
0 4095 284
0 4095 387
0 4095 523
0 4095 704
0 4095 943
0 4095 1260
0 4095 1680
0 4095 2236
0 4095 2974
0 4095 3952
0 4095 4095
0 4095 4095
0 4095 4095
0 4095 4095
0 4095 4095
0 4067 4095
0 3366 4095
0 2437 4095
0 1206 4095
0 0 4095
0 4095 0
0 4095 0
0 4095 0
0 4095 0
0 4095 0
0 4095 0
0 4095 2
0 4095 16
0 4095 35
0 4095 60
0 4095 94
0 4095 138
0 4095 196
0 4095 274
0 4095 377
0 4095 513
0 4095 693
0 4095 932
0 4095 1249
0 4095 1669
0 4095 2226
0 4095 2964
0 4095 3942
0 4095 4095
0 4095 4095
0 4095 4095
0 4095 4095
0 4095 4095
0 4095 4095
0 4095 4095
0 4095 4095
0 3230 4095
0 1598 4095
0 4095 0
0 4095 0
0 4095 0
0 4095 0
0 4095 0
0 4095 0
0 4095 0
0 4095 2
0 4095 21
0 4095 46
0 4095 80
0 4095 124
0 4095 182
0 4095 260
0 4095 363
0 4095 499
0 4095 679
0 4095 919
0 4095 1236
0 4095 1656
0 4095 2212
0 4095 2950
0 4095 3928
0 4095 4095
0 4095 4095
0 4095 4095
0 4095 4095
0 4095 4095
0 4095 4095
0 4095 4095
0 4095 4095
0 4095 4095
0 4095 4095
0 4095 0
0 4095 0
0 4095 0
0 4095 0
0 4095 0
0 4095 0
0 4095 0
0 4095 0
0 4095 3
0 4095 28
0 4095 62
0 4095 106
0 4095 164
0 4095 242
0 4095 345
0 4095 481
0 4095 661
0 4095 900
0 4095 1217
0 4095 1637
0 4095 2194
0 4095 2932
0 4095 3910
0 4095 4095
0 4095 4095
0 4095 4095
0 4095 4095
0 4095 4095
0 4095 4095
0 4095 4095
0 4095 4095
0 4095 4095
0 4095 4095
0 4095 0
0 4095 0
0 4095 0
0 4095 0
0 4095 0
0 4095 0
0 4095 0
0 4095 0
0 4095 0
